TCliu030506/rrc_ws/src/x6_pkg/x6_control_python/record/record_20260113_164742.csv
timestamp,x6position_pose_rp[0],x6position_pose_rp[1],x6position_pose_rp[2],x6position_pose_rp[3],x6position_pose_rp[4],x6position_pose_rp[5],x6position_joints[0],x6position_joints[1],x6position_joints[2],x6position_joints[3],x6position_joints[4],x6position_joints[5],aimooe_coord_header.stamp.sec,aimooe_coord_header.stamp.nanosec,aimooe_coord_header.frame_id,aimooe_coord_position.x,aimooe_coord_position.y,aimooe_coord_position.z,aimooe_coord_orientation.x,aimooe_coord_orientation.y,aimooe_coord_orientation.z,aimooe_coord_mean_error
2026-01-13 16:47:17.018594,2.999022960662842,-5.565622996073216e-05,39.0011100769043,-0.0025108137633651495,0.0022885329090058804,-0.0005347596597857773,33.2760009765625,39.11899948120117,35.50699996948242,43.99599838256836,27.886999130249023,31.499000549316406,1768294036,924324379,X6-tool2,2.88842915215383,-0.029259457438003025,39.153608334185485,-0.12136220679848818,-0.0626795308896179,0.07503768885311539,0.059299785643815994
2026-01-13 16:47:17.053406,3.0000576972961426,0.0007693328079767525,39.00168228149414,-0.0025108137633651495,0.0022885329090058804,-0.0005347596597857773,33.2760009765625,39.11899948120117,35.50699996948242,44.000999450683594,27.886999130249023,31.499000549316406,1768294037,24267482,X6-tool2,2.908232586188132,-0.0025512906968018522,39.17944233057191,-0.12080961779951688,-0.06281201435360827,0.07531826777751544,0.05787881091237068
2026-01-13 16:47:17.087999,3.0000576972961426,0.0007693328079767525,39.00168228149414,-0.0025108137633651495,0.0022885329090058804,-0.0005347596597857773,33.2760009765625,39.11899948120117,35.50699996948242,44.000999450683594,27.886999130249023,31.499000549316406,1768294037,24267482,X6-tool2,2.908232586188132,-0.0025512906968018522,39.17944233057191,-0.12080961779951688,-0.06281201435360827,0.07531826777751544,0.05787881091237068
2026-01-13 16:47:17.122490,3.0000576972961426,0.0007693328079767525,39.00168228149414,-0.0025108137633651495,0.0022885329090058804,-0.0005347596597857773,33.2760009765625,39.11899948120117,35.50699996948242,44.000999450683594,27.886999130249023,31.499000549316406,1768294037,24267482,X6-tool2,2.908232586188132,-0.0025512906968018522,39.17944233057191,-0.12080961779951688,-0.06281201435360827,0.07531826777751544,0.05787881091237068
2026-01-13 16:47:17.157096,3.0000576972961426,0.0007693328079767525,39.00168228149414,-0.0025108137633651495,0.0022885329090058804,-0.0005347596597857773,33.2760009765625,39.11899948120117,35.50699996948242,44.000999450683594,27.886999130249023,31.499000549316406,1768294037,124259206,X6-tool2,2.859415875601802,-0.0062136763753574695,39.17639067822725,-0.12102989669405116,-0.06193455740673823,0.075050775815809,0.05773194506764412
2026-01-13 16:47:17.191583,3.0000576972961426,0.0007693328079767525,39.00168228149414,-0.0025108137633651495,0.0022885329090058804,-0.0005347596597857773,33.2760009765625,39.11899948120117,35.50699996948242,44.000999450683594,27.886999130249023,31.499000549316406,1768294037,124259206,X6-tool2,2.859415875601802,-0.0062136763753574695,39.17639067822725,-0.12102989669405116,-0.06193455740673823,0.075050775815809,0.05773194506764412
2026-01-13 16:47:17.226085,3.0000576972961426,0.0007693328079767525,39.00168228149414,-0.0025108137633651495,0.0022885329090058804,-0.0005347596597857773,33.2760009765625,39.11899948120117,35.50699996948242,44.000999450683594,27.886999130249023,31.499000549316406,1768294037,224324094,X6-tool2,2.868104885714399,-0.007113466295656706,39.138899381224185,-0.12116429194365531,-0.06221049367256169,0.07509993051542865,0.058620769530534744
2026-01-13 16:47:17.260586,3.0000576972961426,0.0007693328079767525,39.00168228149414,-0.0025108137633651495,0.0022885329090058804,-0.0005347596597857773,33.2760009765625,39.11899948120117,35.50699996948242,44.000999450683594,27.886999130249023,31.499000549316406,1768294037,224324094,X6-tool2,2.868104885714399,-0.007113466295656706,39.138899381224185,-0.12116429194365531,-0.06221049367256169,0.07509993051542865,0.058620769530534744
2026-01-13 16:47:17.295136,3.0000576972961426,0.0007693328079767525,39.00168228149414,-0.0025108137633651495,0.0022885329090058804,-0.0005347596597857773,33.2760009765625,39.11899948120117,35.50699996948242,44.000999450683594,27.886999130249023,31.499000549316406,1768294037,224324094,X6-tool2,2.868104885714399,-0.007113466295656706,39.138899381224185,-0.12116429194365531,-0.06221049367256169,0.07509993051542865,0.058620769530534744
2026-01-13 16:47:17.329650,3.0000576972961426,0.0007693328079767525,39.00168228149414,-0.0025108137633651495,0.0022885329090058804,-0.0005347596597857773,33.2760009765625,39.11899948120117,35.50699996948242,44.000999450683594,27.886999130249023,31.499000549316406,1768294037,324444604,X6-tool2,2.8863307190829754,-0.037967638837327476,39.19502752998784,-0.12176822917668782,-0.06219809899892459,0.07515883824603503,0.060113269835710526
2026-01-13 16:47:17.364236,3.0000576972961426,0.0007693328079767525,39.00168228149414,-0.0025108137633651495,0.0022885329090058804,-0.0005347596597857773,33.2760009765625,39.11899948120117,35.50699996948242,44.000999450683594,27.886999130249023,31.499000549316406,1768294037,324444604,X6-tool2,2.8863307190829754,-0.037967638837327476,39.19502752998784,-0.12176822917668782,-0.06219809899892459,0.07515883824603503,0.060113269835710526
2026-01-13 16:47:17.398755,3.0000576972961426,0.0007693328079767525,39.00168228149414,-0.0025108137633651495,0.0022885329090058804,-0.0005347596597857773,33.270999908447266,39.11899948120117,35.50699996948242,44.000999450683594,27.886999130249023,31.499000549316406,1768294037,324444604,X6-tool2,2.8863307190829754,-0.037967638837327476,39.19502752998784,-0.12176822917668782,-0.06219809899892459,0.07515883824603503,0.060113269835710526
2026-01-13 16:47:17.433178,3.0000576972961426,0.0007693328079767525,39.00168228149414,-0.0025108137633651495,0.0022885329090058804,-0.0005347596597857773,33.270999908447266,39.11899948120117,35.50699996948242,44.000999450683594,27.886999130249023,31.499000549316406,1768294037,424416268,X6-tool2,2.8917814560008788,0.018974320597472897,39.235019884346414,-0.1203790200448193,-0.062423720467629694,0.07516935199801139,0.06039587780833244
2026-01-13 16:47:17.467670,3.0000576972961426,0.0007693328079767525,39.00168228149414,-0.0025108137633651495,0.0022885329090058804,-0.0005347596597857773,33.270999908447266,39.11899948120117,35.50699996948242,44.000999450683594,27.886999130249023,31.499000549316406,1768294037,424416268,X6-tool2,2.8917814560008788,0.018974320597472897,39.235019884346414,-0.1203790200448193,-0.062423720467629694,0.07516935199801139,0.06039587780833244
2026-01-13 16:47:17.502088,3.0000576972961426,0.0007693328079767525,39.00168228149414,-0.0025108137633651495,0.0022885329090058804,-0.0005347596597857773,33.270999908447266,39.11899948120117,35.50699996948242,44.000999450683594,27.886999130249023,31.499000549316406,1768294037,424416268,X6-tool2,2.8917814560008788,0.018974320597472897,39.235019884346414,-0.1203790200448193,-0.062423720467629694,0.07516935199801139,0.06039587780833244
2026-01-13 16:47:17.536640,3.0000576972961426,0.0007693328079767525,39.00168228149414,-0.0025108137633651495,0.0022885329090058804,-0.0005347596597857773,33.270999908447266,39.11899948120117,35.50699996948242,44.000999450683594,27.886999130249023,31.499000549316406,1768294037,524190904,X6-tool2,2.901965803648595,-0.02047354210083297,39.12994718354273,-0.12119256027320302,-0.06291970570878798,0.07523434094835234,0.058722496032714844
2026-01-13 16:47:17.570949,3.0000576972961426,0.0007693328079767525,39.00168228149414,-0.0025108137633651495,0.0022885329090058804,-0.0005347596597857773,33.270999908447266,39.11899948120117,35.50699996948242,44.000999450683594,27.886999130249023,31.499000549316406,1768294037,524190904,X6-tool2,2.901965803648595,-0.02047354210083297,39.12994718354273,-0.12119256027320302,-0.06291970570878798,0.07523434094835234,0.058722496032714844
2026-01-13 16:47:17.605464,3.0000576972961426,0.0007693328079767525,39.00168228149414,-0.0025108137633651495,0.0022885329090058804,-0.0005347596597857773,33.2760009765625,39.11899948120117,35.50699996948242,44.000999450683594,27.886999130249023,31.499000549316406,1768294037,524190904,X6-tool2,2.901965803648595,-0.02047354210083297,39.12994718354273,-0.12119256027320302,-0.06291970570878798,0.07523434094835234,0.058722496032714844
2026-01-13 16:47:17.639951,2.937654972076416,0.04185903072357178,39.07379913330078,-0.011149168014526367,0.2345830798149109,-0.09131062030792236,33.39699935913086,39.152000427246094,35.50699996948242,44.0890007019043,28.298999786376953,31.82900047302246,1768294037,624262652,X6-tool2,2.8842982347181034,-0.04473251503573613,39.13499329407605,-0.12207926962981712,-0.06244617990400079,0.07488247607133205,0.05904992297291756
2026-01-13 16:47:17.674443,2.834301710128784,0.05468537658452988,39.320926666259766,0.22612038254737854,1.1358239650726318,-0.2772446274757385,33.70500183105469,39.61899948120117,35.49599838256836,44.4630012512207,29.573999404907227,32.641998291015625,1768294037,624262652,X6-tool2,2.8842982347181034,-0.04473251503573613,39.13499329407605,-0.12207926962981712,-0.06244617990400079,0.07488247607133205,0.05904992297291756
2026-01-13 16:47:17.708924,2.7175161838531494,0.05762624368071556,39.56880187988281,0.4732756018638611,1.9231315851211548,-0.43550416827201843,33.98500061035156,40.108001708984375,35.48500061035156,44.79800033569336,30.847999572753906,33.47700119018555,1768294037,624262652,X6-tool2,2.8842982347181034,-0.04473251503573613,39.13499329407605,-0.12207926962981712,-0.06244617990400079,0.07488247607133205,0.05904992297291756
2026-01-13 16:47:17.743404,2.6605870723724365,0.05996277555823326,39.69561004638672,0.5408250689506531,2.280271291732788,-0.5062887668609619,34.18299865722656,40.36000061035156,35.479000091552734,44.979000091552734,31.46299934387207,33.900001525878906,1768294037,724138332,X6-tool2,2.6220395783977795,0.19796603395236934,39.639048316047365,-0.13651712137061509,-0.0635368927605031,0.06161521210369873,0.05495007708668709
2026-01-13 16:47:17.777868,2.5532631874084473,0.06116210296750069,39.948089599609375,0.7666680812835693,2.9957809448242188,-0.6193720102310181,34.46799850463867,40.87699890136719,35.46799850463867,45.35200119018555,32.74300003051758,34.729000091552734,1768294037,724138332,X6-tool2,2.6220395783977795,0.19796603395236934,39.639048316047365,-0.13651712137061509,-0.0635368927605031,0.06161521210369873,0.05495007708668709
2026-01-13 16:47:17.812347,2.4431235790252686,0.07820641249418259,40.19234085083008,0.9088452458381653,3.658569574356079,-0.7330120801925659,34.803001403808594,41.34400177001953,35.45199966430664,45.72600173950195,34.012001037597656,35.558998107910156,1768294037,724138332,X6-tool2,2.6220395783977795,0.19796603395236934,39.639048316047365,-0.13651712137061509,-0.0635368927605031,0.06161521210369873,0.05495007708668709
2026-01-13 16:47:17.847041,2.320322036743164,0.08973100781440735,40.43814468383789,1.0334326028823853,4.2505950927734375,-0.8432115316390991,35.154998779296875,41.82699966430664,35.441001892089844,46.071998596191406,35.29199981689453,36.41600036621094,1768294037,832904970,X6-tool2,2.2625848815879497,0.35941367551100356,40.258583467048155,-0.14915406354504263,-0.05697290358944538,0.05161812444826554,0.0634520873427391
2026-01-13 16:47:17.881418,2.2583959102630615,0.08466429263353348,40.55928421020508,1.1053950786590576,4.525832176208496,-0.8894056081771851,35.32500076293945,42.090999603271484,35.43000030517578,46.22600173950195,35.92900085449219,36.83300018310547,1768294037,832904970,X6-tool2,2.2625848815879497,0.35941367551100356,40.258583467048155,-0.14915406354504263,-0.05697290358944538,0.05161812444826554,0.0634520873427391
2026-01-13 16:47:17.915884,2.1379878520965576,0.08082981407642365,40.79969024658203,1.191597819328308,5.054261207580566,-0.9862134456634521,35.72100067138672,42.606998443603516,35.41299819946289,46.54999923706055,37.198001861572266,37.66299819946289,1768294037,832904970,X6-tool2,2.2625848815879497,0.35941367551100356,40.258583467048155,-0.14915406354504263,-0.05697290358944538,0.05161812444826554,0.0634520873427391
2026-01-13 16:47:17.950256,2.016835927963257,0.08026573061943054,41.04558181762695,1.2965096235275269,5.550317287445068,-1.0414000749588013,36.06100082397461,43.1349983215332,35.39099884033203,46.895999908447266,38.483001708984375,38.513999938964844,1768294037,932621324,X6-tool2,1.8562816337835202,0.28891688954008066,40.85077928848198,-0.16675632103675245,-0.04989354344950196,0.046854066579095986,0.06107044219970703
2026-01-13 16:47:17.984778,1.9596748352050781,0.08254969865083694,41.168827056884766,1.3303625583648682,5.780527114868164,-1.062301516532898,36.24300003051758,43.39799880981445,35.38600158691406,47.08300018310547,39.11000061035156,38.9370002746582,1768294037,932621324,X6-tool2,1.8562816337835202,0.28891688954008066,40.85077928848198,-0.16675632103675245,-0.04989354344950196,0.046854066579095986,0.06107044219970703
2026-01-13 16:47:18.019190,1.8517578840255737,0.09723160415887833,41.41325759887695,1.3995015621185303,6.262692928314209,-1.0874232053756714,36.577999114990234,43.90399932861328,35.36399841308594,47.48400115966797,40.4010009765625,39.777000427246094,1768294037,932621324,X6-tool2,1.8562816337835202,0.28891688954008066,40.85077928848198,-0.16675632103675245,-0.04989354344950196,0.046854066579095986,0.06107044219970703
2026-01-13 16:47:18.053665,1.7337474822998047,0.10612878948450089,41.648067474365234,1.4621686935424805,6.683919429779053,-1.1120800971984863,36.902000427246094,44.40299987792969,35.34199905395508,47.834999084472656,41.67499923706055,40.61199951171875,1768294038,31490044,X6-tool2,1.5877673867654507,0.28094249522771764,41.34882483746467,-0.1812084740510879,-0.04717058757387128,0.04495779176058282,0.0628560408949852
2026-01-13 16:47:18.088083,1.6096769571304321,0.1093687042593956,41.889503479003906,1.4810267686843872,7.083096981048584,-1.1246538162231445,37.275001525878906,44.93600082397461,35.308998107910156,48.1870002746582,42.97100067138672,41.474998474121094,1768294038,31490044,X6-tool2,1.5877673867654507,0.28094249522771764,41.34882483746467,-0.1812084740510879,-0.04717058757387128,0.04495779176058282,0.0628560408949852
2026-01-13 16:47:18.122490,1.5510162115097046,0.10858709365129471,42.00975799560547,1.480029821395874,7.272130012512207,-1.116169810295105,37.46200180053711,45.21099853515625,35.2869987487793,48.36800003051758,43.60300064086914,41.89799880981445,1768294038,31490044,X6-tool2,1.5877673867654507,0.28094249522771764,41.34882483746467,-0.1812084740510879,-0.04717058757387128,0.04495779176058282,0.0628560408949852
2026-01-13 16:47:18.156979,1.4328782558441162,0.10237236320972443,42.245670318603516,1.4617060422897339,7.6455302238464355,-1.0993038415908813,37.85200119018555,45.76599884033203,35.231998443603516,48.7140007019043,44.88800048828125,42.733001708984375,1768294038,130914937,X6-tool2,1.3609442267918956,0.4375158950700875,42.060470784096324,-0.18831623145616758,-0.0463883650361652,0.04454261183218962,0.05527464672923088
2026-01-13 16:47:18.194483,1.3095492124557495,0.11043053865432739,42.4764518737793,1.4267966747283936,7.993556022644043,-1.0812093019485474,38.22600173950195,46.28200149536133,35.18299865722656,49.060001373291016,46.17399978637695,43.58399963378906,1768294038,130914937,X6-tool2,1.3609442267918956,0.4375158950700875,42.060470784096324,-0.18831623145616758,-0.0463883650361652,0.04454261183218962,0.05527464672923088
2026-01-13 16:47:18.228968,1.1813209056854248,0.11589279770851135,42.70454788208008,1.3911956548690796,8.302268028259277,-1.0535913705825806,38.5880012512207,46.80400085449219,35.138999938964844,49.38999938964844,47.45899963378906,44.441001892089844,1768294038,130914937,X6-tool2,1.3609442267918956,0.4375158950700875,42.060470784096324,-0.18831623145616758,-0.0463883650361652,0.04454261183218962,0.05527464672923088
2026-01-13 16:47:18.263255,1.120018720626831,0.11535602807998657,42.817203521728516,1.3479772806167603,8.45840072631836,-1.0414916276931763,38.801998138427734,47.073001861572266,35.111000061035156,49.55500030517578,48.10200119018555,44.85900115966797,1768294038,230408122,X6-tool2,1.0615178803829926,0.2309705792123714,42.540615415819275,-0.20201922294887065,-0.04673118576853181,0.0455277871014454,0.057155292481184006
2026-01-13 16:47:18.297769,1.0047473907470703,0.12450077384710312,43.04420852661133,1.2908254861831665,8.754969596862793,-0.9757999181747437,39.15399932861328,47.599998474121094,35.0620002746582,49.92300033569336,49.38199996948242,45.69900131225586,1768294038,230408122,X6-tool2,1.0615178803829926,0.2309705792123714,42.540615415819275,-0.20201922294887065,-0.04673118576853181,0.0455277871014454,0.057155292481184006
2026-01-13 16:47:18.332254,0.8912919759750366,0.12703299522399902,43.28113555908203,1.2246264219284058,9.023761749267578,-0.8685275316238403,39.505001068115234,48.176998138427734,35.012001037597656,50.31800079345703,50.678001403808594,46.56100082397461,1768294038,329957060,X6-tool2,0.6255912598487741,0.35815853318947777,43.037936831996646,-0.2075457575609188,-0.04713400162000814,0.04809106518941869,0.06914297491312027
2026-01-13 16:47:18.366553,0.8351448774337769,0.13388194143772125,43.39800262451172,1.1768382787704468,9.154081344604492,-0.809440553188324,39.680999755859375,48.45199966430664,34.98500061035156,50.52199935913086,51.314998626708984,46.994998931884766,1768294038,329957060,X6-tool2,0.6255912598487741,0.35815853318947777,43.037936831996646,-0.2075457575609188,-0.04713400162000814,0.04809106518941869,0.06914297491312027
2026-01-13 16:47:18.401159,0.7141525149345398,0.14417557418346405,43.6119499206543,1.081389307975769,9.392602920532227,-0.7419865131378174,40.04899978637695,48.9630012512207,34.941001892089844,50.856998443603516,52.60100173950195,47.83000183105469,1768294038,329957060,X6-tool2,0.6255912598487741,0.35815853318947777,43.037936831996646,-0.2075457575609188,-0.04713400162000814,0.04809106518941869,0.06914297491312027
2026-01-13 16:47:18.435628,0.5862361192703247,0.14717711508274078,43.82897186279297,0.9658423066139221,9.5828275680542,-0.6866492033004761,40.46699905395508,49.50699996948242,34.92399978637695,51.180999755859375,53.891998291015625,48.6870002746582,1768294038,429245647,X6-tool2,0.1987113264532707,0.4357338876316258,43.497971099093945,-0.2115017878987065,-0.048420924842279105,0.05203430836494771,0.08308283239603043
2026-01-13 16:47:18.470058,0.46079814434051514,0.15904922783374786,44.04771423339844,0.8514535427093506,9.748149871826172,-0.6111718416213989,40.86199951171875,50.04499816894531,34.92399978637695,51.53200149536133,55.176998138427734,49.56100082397461,1768294038,429245647,X6-tool2,0.1987113264532707,0.4357338876316258,43.497971099093945,-0.2115017878987065,-0.048420924842279105,0.05203430836494771,0.08308283239603043
2026-01-13 16:47:18.504545,0.4018498957157135,0.16362537443637848,44.154296875,0.7968623042106628,9.824315071105957,-0.5650889277458191,41.04899978637695,50.31399917602539,34.92399978637695,51.70800018310547,55.81399917602539,49.98400115966797,1768294038,429245647,X6-tool2,0.1987113264532707,0.4357338876316258,43.497971099093945,-0.2115017878987065,-0.048420924842279105,0.05203430836494771,0.08308283239603043
2026-01-13 16:47:18.538979,0.28736427426338196,0.16565023362636566,44.368621826171875,0.6874067783355713,9.951584815979004,-0.4447500705718994,41.4119987487793,50.880001068115234,34.92399978637695,52.064998626708984,57.08300018310547,50.82400131225586,1768294038,528823835,X6-tool2,-0.19505333387326876,0.574781157915594,44.18495966137061,-0.21297301202943472,-0.047213021070590167,0.045450058806232006,0.06786378473043442
2026-01-13 16:47:18.573497,0.16298429667949677,0.17903585731983185,44.58148956298828,0.5415714979171753,10.066529273986816,-0.33074989914894104,41.801998138427734,51.42399978637695,34.92399978637695,52.41699981689453,58.362998962402344,51.702999114990234,1768294038,528823835,X6-tool2,-0.19505333387326876,0.574781157915594,44.18495966137061,-0.21297301202943472,-0.047213021070590167,0.045450058806232006,0.06786378473043442
2026-01-13 16:47:18.607939,0.044355981051921844,0.20399291813373566,44.78858947753906,0.3897578716278076,10.17601203918457,-0.19842419028282166,42.16400146484375,51.935001373291016,34.92399978637695,52.78499984741211,59.63199996948242,52.57699966430664,1768294038,528823835,X6-tool2,-0.19505333387326876,0.574781157915594,44.18495966137061,-0.21297301202943472,-0.047213021070590167,0.045450058806232006,0.06786378473043442
2026-01-13 16:47:18.642409,0.00365848233923316,0.20531359314918518,44.883487701416016,0.2858394384384155,10.18878173828125,-0.1027926355600357,42.35599899291992,52.198001861572266,34.92399978637695,52.97100067138672,60.04399871826172,52.93899917602539,1768294038,628384213,X6-tool2,-0.5801320545275903,0.7527594292852061,44.70407690857534,-0.20027214001022667,-0.03264354896739276,0.025337316009907955,0.06906414031982422
2026-01-13 16:47:18.676893,0.00243441853672266,0.07328571379184723,44.968841552734375,0.14006030559539795,10.054553031921387,0.021877510473132133,42.74599838256836,52.763999938964844,34.92399978637695,53.042999267578125,60.14799880981445,53.027000427246094,1768294038,628384213,X6-tool2,-0.5801320545275903,0.7527594292852061,44.70407690857534,-0.20027214001022667,-0.03264354896739276,0.025337316009907955,0.06906414031982422
2026-01-13 16:47:18.711359,0.0025483386125415564,0.0012597867753356695,45.000755310058594,-0.0002497140667401254,10.004033088684082,0.01140601746737957,43.082000732421875,53.03300094604492,34.92399978637695,53.042999267578125,60.15399932861328,53.03200149536133,1768294038,628384213,X6-tool2,-0.5801320545275903,0.7527594292852061,44.70407690857534,-0.20027214001022667,-0.03264354896739276,0.025337316009907955,0.06906414031982422
2026-01-13 16:47:18.745831,0.0026010985020548105,-0.0017080602701753378,45.00202941894531,-0.011892634443938732,10.00551700592041,0.0053826854564249516,43.10900115966797,53.04399871826172,34.92399978637695,53.042999267578125,60.159000396728516,53.03200149536133,1768294038,727727152,X6-tool2,-0.6443297931042004,0.597458234211908,44.86978471964842,-0.18893147957188605,-0.029345403953388485,0.021142847169166784,0.0653889998793602
2026-01-13 16:47:18.780231,0.002629874274134636,-0.0033267505932599306,45.002723693847656,-0.011893616057932377,10.001876831054688,0.008763064630329609,43.11399841308594,53.04999923706055,34.92399978637695,53.042999267578125,60.159000396728516,53.03200149536133,1768294038,727727152,X6-tool2,-0.6443297931042004,0.597458234211908,44.86978471964842,-0.18893147957188605,-0.029345403953388485,0.021142847169166784,0.0653889998793602
2026-01-13 16:47:18.814725,0.002629874274134636,-0.0033267505932599306,45.002723693847656,-0.011893616057932377,10.001876831054688,0.008763064630329609,43.11399841308594,53.04999923706055,34.92399978637695,53.042999267578125,60.159000396728516,53.03200149536133,1768294038,727727152,X6-tool2,-0.6443297931042004,0.597458234211908,44.86978471964842,-0.18893147957188605,-0.029345403953388485,0.021142847169166784,0.0653889998793602
2026-01-13 16:47:18.849160,0.002629874274134636,-0.0033267505932599306,45.002723693847656,-0.011893616057932377,10.001876831054688,0.008763064630329609,43.10900115966797,53.04999923706055,34.93000030517578,53.042999267578125,60.15399932861328,53.03200149536133,1768294038,827444676,X6-tool2,-0.6357550057838403,0.5538672069620039,44.88933410620651,-0.18948432082709982,-0.029017315928817164,0.020588098790043186,0.06245136260986328
2026-01-13 16:47:18.883646,0.002629874274134636,-0.0033267505932599306,45.002723693847656,-0.011893616057932377,10.001876831054688,0.008763064630329609,43.10900115966797,53.04999923706055,34.93000030517578,53.042999267578125,60.159000396728516,53.03200149536133,1768294038,827444676,X6-tool2,-0.6357550057838403,0.5538672069620039,44.88933410620651,-0.18948432082709982,-0.029017315928817164,0.020588098790043186,0.06245136260986328
2026-01-13 16:47:18.918083,0.0026010985020548105,-0.0017080602701753378,45.00202941894531,-0.007961174473166466,10.002425193786621,0.0013997303321957588,43.10900115966797,53.04399871826172,34.93000030517578,53.042999267578125,60.159000396728516,53.03200149536133,1768294038,827444676,X6-tool2,-0.6357550057838403,0.5538672069620039,44.88933410620651,-0.18948432082709982,-0.029017315928817164,0.020588098790043186,0.06245136260986328
2026-01-13 16:47:18.952556,0.0026010985020548105,-0.0017080602701753378,45.00202941894531,-0.007961174473166466,10.002425193786621,0.0013997303321957588,43.10900115966797,53.04399871826172,34.93000030517578,53.042999267578125,60.159000396728516,53.03200149536133,1768294038,926546956,X6-tool2,-0.6576881925182666,0.5509270903902929,44.84997861458252,-0.18902149131138285,-0.028696481736424244,0.020299267622739002,0.07430044561624527
2026-01-13 16:47:18.986995,0.0026010985020548105,-0.0017080602701753378,45.00202941894531,-0.007961174473166466,10.002425193786621,0.0013997303321957588,43.10900115966797,53.04399871826172,34.93000030517578,53.042999267578125,60.15399932861328,53.03200149536133,1768294038,926546956,X6-tool2,-0.6576881925182666,0.5509270903902929,44.84997861458252,-0.18902149131138285,-0.028696481736424244,0.020299267622739002,0.07430044561624527
2026-01-13 16:47:19.021382,0.0026010985020548105,-0.0017080602701753378,45.00202941894531,-0.007961174473166466,10.002425193786621,0.0013997303321957588,43.10900115966797,53.04399871826172,34.93000030517578,53.042999267578125,60.159000396728516,53.03200149536133,1768294038,926546956,X6-tool2,-0.6576881925182666,0.5509270903902929,44.84997861458252,-0.18902149131138285,-0.028696481736424244,0.020299267622739002,0.07430044561624527
2026-01-13 16:47:19.055848,0.0026010985020548105,-0.0017080602701753378,45.00202941894531,-0.007961174473166466,10.002425193786621,0.0013997303321957588,43.10900115966797,53.04399871826172,34.93000030517578,53.042999267578125,60.15399932861328,53.03200149536133,1768294039,26326563,X6-tool2,-0.6659029443576113,0.4910579699691603,44.842794372557215,-0.1901512342519449,-0.028475199205880427,0.020525290997828894,0.07323423773050308
2026-01-13 16:47:19.090249,0.0026010985020548105,-0.0017080602701753378,45.00202941894531,-0.007961174473166466,10.002425193786621,0.0013997303321957588,43.10300064086914,53.04399871826172,34.93000030517578,53.042999267578125,60.159000396728516,53.03200149536133,1768294039,26326563,X6-tool2,-0.6659029443576113,0.4910579699691603,44.842794372557215,-0.1901512342519449,-0.028475199205880427,0.020525290997828894,0.07323423773050308
2026-01-13 16:47:19.124767,0.0011848894646391273,-0.0009235166944563389,45.002723693847656,-0.007961174473166466,10.002425193786621,0.0013997303321957588,43.10300064086914,53.04399871826172,34.93000030517578,53.042999267578125,60.159000396728516,53.03799819946289,1768294039,26326563,X6-tool2,-0.6659029443576113,0.4910579699691603,44.842794372557215,-0.1901512342519449,-0.028475199205880427,0.020525290997828894,0.07323423773050308
2026-01-13 16:47:19.159205,0.0011848894646391273,-0.0009235166944563389,45.002723693847656,-0.007961174473166466,10.002425193786621,0.0013997303321957588,43.10300064086914,53.04399871826172,34.93000030517578,53.042999267578125,60.159000396728516,53.03799819946289,1768294039,125680002,X6-tool2,-0.6762245673346019,0.5399258762169987,44.89549099379684,-0.18885361188441163,-0.028127524380262486,0.02046113755627066,0.07406362146139145
2026-01-13 16:47:19.193689,0.0011848894646391273,-0.0009235166944563389,45.002723693847656,-0.007961174473166466,10.002425193786621,0.0013997303321957588,43.10300064086914,53.04399871826172,34.93000030517578,53.042999267578125,60.159000396728516,53.03799819946289,1768294039,125680002,X6-tool2,-0.6762245673346019,0.5399258762169987,44.89549099379684,-0.18885361188441163,-0.028127524380262486,0.02046113755627066,0.07406362146139145
2026-01-13 16:47:19.228112,0.0011848894646391273,-0.0009235166944563389,45.002723693847656,-0.007961174473166466,10.002425193786621,0.0013997303321957588,43.10300064086914,53.04399871826172,34.93000030517578,53.042999267578125,60.159000396728516,53.03799819946289,1768294039,225082653,X6-tool2,-0.6123298904200637,0.4760789799185861,44.8345228352079,-0.19034315053862266,-0.02951512902651754,0.020520275650472524,0.06987158209085464
2026-01-13 16:47:19.262581,0.0011848894646391273,-0.0009235166944563389,45.002723693847656,-0.007961174473166466,10.002425193786621,0.0013997303321957588,43.10300064086914,53.04399871826172,34.93000030517578,53.042999267578125,60.159000396728516,53.03799819946289,1768294039,225082653,X6-tool2,-0.6123298904200637,0.4760789799185861,44.8345228352079,-0.19034315053862266,-0.02951512902651754,0.020520275650472524,0.06987158209085464
2026-01-13 16:47:19.297500,0.0011848894646391273,-0.0009235166944563389,45.002723693847656,-0.007961174473166466,10.002425193786621,0.0013997303321957588,43.10300064086914,53.04399871826172,34.93000030517578,53.042999267578125,60.159000396728516,53.03799819946289,1768294039,225082653,X6-tool2,-0.6123298904200637,0.4760789799185861,44.8345228352079,-0.19034315053862266,-0.02951512902651754,0.020520275650472524,0.06987158209085464
2026-01-13 16:47:19.331959,-0.00020247476641088724,-0.0017576550599187613,45.00202941894531,-0.007961174473166466,10.002425193786621,0.0013997303321957588,43.10300064086914,53.04399871826172,34.93000030517578,53.0369987487793,60.159000396728516,53.03799819946289,1768294039,324454514,X6-tool2,-0.6852120189432953,0.47943266415768626,44.789244978227785,-0.19027322881338665,-0.028330820240080618,0.02031470574850604,0.07565784454345703
2026-01-13 16:47:19.366743,-0.00020247476641088724,-0.0017576550599187613,45.00202941894531,-0.007961174473166466,10.002425193786621,0.0013997303321957588,43.10300064086914,53.04399871826172,34.93000030517578,53.0369987487793,60.159000396728516,53.03799819946289,1768294039,324454514,X6-tool2,-0.6852120189432953,0.47943266415768626,44.789244978227785,-0.19027322881338665,-0.028330820240080618,0.02031470574850604,0.07565784454345703
2026-01-13 16:47:19.401221,-0.00020247476641088724,-0.0017576550599187613,45.00202941894531,-0.007961174473166466,10.002425193786621,0.0013997303321957588,43.10300064086914,53.04399871826172,34.93000030517578,53.0369987487793,60.159000396728516,53.03799819946289,1768294039,324454514,X6-tool2,-0.6852120189432953,0.47943266415768626,44.789244978227785,-0.19027322881338665,-0.028330820240080618,0.02031470574850604,0.07565784454345703
2026-01-13 16:47:19.435514,-0.00020247476641088724,-0.0017576550599187613,45.00202941894531,-0.007961174473166466,10.002425193786621,0.0013997303321957588,43.10300064086914,53.04399871826172,34.93000030517578,53.0369987487793,60.165000915527344,53.03799819946289,1768294039,424175008,X6-tool2,-0.686275602220577,0.5463837882868545,44.89798246139728,-0.18910056229548666,-0.02755612043090748,0.020290156453829034,0.07652505487203598
2026-01-13 16:47:19.469943,-0.00020247476641088724,-0.0017576550599187613,45.00202941894531,-0.007961174473166466,10.002425193786621,0.0013997303321957588,43.10300064086914,53.04399871826172,34.93000030517578,53.0369987487793,60.159000396728516,53.03799819946289,1768294039,424175008,X6-tool2,-0.686275602220577,0.5463837882868545,44.89798246139728,-0.18910056229548666,-0.02755612043090748,0.020290156453829034,0.07652505487203598
2026-01-13 16:47:19.504276,-0.00022644597629550844,-0.00040881699533201754,45.00144958496094,-0.007961174473166466,10.002425193786621,0.0013997303321957588,43.097999572753906,53.03900146484375,34.93000030517578,53.0369987487793,60.159000396728516,53.03799819946289,1768294039,424175008,X6-tool2,-0.686275602220577,0.5463837882868545,44.89798246139728,-0.18910056229548666,-0.02755612043090748,0.020290156453829034,0.07652505487203598
2026-01-13 16:47:19.538733,-0.00022644597629550844,-0.00040881699533201754,45.00144958496094,-0.007961174473166466,10.002425193786621,0.0013997303321957588,43.097999572753906,53.03900146484375,34.93000030517578,53.0369987487793,60.159000396728516,53.03799819946289,1768294039,524091860,X6-tool2,-0.696756128995301,0.48854099100514,44.911350912257824,-0.18979197369920217,-0.0276377292216709,0.020470022186250984,0.07714875787496567
2026-01-13 16:47:19.573191,-0.00022644597629550844,-0.00040881699533201754,45.00144958496094,-0.007961174473166466,10.002425193786621,0.0013997303321957588,43.097999572753906,53.03900146484375,34.93000030517578,53.0369987487793,60.165000915527344,53.03799819946289,1768294039,524091860,X6-tool2,-0.696756128995301,0.48854099100514,44.911350912257824,-0.18979197369920217,-0.0276377292216709,0.020470022186250984,0.07714875787496567
2026-01-13 16:47:19.607675,-0.00022644597629550844,-0.00040881699533201754,45.00144958496094,-0.007961174473166466,10.002425193786621,0.0013997303321957588,43.097999572753906,53.03900146484375,34.93000030517578,53.0369987487793,60.159000396728516,53.03799819946289,1768294039,524091860,X6-tool2,-0.696756128995301,0.48854099100514,44.911350912257824,-0.18979197369920217,-0.0276377292216709,0.020470022186250984,0.07714875787496567
2026-01-13 16:47:19.641958,-0.00022644597629550844,-0.00040881699533201754,45.00144958496094,-0.007961174473166466,10.002425193786621,0.0013997303321957588,43.097999572753906,53.03900146484375,34.93000030517578,53.0369987487793,60.165000915527344,53.03799819946289,1768294039,624415847,X6-tool2,-0.644149280247748,0.5706677108772616,44.83379955905335,-0.18848489127035126,-0.028708330713894545,0.02019802056148535,0.07068538665771484
2026-01-13 16:47:19.676377,-0.00022644597629550844,-0.00040881699533201754,45.00144958496094,-0.007961174473166466,10.002425193786621,0.0013997303321957588,43.097999572753906,53.03900146484375,34.93000030517578,53.0369987487793,60.159000396728516,53.03799819946289,1768294039,624415847,X6-tool2,-0.644149280247748,0.5706677108772616,44.83379955905335,-0.18848489127035126,-0.028708330713894545,0.02019802056148535,0.07068538665771484
2026-01-13 16:47:19.710687,-0.00022644597629550844,-0.00040881699533201754,45.00144958496094,-0.007961174473166466,10.002425193786621,0.0013997303321957588,43.097999572753906,53.03900146484375,34.93000030517578,53.0369987487793,60.165000915527344,53.03799819946289,1768294039,624415847,X6-tool2,-0.644149280247748,0.5706677108772616,44.83379955905335,-0.18848489127035126,-0.028708330713894545,0.02019802056148535,0.07068538665771484
2026-01-13 16:47:19.745136,-0.00022644597629550844,-0.00040881699533201754,45.00144958496094,-0.007961174473166466,10.002425193786621,0.0013997303321957588,43.097999572753906,53.03900146484375,34.93000030517578,53.0369987487793,60.159000396728516,53.03799819946289,1768294039,724962543,X6-tool2,-0.6881948247064775,0.47696990921113447,44.86952856198393,-0.19047180996488156,-0.027682052715629818,0.02032086530222917,0.07430871576070786
2026-01-13 16:47:19.779556,-0.00022644597629550844,-0.00040881699533201754,45.00144958496094,-0.007961174473166466,10.002425193786621,0.0013997303321957588,43.097999572753906,53.03900146484375,34.93000030517578,53.0369987487793,60.159000396728516,53.03799819946289,1768294039,724962543,X6-tool2,-0.6881948247064775,0.47696990921113447,44.86952856198393,-0.19047180996488156,-0.027682052715629818,0.02032086530222917,0.07430871576070786
2026-01-13 16:47:19.813840,-0.00022644597629550844,-0.00040881699533201754,45.00144958496094,-0.007961174473166466,10.002425193786621,0.0013997303321957588,43.097999572753906,53.03900146484375,34.93000030517578,53.0369987487793,60.159000396728516,53.03799819946289,1768294039,724962543,X6-tool2,-0.6881948247064775,0.47696990921113447,44.86952856198393,-0.19047180996488156,-0.027682052715629818,0.02032086530222917,0.07430871576070786
2026-01-13 16:47:19.848233,-0.00022644597629550844,-0.00040881699533201754,45.00144958496094,-0.007961174473166466,10.002425193786621,0.0013997303321957588,43.097999572753906,53.03900146484375,34.93000030517578,53.0369987487793,60.159000396728516,53.03799819946289,1768294039,824611765,X6-tool2,-0.6471299362335079,0.5640088427181033,44.89800672028937,-0.18886546203318633,-0.02833010918362481,0.020446096957159595,0.07481542974710464
2026-01-13 16:47:19.882520,-0.00022644597629550844,-0.00040881699533201754,45.00144958496094,-0.007961174473166466,10.002425193786621,0.0013997303321957588,43.097999572753906,53.03900146484375,34.93000030517578,53.0369987487793,60.159000396728516,53.03799819946289,1768294039,824611765,X6-tool2,-0.6471299362335079,0.5640088427181033,44.89800672028937,-0.18886546203318633,-0.02833010918362481,0.020446096957159595,0.07481542974710464
2026-01-13 16:47:19.917400,-0.00022644597629550844,-0.00040881699533201754,45.00144958496094,-0.007961174473166466,10.002425193786621,0.0013997303321957588,43.097999572753906,53.03900146484375,34.93000030517578,53.0369987487793,60.159000396728516,53.03799819946289,1768294039,824611765,X6-tool2,-0.6471299362335079,0.5640088427181033,44.89800672028937,-0.18886546203318633,-0.02833010918362481,0.020446096957159595,0.07481542974710464
2026-01-13 16:47:19.951685,-0.00022644597629550844,-0.00040881699533201754,45.00144958496094,-0.007961174473166466,10.002425193786621,0.0013997303321957588,43.097999572753906,53.03900146484375,34.93000030517578,53.0369987487793,60.159000396728516,53.03799819946289,1768294039,923986385,X6-tool2,-0.6945302899139105,0.5312724956253431,44.79488246327598,-0.18898728724090388,-0.02814992257797837,0.02037413377617219,0.07379150390625
2026-01-13 16:47:19.986118,-0.00022644597629550844,-0.00040881699533201754,45.00144958496094,-0.007961174473166466,10.002425193786621,0.0013997303321957588,43.097999572753906,53.03900146484375,34.93000030517578,53.0369987487793,60.159000396728516,53.03799819946289,1768294039,923986385,X6-tool2,-0.6945302899139105,0.5312724956253431,44.79488246327598,-0.18898728724090388,-0.02814992257797837,0.02037413377617219,0.07379150390625
2026-01-13 16:47:20.020458,-0.00022644597629550844,-0.00040881699533201754,45.00144958496094,-0.007961174473166466,10.002425193786621,0.0013997303321957588,43.097999572753906,53.03900146484375,34.93000030517578,53.0369987487793,60.159000396728516,53.03799819946289,1768294039,923986385,X6-tool2,-0.6945302899139105,0.5312724956253431,44.79488246327598,-0.18898728724090388,-0.02814992257797837,0.02037413377617219,0.07379150390625
2026-01-13 16:47:20.054947,-0.00022644597629550844,-0.00040881699533201754,45.00144958496094,-0.007961174473166466,10.002425193786621,0.0013997303321957588,43.097999572753906,53.03900146484375,34.93000030517578,53.0369987487793,60.159000396728516,53.03799819946289,1768294040,23963309,X6-tool2,-0.6923629170254062,0.5080669560068756,44.91024635913056,-0.1895131653058584,-0.027641092419094473,0.020222964507621004,0.07723935693502426
2026-01-13 16:47:20.089374,-0.00022644597629550844,-0.00040881699533201754,45.00144958496094,-0.007961174473166466,10.002425193786621,0.0013997303321957588,43.097999572753906,53.03900146484375,34.93000030517578,53.0369987487793,60.159000396728516,53.03799819946289,1768294040,23963309,X6-tool2,-0.6923629170254062,0.5080669560068756,44.91024635913056,-0.1895131653058584,-0.027641092419094473,0.020222964507621004,0.07723935693502426
2026-01-13 16:47:20.123831,-0.00022644597629550844,-0.00040881699533201754,45.00144958496094,-0.007961174473166466,10.002425193786621,0.0013997303321957588,43.097999572753906,53.03900146484375,34.93000030517578,53.0369987487793,60.159000396728516,53.03799819946289,1768294040,23963309,X6-tool2,-0.6923629170254062,0.5080669560068756,44.91024635913056,-0.1895131653058584,-0.027641092419094473,0.020222964507621004,0.07723935693502426
2026-01-13 16:47:20.158276,-0.00022644597629550844,-0.00040881699533201754,45.00144958496094,-0.007961174473166466,10.002425193786621,0.0013997303321957588,43.097999572753906,53.03900146484375,34.93000030517578,53.0369987487793,60.159000396728516,53.03799819946289,1768294040,124043757,X6-tool2,-0.640920366231703,0.5358917380888065,44.86956600289719,-0.18909633865027858,-0.028857291623170873,0.020269996594513666,0.07162952423095703
2026-01-13 16:47:20.192773,-0.00022644597629550844,-0.00040881699533201754,45.00144958496094,-0.007961174473166466,10.002425193786621,0.0013997303321957588,43.097999572753906,53.03900146484375,34.93000030517578,53.0369987487793,60.159000396728516,53.03799819946289,1768294040,124043757,X6-tool2,-0.640920366231703,0.5358917380888065,44.86956600289719,-0.18909633865027858,-0.028857291623170873,0.020269996594513666,0.07162952423095703
2026-01-13 16:47:20.227189,-0.00022644597629550844,-0.00040881699533201754,45.00144958496094,-0.007961174473166466,10.002425193786621,0.0013997303321957588,43.097999572753906,53.03900146484375,34.93000030517578,53.0369987487793,60.159000396728516,53.03799819946289,1768294040,224158817,X6-tool2,-0.6608938467216318,0.51268967800072,44.914560138379876,-0.18960102285429914,-0.028189957070009417,0.020210027324367403,0.07303110510110855
2026-01-13 16:47:20.261622,-0.00022644597629550844,-0.00040881699533201754,45.00144958496094,-0.007961174473166466,10.002425193786621,0.0013997303321957588,43.097999572753906,53.03900146484375,34.93000030517578,53.0369987487793,60.159000396728516,53.03799819946289,1768294040,224158817,X6-tool2,-0.6608938467216318,0.51268967800072,44.914560138379876,-0.18960102285429914,-0.028189957070009417,0.020210027324367403,0.07303110510110855
2026-01-13 16:47:20.296075,-0.00022644597629550844,-0.00040881699533201754,45.00144958496094,-0.007961174473166466,10.002425193786621,0.0013997303321957588,43.097999572753906,53.03900146484375,34.93000030517578,53.0369987487793,60.159000396728516,53.03799819946289,1768294040,224158817,X6-tool2,-0.6608938467216318,0.51268967800072,44.914560138379876,-0.18960102285429914,-0.028189957070009417,0.020210027324367403,0.07303110510110855
2026-01-13 16:47:20.330453,-0.00022644597629550844,-0.00040881699533201754,45.00144958496094,-0.007961174473166466,10.002425193786621,0.0013997303321957588,43.097999572753906,53.03900146484375,34.93000030517578,53.0369987487793,60.159000396728516,53.03799819946289,1768294040,323904072,X6-tool2,-0.6446849214075812,0.5233096704130175,44.837078039712246,-0.18915280637197213,-0.02881965669650025,0.020371904694219758,0.07537428289651871
2026-01-13 16:47:20.364945,-0.00022644597629550844,-0.00040881699533201754,45.00144958496094,-0.007961174473166466,10.002425193786621,0.0013997303321957588,43.097999572753906,53.03900146484375,34.93000030517578,53.0369987487793,60.159000396728516,53.03799819946289,1768294040,323904072,X6-tool2,-0.6446849214075812,0.5233096704130175,44.837078039712246,-0.18915280637197213,-0.02881965669650025,0.020371904694219758,0.07537428289651871
2026-01-13 16:47:20.399330,-0.00022644597629550844,-0.00040881699533201754,45.00144958496094,-0.007961174473166466,10.002425193786621,0.0013997303321957588,43.097999572753906,53.03900146484375,34.93000030517578,53.0369987487793,60.159000396728516,53.03799819946289,1768294040,323904072,X6-tool2,-0.6446849214075812,0.5233096704130175,44.837078039712246,-0.18915280637197213,-0.02881965669650025,0.020371904694219758,0.07537428289651871
2026-01-13 16:47:20.433825,-0.00022644597629550844,-0.00040881699533201754,45.00144958496094,-0.007961174473166466,10.002425193786621,0.0013997303321957588,43.097999572753906,53.03900146484375,34.93000030517578,53.0369987487793,60.159000396728516,53.03799819946289,1768294040,423938227,X6-tool2,-0.6721509104895161,0.5309764131289139,44.870862573847326,-0.1889599913210542,-0.028222165109030084,0.02019260266466357,0.0740915909409523
2026-01-13 16:47:20.468311,-0.00022644597629550844,-0.00040881699533201754,45.00144958496094,-0.007961174473166466,10.002425193786621,0.0013997303321957588,43.097999572753906,53.03900146484375,34.93000030517578,53.0369987487793,60.159000396728516,53.03799819946289,1768294040,423938227,X6-tool2,-0.6721509104895161,0.5309764131289139,44.870862573847326,-0.1889599913210542,-0.028222165109030084,0.02019260266466357,0.0740915909409523
2026-01-13 16:47:20.502789,-0.00022644597629550844,-0.00040881699533201754,45.00144958496094,-0.007961174473166466,10.002425193786621,0.0013997303321957588,43.097999572753906,53.03900146484375,34.93000030517578,53.0369987487793,60.159000396728516,53.03799819946289,1768294040,423938227,X6-tool2,-0.6721509104895161,0.5309764131289139,44.870862573847326,-0.1889599913210542,-0.028222165109030084,0.02019260266466357,0.0740915909409523
2026-01-13 16:47:20.537578,-0.00022644597629550844,-0.00040881699533201754,45.00144958496094,-0.007961174473166466,10.002425193786621,0.0013997303321957588,43.097999572753906,53.03900146484375,34.93000030517578,53.0369987487793,60.159000396728516,53.03799819946289,1768294040,524082818,X6-tool2,-0.6594714576161673,0.5136976685343698,44.8701208302963,-0.18951136024880183,-0.028286456528339415,0.02044494261058374,0.07064279168844223
2026-01-13 16:47:20.572050,-0.00022644597629550844,-0.00040881699533201754,45.00144958496094,-0.007961174473166466,10.002425193786621,0.0013997303321957588,43.097999572753906,53.03900146484375,34.93000030517578,53.0369987487793,60.159000396728516,53.03799819946289,1768294040,524082818,X6-tool2,-0.6594714576161673,0.5136976685343698,44.8701208302963,-0.18951136024880183,-0.028286456528339415,0.02044494261058374,0.07064279168844223
2026-01-13 16:47:20.606434,-0.00022644597629550844,-0.00040881699533201754,45.00144958496094,-0.007961174473166466,10.002425193786621,0.0013997303321957588,43.097999572753906,53.03900146484375,34.93000030517578,53.0369987487793,60.159000396728516,53.03799819946289,1768294040,524082818,X6-tool2,-0.6594714576161673,0.5136976685343698,44.8701208302963,-0.18951136024880183,-0.028286456528339415,0.02044494261058374,0.07064279168844223
2026-01-13 16:47:20.640756,-0.00022644597629550844,-0.00040881699533201754,45.00144958496094,-0.007961174473166466,10.002425193786621,0.0013997303321957588,43.097999572753906,53.03900146484375,34.93000030517578,53.0369987487793,60.159000396728516,53.03799819946289,1768294040,623915427,X6-tool2,-0.6685121707948176,0.5401679525821452,44.87387305188168,-0.18884456918229775,-0.028050085827458583,0.020193324631133963,0.07729212194681168
2026-01-13 16:47:20.675214,-0.00022644597629550844,-0.00040881699533201754,45.00144958496094,-0.007961174473166466,10.002425193786621,0.0013997303321957588,43.097999572753906,53.03900146484375,34.93000030517578,53.0369987487793,60.159000396728516,53.03799819946289,1768294040,623915427,X6-tool2,-0.6685121707948176,0.5401679525821452,44.87387305188168,-0.18884456918229775,-0.028050085827458583,0.020193324631133963,0.07729212194681168
2026-01-13 16:47:20.709552,-0.00022644597629550844,-0.00040881699533201754,45.00144958496094,-0.007961174473166466,10.002425193786621,0.0013997303321957588,43.097999572753906,53.03900146484375,34.93000030517578,53.0369987487793,60.159000396728516,53.03799819946289,1768294040,623915427,X6-tool2,-0.6685121707948176,0.5401679525821452,44.87387305188168,-0.18884456918229775,-0.028050085827458583,0.020193324631133963,0.07729212194681168
2026-01-13 16:47:20.744090,-0.00022644597629550844,-0.00040881699533201754,45.00144958496094,-0.007961174473166466,10.002425193786621,0.0013997303321957588,43.097999572753906,53.03900146484375,34.93000030517578,53.0369987487793,60.159000396728516,53.03799819946289,1768294040,724106069,X6-tool2,-0.6315746983681962,0.5342340320901917,44.862436921076196,-0.18902071588885924,-0.02885125480581553,0.020488671671613872,0.06883493810892105
2026-01-13 16:47:20.778582,-0.00022644597629550844,-0.00040881699533201754,45.00144958496094,-0.007961174473166466,10.002425193786621,0.0013997303321957588,43.097999572753906,53.03900146484375,34.93000030517578,53.0369987487793,60.159000396728516,53.03799819946289,1768294040,724106069,X6-tool2,-0.6315746983681962,0.5342340320901917,44.862436921076196,-0.18902071588885924,-0.02885125480581553,0.020488671671613872,0.06883493810892105
2026-01-13 16:47:20.813067,-0.00022644597629550844,-0.00040881699533201754,45.00144958496094,-0.007961174473166466,10.002425193786621,0.0013997303321957588,43.097999572753906,53.03900146484375,34.93000030517578,53.0369987487793,60.159000396728516,53.03799819946289,1768294040,724106069,X6-tool2,-0.6315746983681962,0.5342340320901917,44.862436921076196,-0.18902071588885924,-0.02885125480581553,0.020488671671613872,0.06883493810892105
2026-01-13 16:47:20.847452,-0.00022644597629550844,-0.00040881699533201754,45.00144958496094,-0.007961174473166466,10.002425193786621,0.0013997303321957588,43.097999572753906,53.03900146484375,34.93000030517578,53.0369987487793,60.159000396728516,53.03799819946289,1768294040,823894636,X6-tool2,-0.6756133213451845,0.5416077925337286,44.81760697684507,-0.18880243492814225,-0.028347151453809147,0.020432252145679605,0.07793998718261719
2026-01-13 16:47:20.881750,-0.00022644597629550844,-0.00040881699533201754,45.00144958496094,-0.007961174473166466,10.002425193786621,0.0013997303321957588,43.097999572753906,53.03900146484375,34.93000030517578,53.0369987487793,60.159000396728516,53.03799819946289,1768294040,823894636,X6-tool2,-0.6756133213451845,0.5416077925337286,44.81760697684507,-0.18880243492814225,-0.028347151453809147,0.020432252145679605,0.07793998718261719
2026-01-13 16:47:20.916228,-0.00022644597629550844,-0.00040881699533201754,45.00144958496094,-0.007961174473166466,10.002425193786621,0.0013997303321957588,43.097999572753906,53.03900146484375,34.93000030517578,53.0369987487793,60.159000396728516,53.03799819946289,1768294040,823894636,X6-tool2,-0.6756133213451845,0.5416077925337286,44.81760697684507,-0.18880243492814225,-0.028347151453809147,0.020432252145679605,0.07793998718261719
2026-01-13 16:47:20.950583,-0.00022644597629550844,-0.00040881699533201754,45.00144958496094,-0.007961174473166466,10.002425193786621,0.0013997303321957588,43.097999572753906,53.03900146484375,34.93000030517578,53.0369987487793,60.159000396728516,53.03799819946289,1768294040,924024196,X6-tool2,-0.6806120122666179,0.5496203141157088,44.811848951683174,-0.18878571385295764,-0.028095637863532995,0.0204865243463296,0.0755065307021141
2026-01-13 16:47:20.985069,-0.00022644597629550844,-0.00040881699533201754,45.00144958496094,-0.007961174473166466,10.002425193786621,0.0013997303321957588,43.097999572753906,53.03900146484375,34.93000030517578,53.0369987487793,60.159000396728516,53.03799819946289,1768294040,924024196,X6-tool2,-0.6806120122666179,0.5496203141157088,44.811848951683174,-0.18878571385295764,-0.028095637863532995,0.0204865243463296,0.0755065307021141
2026-01-13 16:47:21.019436,-0.00022644597629550844,-0.00040881699533201754,45.00144958496094,-0.007961174473166466,10.002425193786621,0.0013997303321957588,43.097999572753906,53.03900146484375,34.93000030517578,53.0369987487793,60.159000396728516,53.03799819946289,1768294040,924024196,X6-tool2,-0.6806120122666179,0.5496203141157088,44.811848951683174,-0.18878571385295764,-0.028095637863532995,0.0204865243463296,0.0755065307021141
2026-01-13 16:47:21.053952,-0.00022644597629550844,-0.00040881699533201754,45.00144958496094,-0.007961174473166466,10.002425193786621,0.0013997303321957588,43.097999572753906,53.03900146484375,34.93000030517578,53.0369987487793,60.159000396728516,53.03799819946289,1768294041,23902836,X6-tool2,-0.6740462901611154,0.4857389917103672,44.83686469690868,-0.18985074637391738,-0.028358306688357322,0.02040036336874951,0.07222334295511246
2026-01-13 16:47:21.088367,-0.00022644597629550844,-0.00040881699533201754,45.00144958496094,-5.1479804824339226e-05,9.998088836669922,0.0036725059617310762,43.09199905395508,53.03900146484375,34.93000030517578,53.0369987487793,60.159000396728516,53.03799819946289,1768294041,23902836,X6-tool2,-0.6740462901611154,0.4857389917103672,44.83686469690868,-0.18985074637391738,-0.028358306688357322,0.02040036336874951,0.07222334295511246
2026-01-13 16:47:21.122848,-0.00025521297357045114,0.0012098762672394514,45.000755310058594,0.13445843756198883,10.031554222106934,0.03123493306338787,42.90599822998047,53.03300094604492,34.93000030517578,53.0369987487793,60.46200180053711,53.03799819946289,1768294041,23902836,X6-tool2,-0.6740462901611154,0.4857389917103672,44.83686469690868,-0.18985074637391738,-0.028358306688357322,0.02040036336874951,0.07222334295511246
2026-01-13 16:47:21.157282,-0.00025521297357045114,0.0012098762672394514,45.000755310058594,0.4757249653339386,10.030460357666016,0.04970790445804596,42.5099983215332,53.03300094604492,35.02299880981445,53.0369987487793,61.05500030517578,53.03799819946289,1768294041,124138490,X6-tool2,-0.6895925007429093,0.6058892889297619,44.86740752450135,-0.18849129602613596,-0.02703154721414728,0.018996280429715618,0.07403150945901871
2026-01-13 16:47:21.191791,-0.00025521297357045114,0.0012098762672394514,45.000755310058594,0.8843207359313965,9.979695320129395,0.036847151815891266,42.08700180053711,53.03300094604492,35.194000244140625,53.0369987487793,61.659000396728516,53.03799819946289,1768294041,124138490,X6-tool2,-0.6895925007429093,0.6058892889297619,44.86740752450135,-0.18849129602613596,-0.02703154721414728,0.018996280429715618,0.07403150945901871
2026-01-13 16:47:21.226235,-0.00025521297357045114,0.0012098762672394514,45.000755310058594,1.083410620689392,9.957314491271973,0.03225145861506462,41.88399887084961,53.03300094604492,35.2760009765625,53.0369987487793,61.97200012207031,53.03799819946289,1768294041,223908796,X6-tool2,-0.5620015761221425,0.6094645226649991,44.818692810865855,-0.1849629302406202,-0.012308935544723893,0.010898462094983455,0.048733074218034744
2026-01-13 16:47:21.261157,-0.00025521297357045114,0.0012098762672394514,45.000755310058594,1.511912226676941,9.882965087890625,-0.0332343652844429,41.51599884033203,53.03300094604492,35.512001037597656,53.0369987487793,62.619998931884766,53.03799819946289,1768294041,223908796,X6-tool2,-0.5620015761221425,0.6094645226649991,44.818692810865855,-0.1849629302406202,-0.012308935544723893,0.010898462094983455,0.048733074218034744
2026-01-13 16:47:21.295649,-0.00025521297357045114,0.0012098762672394514,45.000755310058594,1.896440863609314,9.824363708496094,-0.036200299859046936,41.137001037597656,53.03300094604492,35.68299865722656,53.0369987487793,63.224998474121094,53.03799819946289,1768294041,223908796,X6-tool2,-0.5620015761221425,0.6094645226649991,44.818692810865855,-0.1849629302406202,-0.012308935544723893,0.010898462094983455,0.048733074218034744
2026-01-13 16:47:21.330116,-0.00025521297357045114,0.0012098762672394514,45.000755310058594,2.291625738143921,9.735527038574219,-0.07612907886505127,40.79600143432617,53.03300094604492,35.90800094604492,53.0369987487793,63.79600143432617,53.03799819946289,1768294041,324062496,X6-tool2,-0.7000345910952033,0.6905985742934585,44.80482948729105,-0.17669043447024643,0.010139122563457923,0.00277975834396083,0.06739488989114761
2026-01-13 16:47:21.364597,-0.00025521297357045114,0.0012098762672394514,45.000755310058594,2.473001480102539,9.692937850952148,-0.08414223790168762,40.63199996948242,53.03300094604492,36.00699996948242,53.0369987487793,64.05400085449219,53.03799819946289,1768294041,324062496,X6-tool2,-0.7000345910952033,0.6905985742934585,44.80482948729105,-0.17669043447024643,0.010139122563457923,0.00277975834396083,0.06739488989114761
2026-01-13 16:47:21.399122,-0.00025521297357045114,0.0012098762672394514,45.000755310058594,2.8128321170806885,9.604686737060547,-0.08777683228254318,40.31800079345703,53.03300094604492,36.19300079345703,53.0369987487793,64.51000213623047,53.03799819946289,1768294041,324062496,X6-tool2,-0.7000345910952033,0.6905985742934585,44.80482948729105,-0.17669043447024643,0.010139122563457923,0.00277975834396083,0.06739488989114761
2026-01-13 16:47:21.433512,-0.00025521297357045114,0.0012098762672394514,45.000755310058594,3.180821657180786,9.489906311035156,-0.11681825667619705,40.01100158691406,53.03300094604492,36.43000030517578,53.0369987487793,64.96099853515625,53.03799819946289,1768294041,423894465,X6-tool2,-0.6384131638466207,0.6003833976031405,44.890297445614735,-0.17308888821191448,0.02428358524198481,-0.0014140510922308193,0.05909188464283943
2026-01-13 16:47:21.468004,-0.00025521297357045114,0.0012098762672394514,45.000755310058594,3.5790090560913086,9.359138488769531,-0.08824542164802551,39.625999450683594,53.03300094604492,36.654998779296875,53.0369987487793,65.39399719238281,53.03799819946289,1768294041,423894465,X6-tool2,-0.6384131638466207,0.6003833976031405,44.890297445614735,-0.17308888821191448,0.02428358524198481,-0.0014140510922308193,0.05909188464283943
2026-01-13 16:47:21.502481,-0.00025521297357045114,0.0012098762672394514,45.000755310058594,3.786790609359741,9.266226768493652,-0.11197120696306229,39.46699905395508,53.03300094604492,36.81999969482422,53.0369987487793,65.53700256347656,53.03799819946289,1768294041,423894465,X6-tool2,-0.6384131638466207,0.6003833976031405,44.890297445614735,-0.17308888821191448,0.02428358524198481,-0.0014140510922308193,0.05909188464283943
2026-01-13 16:47:21.537004,-0.00025521297357045114,0.0012098762672394514,45.000755310058594,4.139209270477295,9.113929748535156,-0.12577778100967407,39.17599868774414,53.03300094604492,37.08300018310547,53.0369987487793,65.79000091552734,53.03799819946289,1768294041,524149780,X6-tool2,-0.629556366081036,0.5349699352670169,44.8750955984551,-0.16669662356223142,0.04126815488971633,-0.002548151434509235,0.05632718279957771
2026-01-13 16:47:21.571509,-0.00025521297357045114,0.0012098762672394514,45.000755310058594,4.503275394439697,8.935348510742188,-0.14456579089164734,38.8849983215332,53.03300094604492,37.380001068115234,53.0369987487793,65.9489974975586,53.03799819946289,1768294041,524149780,X6-tool2,-0.629556366081036,0.5349699352670169,44.8750955984551,-0.16669662356223142,0.04126815488971633,-0.002548151434509235,0.05632718279957771
2026-01-13 16:47:21.605995,-0.00025521297357045114,0.0012098762672394514,45.000755310058594,4.666937351226807,8.85549259185791,-0.15464793145656586,38.757999420166016,53.03300094604492,37.516998291015625,53.0369987487793,66.0260009765625,53.03799819946289,1768294041,524149780,X6-tool2,-0.629556366081036,0.5349699352670169,44.8750955984551,-0.16669662356223142,0.04126815488971633,-0.002548151434509235,0.05632718279957771
2026-01-13 16:47:21.640470,0.0011609934736043215,0.00042549113277345896,45.000057220458984,5.007231712341309,8.659866333007812,-0.18568705022335052,38.50600051879883,53.03300094604492,37.83599853515625,53.0369987487793,66.0260009765625,53.03200149536133,1768294041,623907015,X6-tool2,-0.6143408551319833,0.5851661986472911,44.87986293031894,-0.1578504668981968,0.053040622216031,-0.0010676039412405051,0.05107657238841057
2026-01-13 16:47:21.674949,0.0011609934736043215,0.00042549113277345896,45.000057220458984,5.37873649597168,8.445388793945312,-0.20907534658908844,38.22600173950195,53.03300094604492,38.1870002746582,53.0369987487793,66.02100372314453,53.03200149536133,1768294041,623907015,X6-tool2,-0.6143408551319833,0.5851661986472911,44.87986293031894,-0.1578504668981968,0.053040622216031,-0.0010676039412405051,0.05107657238841057
2026-01-13 16:47:21.709366,0.0011609934736043215,0.00042549113277345896,45.000057220458984,5.732840061187744,8.218910217285156,-0.2648383378982544,37.994998931884766,53.03300094604492,38.571998596191406,53.0369987487793,65.93299865722656,53.03200149536133,1768294041,623907015,X6-tool2,-0.6143408551319833,0.5851661986472911,44.87986293031894,-0.1578504668981968,0.053040622216031,-0.0010676039412405051,0.05107657238841057
2026-01-13 16:47:21.743833,0.0011609934736043215,0.00042549113277345896,45.000057220458984,5.881045341491699,8.111127853393555,-0.2733946144580841,37.8849983215332,53.03300094604492,38.73699951171875,53.0369987487793,65.81199645996094,53.03200149536133,1768294041,724084457,X6-tool2,-0.5191688391651816,0.48655142064952145,44.86283222337449,-0.15095121917521329,0.06213906227355638,0.004912657152872596,0.058661144226789474
2026-01-13 16:47:21.778261,0.0011609934736043215,0.00042549113277345896,45.000057220458984,6.192044258117676,7.87664794921875,-0.29547104239463806,37.65999984741211,53.03300094604492,39.0989990234375,53.0369987487793,65.5260009765625,53.03200149536133,1768294041,724084457,X6-tool2,-0.5191688391651816,0.48655142064952145,44.86283222337449,-0.15095121917521329,0.06213906227355638,0.004912657152872596,0.058661144226789474
2026-01-13 16:47:21.812750,0.0011609934736043215,0.00042549113277345896,45.000057220458984,6.482611656188965,7.643472194671631,-0.2976043224334717,37.435001373291016,53.03300094604492,39.44499969482422,53.0369987487793,65.17500305175781,53.03200149536133,1768294041,724084457,X6-tool2,-0.5191688391651816,0.48655142064952145,44.86283222337449,-0.15095121917521329,0.06213906227355638,0.004912657152872596,0.058661144226789474
2026-01-13 16:47:21.847546,0.0011609934736043215,0.00042549113277345896,45.000057220458984,6.770560264587402,7.386263847351074,-0.2892589867115021,37.20399856567383,53.03300094604492,39.8129997253418,53.0369987487793,64.7020034790039,53.03200149536133,1768294041,823878194,X6-tool2,-0.4020533846772326,0.47927053655870266,44.832042393901894,-0.14512747167879833,0.06612551763150469,0.01462167409301532,0.0643625259399414
2026-01-13 16:47:21.882018,0.0011609934736043215,0.00042549113277345896,45.000057220458984,6.90919828414917,7.244236469268799,-0.31047365069389343,37.11600112915039,53.03300094604492,40.02799987792969,53.0369987487793,64.4280014038086,53.03200149536133,1768294041,823878194,X6-tool2,-0.4020533846772326,0.47927053655870266,44.832042393901894,-0.14512747167879833,0.06612551763150469,0.01462167409301532,0.0643625259399414
2026-01-13 16:47:21.916418,0.0011609934736043215,0.00042549113277345896,45.000057220458984,7.238957405090332,6.940557956695557,-0.2968382239341736,36.85200119018555,53.03300094604492,40.472999572753906,53.0369987487793,63.88399887084961,53.03200149536133,1768294041,823878194,X6-tool2,-0.4020533846772326,0.47927053655870266,44.832042393901894,-0.14512747167879833,0.06612551763150469,0.01462167409301532,0.0643625259399414
2026-01-13 16:47:21.950888,0.0011898160446435213,-0.0011932847555726767,45.000755310058594,7.520493984222412,6.647747993469238,-0.32223498821258545,36.665000915527344,53.03900146484375,40.92300033569336,53.0369987487793,63.35599899291992,53.03200149536133,1768294041,923923480,X6-tool2,-0.25267940796709365,0.5598058573491042,44.972238300880235,-0.13321516654177598,0.07684474062631724,0.020867266719065226,0.06353092193603516
2026-01-13 16:47:21.985335,0.0011898160446435213,-0.0011932847555726767,45.000755310058594,7.645001411437988,6.496845245361328,-0.3436209559440613,36.5890007019043,53.03900146484375,41.15399932861328,53.0369987487793,63.05400085449219,53.03200149536133,1768294041,923923480,X6-tool2,-0.25267940796709365,0.5598058573491042,44.972238300880235,-0.13321516654177598,0.07684474062631724,0.020867266719065226,0.06353092193603516
2026-01-13 16:47:22.019815,0.0011898160446435213,-0.0011932847555726767,45.000755310058594,7.92439079284668,6.178294658660889,-0.3705768287181854,36.402000427246094,53.03900146484375,41.64799880981445,53.0369987487793,62.46099853515625,53.03200149536133,1768294041,923923480,X6-tool2,-0.25267940796709365,0.5598058573491042,44.972238300880235,-0.13321516654177598,0.07684474062631724,0.020867266719065226,0.06353092193603516
2026-01-13 16:47:22.054296,0.0011898160446435213,-0.0011932847555726767,45.000755310058594,8.108856201171875,5.869882106781006,-0.384398490190506,36.27000045776367,53.03900146484375,42.082000732421875,53.0369987487793,61.73099899291992,53.03200149536133,1768294042,23954746,X6-tool2,-0.0977444839434127,0.4058113313526042,44.97391172982718,-0.1240727008836807,0.08789243918219339,0.0216707855704046,0.04636605456471443
2026-01-13 16:47:22.088823,0.0011898160446435213,-0.0011932847555726767,45.000755310058594,8.311978340148926,5.556011199951172,-0.406774640083313,36.132999420166016,53.03900146484375,42.54899978637695,53.0369987487793,61.07699966430664,53.03200149536133,1768294042,23954746,X6-tool2,-0.0977444839434127,0.4058113313526042,44.97391172982718,-0.1240727008836807,0.08789243918219339,0.0216707855704046,0.04636605456471443
2026-01-13 16:47:22.123116,0.0011898160446435213,-0.0011932847555726767,45.000755310058594,8.418801307678223,5.388340950012207,-0.4253731369972229,36.06700134277344,53.03900146484375,42.80699920654297,53.0369987487793,60.74700164794922,53.03200149536133,1768294042,23954746,X6-tool2,-0.0977444839434127,0.4058113313526042,44.97391172982718,-0.1240727008836807,0.08789243918219339,0.0216707855704046,0.04636605456471443
2026-01-13 16:47:22.157510,0.0011898160446435213,-0.0011932847555726767,45.000755310058594,8.664118766784668,5.031277656555176,-0.45548152923583984,35.90700149536133,53.03900146484375,43.37300109863281,53.0369987487793,60.09400177001953,53.03200149536133,1768294042,123927150,X6-tool2,-0.013243178536036265,0.48037573290372,45.01168964763867,-0.10927910857601636,0.098551003551609,0.019764100780287588,0.05404631420969963
2026-01-13 16:47:22.191978,0.0011898160446435213,-0.0011932847555726767,45.000755310058594,8.828344345092773,4.683389663696289,-0.4944605827331543,35.808998107910156,53.03900146484375,43.900001525878906,53.0369987487793,59.3849983215332,53.03200149536133,1768294042,123927150,X6-tool2,-0.013243178536036265,0.48037573290372,45.01168964763867,-0.10927910857601636,0.098551003551609,0.019764100780287588,0.05404631420969963
2026-01-13 16:47:22.226369,0.0011898160446435213,-0.0011932847555726767,45.000755310058594,8.917805671691895,4.508258819580078,-0.5056138634681702,35.74800109863281,53.03900146484375,44.16899871826172,53.0369987487793,59.04399871826172,53.03200149536133,1768294042,223875173,X6-tool2,-0.009199956731657792,0.3543702049857052,45.008053602581526,-0.0970981876860179,0.10968698870942259,0.016037762179330197,0.05590343475341797
2026-01-13 16:47:22.260682,0.0011898160446435213,-0.0011932847555726767,45.000755310058594,9.07493782043457,4.148341655731201,-0.5329509973526001,35.64400100708008,53.03900146484375,44.71900177001953,53.0369987487793,58.33599853515625,53.03200149536133,1768294042,223875173,X6-tool2,-0.009199956731657792,0.3543702049857052,45.008053602581526,-0.0970981876860179,0.10968698870942259,0.016037762179330197,0.05590343475341797
2026-01-13 16:47:22.295151,0.0011898160446435213,-0.0011932847555726767,45.000755310058594,9.240254402160645,3.7950632572174072,-0.5325866341590881,35.512001037597656,53.03900146484375,45.26300048828125,53.0369987487793,57.65999984741211,53.03200149536133,1768294042,223875173,X6-tool2,-0.009199956731657792,0.3543702049857052,45.008053602581526,-0.0970981876860179,0.10968698870942259,0.016037762179330197,0.05590343475341797
2026-01-13 16:47:22.329452,0.0011898160446435213,-0.0011932847555726767,45.000755310058594,9.378246307373047,3.4198575019836426,-0.559334397315979,35.41899871826172,53.03900146484375,45.849998474121094,53.0369987487793,56.957000732421875,53.03200149536133,1768294042,323949030,X6-tool2,-0.06575332616814238,0.2921845613094829,44.96340027727812,-0.08347701126841295,0.1213117976115278,0.011148288488791982,0.05186526104807854
2026-01-13 16:47:22.363955,0.0011898160446435213,-0.0011932847555726767,45.000755310058594,9.460735321044922,3.2151308059692383,-0.5611653923988342,35.35300064086914,53.03900146484375,46.17399978637695,53.0369987487793,56.58300018310547,53.03200149536133,1768294042,323949030,X6-tool2,-0.06575332616814238,0.2921845613094829,44.96340027727812,-0.08347701126841295,0.1213117976115278,0.011148288488791982,0.05186526104807854
2026-01-13 16:47:22.398358,0.0011898160446435213,-0.0011932847555726767,45.000755310058594,9.600375175476074,2.84222674369812,-0.5817633271217346,35.25400161743164,53.03900146484375,46.784000396728516,53.0369987487793,55.935001373291016,53.03200149536133,1768294042,323949030,X6-tool2,-0.06575332616814238,0.2921845613094829,44.96340027727812,-0.08347701126841295,0.1213117976115278,0.011148288488791982,0.05186526104807854
2026-01-13 16:47:22.432880,0.0011898160446435213,-0.0011932847555726767,45.000755310058594,9.671723365783691,2.457298517227173,-0.5910383462905884,35.1879997253418,53.03900146484375,47.367000579833984,53.0369987487793,55.194000244140625,53.03200149536133,1768294042,423921034,X6-tool2,-0.004715147698336938,0.3497990469476655,45.007170123677916,-0.06603074671355705,0.12876064982088262,0.0075022587117203115,0.054986000061035156
2026-01-13 16:47:22.467278,0.0011898160446435213,-0.0011932847555726767,45.000755310058594,9.769915580749512,2.076565742492676,-0.62110435962677,35.12200164794922,53.03900146484375,47.99800109863281,53.0369987487793,54.555999755859375,53.03200149536133,1768294042,423921034,X6-tool2,-0.004715147698336938,0.3497990469476655,45.007170123677916,-0.06603074671355705,0.12876064982088262,0.0075022587117203115,0.054986000061035156
2026-01-13 16:47:22.501618,0.0011898160446435213,-0.0011932847555726767,45.000755310058594,9.801180839538574,1.8794996738433838,-0.6291255950927734,35.09400177001953,53.03900146484375,48.31100082397461,53.0369987487793,54.20500183105469,53.03200149536133,1768294042,423921034,X6-tool2,-0.004715147698336938,0.3497990469476655,45.007170123677916,-0.06603074671355705,0.12876064982088262,0.0075022587117203115,0.054986000061035156
2026-01-13 16:47:22.536080,0.0011898160446435213,-0.0011932847555726767,45.000755310058594,9.868474960327148,1.467524766921997,-0.6595292687416077,35.04499816894531,53.03900146484375,48.992000579833984,53.0369987487793,53.518001556396484,53.03200149536133,1768294042,532439003,X6-tool2,0.007293223024443421,0.32438587640759825,44.988464181241405,-0.04780443957639196,0.1355625145258521,0.0033642022157301154,0.05771954730153084
2026-01-13 16:47:22.570472,0.0011898160446435213,-0.0011932847555726767,45.000755310058594,9.91996955871582,1.079701542854309,-0.6894466876983643,35.00699996948242,53.03900146484375,49.645999908447266,53.0369987487793,52.891998291015625,53.03200149536133,1768294042,532439003,X6-tool2,0.007293223024443421,0.32438587640759825,44.988464181241405,-0.04780443957639196,0.1355625145258521,0.0033642022157301154,0.05771954730153084
2026-01-13 16:47:22.604978,0.0011898160446435213,-0.0011932847555726767,45.000755310058594,9.929177284240723,0.8884968161582947,-0.7011878490447998,34.99599838256836,53.03900146484375,49.95899963378906,53.0369987487793,52.573001861572266,53.03200149536133,1768294042,532439003,X6-tool2,0.007293223024443421,0.32438587640759825,44.988464181241405,-0.04780443957639196,0.1355625145258521,0.0033642022157301154,0.05771954730153084
2026-01-13 16:47:22.639380,0.0011609934736043215,0.00042549113277345896,45.000057220458984,9.951364517211914,0.49521368741989136,-0.7116186022758484,34.957000732421875,53.03300094604492,50.612998962402344,53.0369987487793,51.91999816894531,53.03200149536133,1768294042,631777411,X6-tool2,0.03589722250155548,0.5137501649732488,45.015385874241446,-0.02770797930636789,0.13819867246860457,0.00041653776405625856,0.06201235577464104
2026-01-13 16:47:22.673853,0.0011609934736043215,0.00042549113277345896,45.000057220458984,9.975500106811523,0.0891924798488617,-0.7282858490943909,34.92399978637695,53.03300094604492,51.316001892089844,53.0369987487793,51.28799819946289,53.03200149536133,1768294042,631777411,X6-tool2,0.03589722250155548,0.5137501649732488,45.015385874241446,-0.02770797930636789,0.13819867246860457,0.00041653776405625856,0.06201235577464104
2026-01-13 16:47:22.708323,0.0011609934736043215,0.00042549113277345896,45.000057220458984,9.963800430297852,-0.33834126591682434,-0.7461220622062683,34.91299819946289,53.03300094604492,52.047000885009766,53.0369987487793,50.61800003051758,53.03200149536133,1768294042,631777411,X6-tool2,0.03589722250155548,0.5137501649732488,45.015385874241446,-0.02770797930636789,0.13819867246860457,0.00041653776405625856,0.06201235577464104
2026-01-13 16:47:22.742737,0.0011609934736043215,0.00042549113277345896,45.000057220458984,9.970252990722656,-0.5396054983139038,-0.7568644285202026,34.902000427246094,53.03300094604492,52.415000915527344,53.0369987487793,50.32699966430664,53.03200149536133,1768294042,731413562,X6-tool2,-0.06659316462671212,0.4133872691976233,45.06258484346229,-0.012647676672873984,0.1423244080611516,-0.001833833047495387,0.06091117858886719
2026-01-13 16:47:22.777223,0.0011609934736043215,0.00042549113277345896,45.000057220458984,9.944700241088867,-0.9157232642173767,-0.7725070714950562,34.902000427246094,53.03300094604492,53.07899856567383,53.0369987487793,49.76100158691406,53.03200149536133,1768294042,731413562,X6-tool2,-0.06659316462671212,0.4133872691976233,45.06258484346229,-0.012647676672873984,0.1423244080611516,-0.001833833047495387,0.06091117858886719
2026-01-13 16:47:22.811581,0.0011609934736043215,0.00042549113277345896,45.000057220458984,9.907597541809082,-1.3327031135559082,-0.7901190519332886,34.90800094604492,53.03300094604492,53.832000732421875,53.0369987487793,49.1510009765625,53.03200149536133,1768294042,731413562,X6-tool2,-0.06659316462671212,0.4133872691976233,45.06258484346229,-0.012647676672873984,0.1423244080611516,-0.001833833047495387,0.06091117858886719
2026-01-13 16:47:22.846081,0.0011609934736043215,0.00042549113277345896,45.000057220458984,9.878342628479004,-1.533542275428772,-0.7916434407234192,34.91299819946289,53.03300094604492,54.18899917602539,53.0369987487793,48.8489990234375,53.03200149536133,1768294042,830541103,X6-tool2,-0.0919986901435209,0.45139097919352333,44.96161619765247,0.004406952619325975,0.14275660512753896,-0.0038001631682731784,0.06787236779928207
2026-01-13 16:47:22.880483,0.0011609934736043215,0.00042549113277345896,45.000057220458984,9.829729080200195,-1.9135005474090576,-0.7952376008033752,34.91899871826172,53.03300094604492,54.891998291015625,53.0369987487793,48.29999923706055,53.03200149536133,1768294042,830541103,X6-tool2,-0.0919986901435209,0.45139097919352333,44.96161619765247,0.004406952619325975,0.14275660512753896,-0.0038001631682731784,0.06787236779928207
2026-01-13 16:47:22.914971,0.0011609934736043215,0.00042549113277345896,45.000057220458984,9.74747371673584,-2.2995059490203857,-0.7909151911735535,34.941001892089844,53.03300094604492,55.59000015258789,53.0369987487793,47.72800064086914,53.03200149536133,1768294042,830541103,X6-tool2,-0.0919986901435209,0.45139097919352333,44.96161619765247,0.004406952619325975,0.14275660512753896,-0.0038001631682731784,0.06787236779928207
2026-01-13 16:47:22.949381,0.0011609934736043215,0.00042549113277345896,45.000057220458984,9.67556381225586,-2.6670432090759277,-0.8144375681877136,34.979000091552734,53.03300094604492,56.308998107910156,53.0369987487793,47.2400016784668,53.03200149536133,1768294042,930073649,X6-tool2,-0.04037887316121979,0.5012607822796465,44.9711423238394,0.021519954498166884,0.1411842129606832,-0.005127344198162769,0.05884869769215584
2026-01-13 16:47:22.983859,0.0011609934736043215,0.00042549113277345896,45.000057220458984,9.622244834899902,-2.865706205368042,-0.8388462662696838,35.018001556396484,53.03300094604492,56.69900131225586,53.0369987487793,46.98699951171875,53.03200149536133,1768294042,930073649,X6-tool2,-0.04037887316121979,0.5012607822796465,44.9711423238394,0.021519954498166884,0.1411842129606832,-0.005127344198162769,0.05884869769215584
2026-01-13 16:47:23.018253,0.0011609934736043215,0.00042549113277345896,45.000057220458984,9.466812133789062,-3.26350474357605,-0.8483254909515381,35.099998474121094,53.03300094604492,57.41400146484375,53.0369987487793,46.41600036621094,53.03200149536133,1768294042,930073649,X6-tool2,-0.04037887316121979,0.5012607822796465,44.9711423238394,0.021519954498166884,0.1411842129606832,-0.005127344198162769,0.05884869769215584
2026-01-13 16:47:23.052774,0.0011609934736043215,0.00042549113277345896,45.000057220458984,9.311006546020508,-3.635849714279175,-0.8757708668708801,35.19900131225586,53.03300094604492,58.111000061035156,53.0369987487793,45.91600036621094,53.03200149536133,1768294043,29518342,X6-tool2,-0.10284743601102922,0.41101323636933423,44.95708149406555,0.03558308599823837,0.14093154130812655,-0.006608075347483676,0.06355921179056168
2026-01-13 16:47:23.087454,0.0011609934736043215,0.00042549113277345896,45.000057220458984,9.182212829589844,-3.9915213584899902,-0.8948908448219299,35.2760009765625,53.03300094604492,58.83100128173828,53.0369987487793,45.459999084472656,53.03200149536133,1768294043,29518342,X6-tool2,-0.10284743601102922,0.41101323636933423,44.95708149406555,0.03558308599823837,0.14093154130812655,-0.006608075347483676,0.06355921179056168
2026-01-13 16:47:23.121766,0.0011609934736043215,0.00042549113277345896,45.000057220458984,9.098627090454102,-4.175205230712891,-0.9089400768280029,35.33100128173828,53.03300094604492,59.19300079345703,53.0369987487793,45.2239990234375,53.03200149536133,1768294043,29518342,X6-tool2,-0.10284743601102922,0.41101323636933423,44.95708149406555,0.03558308599823837,0.14093154130812655,-0.006608075347483676,0.06355921179056168
2026-01-13 16:47:23.156217,0.0011609934736043215,0.00042549113277345896,45.000057220458984,8.930100440979004,-4.540691375732422,-0.9337618947029114,35.441001892089844,53.03300094604492,59.935001373291016,53.0369987487793,44.762001037597656,53.03200149536133,1768294043,128967905,X6-tool2,-0.00226860048085453,0.46158307243611246,44.88543702052064,0.052863877372162485,0.13589313743563827,-0.00843654658901857,0.06789875030517578
2026-01-13 16:47:23.190584,0.0011609934736043215,0.00042549113277345896,45.000057220458984,8.708974838256836,-4.886170864105225,-0.9701727032661438,35.599998474121094,53.03300094604492,60.577999114990234,53.0369987487793,44.31700134277344,53.03200149536133,1768294043,128967905,X6-tool2,-0.00226860048085453,0.46158307243611246,44.88543702052064,0.052863877372162485,0.13589313743563827,-0.00843654658901857,0.06789875030517578
2026-01-13 16:47:23.225110,0.0011609934736043215,0.00042549113277345896,45.000057220458984,8.588932991027832,-5.078145503997803,-0.9980109333992004,35.69300079345703,53.03300094604492,60.957000732421875,53.0369987487793,44.08599853515625,53.03200149536133,1768294043,128967905,X6-tool2,-0.00226860048085453,0.46158307243611246,44.88543702052064,0.052863877372162485,0.13589313743563827,-0.00843654658901857,0.06789875030517578
2026-01-13 16:47:23.259496,0.0011609934736043215,0.00042549113277345896,45.000057220458984,8.374566078186035,-5.442875385284424,-1.0081415176391602,35.83100128173828,53.03300094604492,61.70399856567383,53.0369987487793,43.619998931884766,53.03200149536133,1768294043,228358206,X6-tool2,-0.05633698258363782,0.3832475139260343,44.847721929376334,0.06782127173948957,0.13087241168395455,-0.01075497811845181,0.061489105224609375
2026-01-13 16:47:23.293970,0.0011609934736043215,0.00042549113277345896,45.000057220458984,8.153593063354492,-5.775656700134277,-1.0103731155395508,35.972999572753906,53.03300094604492,62.374000549316406,53.0369987487793,43.18600082397461,53.03200149536133,1768294043,228358206,X6-tool2,-0.05633698258363782,0.3832475139260343,44.847721929376334,0.06782127173948957,0.13087241168395455,-0.01075497811845181,0.061489105224609375
2026-01-13 16:47:23.328373,0.0011609934736043215,0.00042549113277345896,45.000057220458984,7.932592868804932,-6.083913803100586,-1.0312367677688599,36.132999420166016,53.03300094604492,63.01100158691406,53.0369987487793,42.80699920654297,53.03200149536133,1768294043,228358206,X6-tool2,-0.05633698258363782,0.3832475139260343,44.847721929376334,0.06782127173948957,0.13087241168395455,-0.01075497811845181,0.061489105224609375
2026-01-13 16:47:23.362944,0.0011609934736043215,0.00042549113277345896,45.000057220458984,7.817825794219971,-6.229952335357666,-1.0460468530654907,36.22100067138672,53.03300094604492,63.30799865722656,53.0369987487793,42.63100051879883,53.03200149536133,1768294043,327973496,X6-tool2,-0.15105076706334153,0.5196348912893269,44.88467222194597,0.08598356020825731,0.12546430500518896,-0.012681782801111938,0.061392467468976974
2026-01-13 16:47:23.397377,0.0011609934736043215,0.00042549113277345896,45.000057220458984,7.577313423156738,-6.533227443695068,-1.0686895847320557,36.402000427246094,53.03300094604492,63.93899917602539,53.0369987487793,42.26300048828125,53.03200149536133,1768294043,327973496,X6-tool2,-0.15105076706334153,0.5196348912893269,44.88467222194597,0.08598356020825731,0.12546430500518896,-0.012681782801111938,0.061392467468976974
2026-01-13 16:47:23.431846,0.0011609934736043215,0.00042549113277345896,45.000057220458984,7.303832054138184,-6.840242385864258,-1.0747917890548706,36.599998474121094,53.03300094604492,64.53800201416016,53.0369987487793,41.867000579833984,53.03200149536133,1768294043,427503262,X6-tool2,-0.12161476122382943,0.45693012049677695,44.861546853148596,0.09817536767632587,0.11609287722473438,-0.013530711312903853,0.07578214257955551
2026-01-13 16:47:23.466147,0.0011609934736043215,0.00042549113277345896,45.000057220458984,7.1430888175964355,-6.998018264770508,-1.078784704208374,36.720001220703125,53.03300094604492,64.81300354003906,53.0369987487793,41.65800094604492,53.03200149536133,1768294043,427503262,X6-tool2,-0.12161476122382943,0.45693012049677695,44.861546853148596,0.09817536767632587,0.11609287722473438,-0.013530711312903853,0.07578214257955551
2026-01-13 16:47:23.500589,0.0011609934736043215,0.00042549113277345896,45.000057220458984,6.818678855895996,-7.2964396476745605,-1.1241413354873657,36.994998931884766,53.03300094604492,65.33499908447266,53.0369987487793,41.30099868774414,53.03200149536133,1768294043,427503262,X6-tool2,-0.12161476122382943,0.45693012049677695,44.861546853148596,0.09817536767632587,0.11609287722473438,-0.013530711312903853,0.07578214257955551
2026-01-13 16:47:23.534882,0.0011609934736043215,0.00042549113277345896,45.000057220458984,6.507238388061523,-7.567161560058594,-1.1650936603546143,37.263999938964844,53.03300094604492,65.79100036621094,53.0369987487793,40.97700119018555,53.03200149536133,1768294043,527301519,X6-tool2,-0.1162729501428697,0.4587406112534837,44.7956952853341,0.11067849479309165,0.10443799489086683,-0.013904964624491934,0.0793406143784523
2026-01-13 16:47:23.569343,0.0011609934736043215,0.00042549113277345896,45.000057220458984,6.171426773071289,-7.836218357086182,-1.1931498050689697,37.54999923706055,53.03300094604492,66.18599700927734,53.0369987487793,40.637001037597656,53.03200149536133,1768294043,527301519,X6-tool2,-0.1162729501428697,0.4587406112534837,44.7956952853341,0.11067849479309165,0.10443799489086683,-0.013904964624491934,0.0793406143784523
2026-01-13 16:47:23.603817,0.0011609934736043215,0.00042549113277345896,45.000057220458984,6.004824161529541,-7.965749263763428,-1.2047609090805054,37.69300079345703,53.03300094604492,66.36699676513672,53.0369987487793,40.47200012207031,53.03200149536133,1768294043,527301519,X6-tool2,-0.1162729501428697,0.4587406112534837,44.7956952853341,0.11067849479309165,0.10443799489086683,-0.013904964624491934,0.0793406143784523
2026-01-13 16:47:23.638261,0.0011609934736043215,0.00042549113277345896,45.000057220458984,5.68991231918335,-8.211074829101562,-1.2254648208618164,37.96699905395508,53.03300094604492,66.7239990234375,53.0369987487793,40.16400146484375,53.03200149536133,1768294043,626332526,X6-tool2,-0.16686510245579586,0.4117836401932435,44.83597109960957,0.12085342723672303,0.09398716399516144,-0.01434536934535524,0.07737668603658676
2026-01-13 16:47:23.672650,0.0011609934736043215,0.00042549113277345896,45.000057220458984,5.376051902770996,-8.425183296203613,-1.261865258216858,38.25899887084961,53.03300094604492,66.94999694824219,53.0369987487793,39.9010009765625,53.03200149536133,1768294043,626332526,X6-tool2,-0.16686510245579586,0.4117836401932435,44.83597109960957,0.12085342723672303,0.09398716399516144,-0.01434536934535524,0.07737668603658676
2026-01-13 16:47:23.707223,0.0011609934736043215,0.00042549113277345896,45.000057220458984,5.049135208129883,-8.622977256774902,-1.2932112216949463,38.566001892089844,53.03300094604492,67.04900360107422,53.0369987487793,39.643001556396484,53.03200149536133,1768294043,626332526,X6-tool2,-0.16686510245579586,0.4117836401932435,44.83597109960957,0.12085342723672303,0.09398716399516144,-0.01434536934535524,0.07737668603658676
2026-01-13 16:47:23.741606,0.0011609934736043215,0.00042549113277345896,45.000057220458984,4.840526580810547,-8.740052223205566,-1.326429009437561,38.775001525878906,53.03300094604492,67.07599639892578,53.0369987487793,39.5,53.03200149536133,1768294043,725761539,X6-tool2,-0.18464600966406727,0.31803556786001475,44.784743597760055,0.12732278719591328,0.0826381646657065,-0.013538473112843594,0.07241376489400864
2026-01-13 16:47:23.776084,4.810012342204573e-06,-0.00026979282847605646,44.999481201171875,4.511236190795898,-8.92524242401123,-1.3310132026672363,39.07699966430664,53.03300094604492,67.06999969482422,53.03200149536133,39.23099899291992,53.03200149536133,1768294043,725761539,X6-tool2,-0.18464600966406727,0.31803556786001475,44.784743597760055,0.12732278719591328,0.0826381646657065,-0.013538473112843594,0.07241376489400864
2026-01-13 16:47:23.810452,3.366909368196502e-05,-0.0018884942401200533,45.00017547607422,4.13288688659668,-9.134419441223145,-1.294801950454712,39.40700149536133,53.03900146484375,66.9990005493164,53.03200149536133,38.88999938964844,53.03200149536133,1768294043,725761539,X6-tool2,-0.18464600966406727,0.31803556786001475,44.784743597760055,0.12732278719591328,0.0826381646657065,-0.013538473112843594,0.07241376489400864
2026-01-13 16:47:23.845234,3.366909368196502e-05,-0.0018884942401200533,45.00017547607422,3.957655191421509,-9.215829849243164,-1.2987051010131836,39.57699966430664,53.03900146484375,66.90599822998047,53.03200149536133,38.763999938964844,53.03200149536133,1768294043,825855697,X6-tool2,-0.2070654757115485,0.3389545163632381,44.74652144440413,0.1348949217248792,0.06975039494038564,-0.010297968714964446,0.07620111852884293
2026-01-13 16:47:23.879699,3.366909368196502e-05,-0.0018884942401200533,45.00017547607422,3.6006317138671875,-9.363516807556152,-1.3186008930206299,39.93899917602539,53.03900146484375,66.63700103759766,53.03200149536133,38.53300094604492,53.03200149536133,1768294043,825855697,X6-tool2,-0.2070654757115485,0.3389545163632381,44.74652144440413,0.1348949217248792,0.06975039494038564,-0.010297968714964446,0.07620111852884293
2026-01-13 16:47:23.914146,3.366909368196502e-05,-0.0018884942401200533,45.00017547607422,3.182945728302002,-9.512285232543945,-1.387091875076294,40.40599822998047,53.03900146484375,66.26799774169922,53.03200149536133,38.32400131225586,53.03200149536133,1768294043,825855697,X6-tool2,-0.2070654757115485,0.3389545163632381,44.74652144440413,0.1348949217248792,0.06975039494038564,-0.010297968714964446,0.07620111852884293
2026-01-13 16:47:23.948541,3.366909368196502e-05,-0.0018884942401200533,45.00017547607422,2.8126420974731445,-9.623987197875977,-1.4130691289901733,40.80699920654297,53.03900146484375,65.8239974975586,53.03200149536133,38.12099838256836,53.03200149536133,1768294043,924758899,X6-tool2,-0.22374424799995193,0.21749719307303822,44.81224037303774,0.13891340858122628,0.05524157538886548,-0.007076806371388107,0.07973957061767578
2026-01-13 16:47:23.983058,3.366909368196502e-05,-0.0018884942401200533,45.00017547607422,2.629976749420166,-9.673666954040527,-1.4291396141052246,41.01100158691406,53.03900146484375,65.59300231933594,53.03200149536133,38.02799987792969,53.03200149536133,1768294043,924758899,X6-tool2,-0.22374424799995193,0.21749719307303822,44.81224037303774,0.13891340858122628,0.05524157538886548,-0.007076806371388107,0.07973957061767578
2026-01-13 16:47:24.017527,3.366909368196502e-05,-0.0018884942401200533,45.00017547607422,2.2535247802734375,-9.772563934326172,-1.4396812915802002,41.42300033569336,53.03900146484375,65.09300231933594,53.03200149536133,37.819000244140625,53.03200149536133,1768294043,924758899,X6-tool2,-0.22374424799995193,0.21749719307303822,44.81224037303774,0.13891340858122628,0.05524157538886548,-0.007076806371388107,0.07973957061767578
2026-01-13 16:47:24.051938,-0.0013826757203787565,-0.0011040320387110114,45.00086975097656,1.8352947235107422,-9.871145248413086,-1.4387822151184082,41.88399887084961,53.03900146484375,64.51599884033203,53.03200149536133,37.5880012512207,53.03799819946289,1768294044,24259674,X6-tool2,-0.26016090444016077,0.23530959601071877,44.889752498295536,0.14443295637909806,0.041283812981538326,-0.007864413414800995,0.08926010131835938
2026-01-13 16:47:24.086225,-0.0013826757203787565,-0.0011040320387110114,45.00086975097656,1.6484899520874023,-9.907336235046387,-1.450563669204712,42.104000091552734,53.03900146484375,64.24700164794922,53.03200149536133,37.5,53.03799819946289,1768294044,24259674,X6-tool2,-0.26016090444016077,0.23530959601071877,44.889752498295536,0.14443295637909806,0.041283812981538326,-0.007864413414800995,0.08926010131835938
2026-01-13 16:47:24.120753,-0.0013826757203787565,-0.0011040320387110114,45.00086975097656,1.2631502151489258,-9.965227127075195,-1.481743335723877,42.57099914550781,53.03900146484375,63.659000396728516,53.03200149536133,37.334999084472656,53.03799819946289,1768294044,24259674,X6-tool2,-0.26016090444016077,0.23530959601071877,44.889752498295536,0.14443295637909806,0.041283812981538326,-0.007864413414800995,0.08926010131835938
2026-01-13 16:47:24.155076,-0.0013826757203787565,-0.0011040320387110114,45.00086975097656,0.8481144905090332,-10.00255012512207,-1.5136619806289673,43.08700180053711,53.03900146484375,62.972999572753906,53.03200149536133,37.17100143432617,53.03799819946289,1768294044,124096242,X6-tool2,-0.2930805330825222,0.13633902185060778,44.86405719361275,0.14621826857296724,0.02367566966790686,-0.008793293904286077,0.08274396508932114
2026-01-13 16:47:24.189488,-0.0013826757203787565,-0.0011040320387110114,45.00086975097656,0.43841108679771423,-10.039426803588867,-1.5336952209472656,43.60300064086914,53.03900146484375,62.32400131225586,53.03200149536133,37.0,53.03799819946289,1768294044,124096242,X6-tool2,-0.2930805330825222,0.13633902185060778,44.86405719361275,0.14621826857296724,0.02367566966790686,-0.008793293904286077,0.08274396508932114
2026-01-13 16:47:24.223808,-0.0013826757203787565,-0.0011040320387110114,45.00086975097656,0.24659736454486847,-10.042919158935547,-1.5443079471588135,43.85100173950195,53.03900146484375,61.98899841308594,53.03200149536133,36.92900085449219,53.03799819946289,1768294044,124096242,X6-tool2,-0.2930805330825222,0.13633902185060778,44.86405719361275,0.14621826857296724,0.02367566966790686,-0.008793293904286077,0.08274396508932114
2026-01-13 16:47:24.258260,3.366909368196502e-05,-0.0018884942401200533,45.00017547607422,-0.112519271671772,-10.03017807006836,-1.5762900114059448,44.33399963378906,53.03900146484375,61.33599853515625,53.03200149536133,36.81399917602539,53.03200149536133,1768294044,224259763,X6-tool2,-0.3285016725987895,0.18279989449441042,44.870448190621815,0.1484433102699248,0.008169874467129364,-0.010875475314995407,0.08159860223531723
2026-01-13 16:47:24.292765,3.366909368196502e-05,-0.0018884942401200533,45.00017547607422,-0.5205029249191284,-10.022576332092285,-1.603686809539795,44.888999938964844,53.03900146484375,60.65399932861328,53.03200149536133,36.67599868774414,53.03200149536133,1768294044,224259763,X6-tool2,-0.3285016725987895,0.18279989449441042,44.870448190621815,0.1484433102699248,0.008169874467129364,-0.010875475314995407,0.08159860223531723
2026-01-13 16:47:24.327505,3.366909368196502e-05,-0.0018884942401200533,45.00017547607422,-0.9427778720855713,-10.008082389831543,-1.6015735864639282,45.459999084472656,53.03900146484375,59.92900085449219,53.03200149536133,36.51100158691406,53.03200149536133,1768294044,324118933,X6-tool2,-0.31536127922147794,0.13866030293476533,44.84756411748677,0.14759676604493746,-0.00806132384878304,-0.011653348636758872,0.07868226617574692
2026-01-13 16:47:24.361996,3.366909368196502e-05,-0.0018884942401200533,45.00017547607422,-1.1449958086013794,-9.99117374420166,-1.6161999702453613,45.750999450683594,53.03900146484375,59.5890007019043,53.03200149536133,36.45100021362305,53.03200149536133,1768294044,324118933,X6-tool2,-0.31536127922147794,0.13866030293476533,44.84756411748677,0.14759676604493746,-0.00806132384878304,-0.011653348636758872,0.07868226617574692
2026-01-13 16:47:24.396412,3.366909368196502e-05,-0.0018884942401200533,45.00017547607422,-1.5417732000350952,-9.949256896972656,-1.635610818862915,46.327999114990234,53.03900146484375,58.91299819946289,53.03200149536133,36.33000183105469,53.03200149536133,1768294044,324118933,X6-tool2,-0.31536127922147794,0.13866030293476533,44.84756411748677,0.14759676604493746,-0.00806132384878304,-0.011653348636758872,0.07868226617574692
2026-01-13 16:47:24.430887,4.810012342204573e-06,-0.00026979282847605646,44.999481201171875,-1.9371474981307983,-9.905336380004883,-1.6138635873794556,46.88800048828125,53.03300094604492,58.215999603271484,53.03200149536133,36.17599868774414,53.03200149536133,1768294044,423879438,X6-tool2,-0.28207476270486515,0.27394909717203336,44.84914512622633,0.14967802974221267,-0.024875844062396568,-0.013580910783170481,0.08050473779439926
2026-01-13 16:47:24.465353,3.366909368196502e-05,-0.0018884942401200533,45.00017547607422,-2.1334829330444336,-9.874485969543457,-1.5966172218322754,47.17399978637695,53.03900146484375,57.84700012207031,53.03200149536133,36.0989990234375,53.03200149536133,1768294044,423879438,X6-tool2,-0.28207476270486515,0.27394909717203336,44.84914512622633,0.14967802974221267,-0.024875844062396568,-0.013580910783170481,0.08050473779439926
2026-01-13 16:47:24.499826,3.366909368196502e-05,-0.0018884942401200533,45.00017547607422,-2.534527063369751,-9.773066520690918,-1.6268205642700195,47.81100082397461,53.03900146484375,57.12200164794922,53.03200149536133,36.016998291015625,53.03200149536133,1768294044,423879438,X6-tool2,-0.28207476270486515,0.27394909717203336,44.84914512622633,0.14967802974221267,-0.024875844062396568,-0.013580910783170481,0.08050473779439926
2026-01-13 16:47:24.534239,3.366909368196502e-05,-0.0018884942401200533,45.00017547607422,-2.9098055362701416,-9.674113273620605,-1.6792422533035278,48.44300079345703,53.03900146484375,56.50199890136719,53.03200149536133,35.96200180053711,53.03200149536133,1768294044,524128873,X6-tool2,-0.33951668731497797,0.17122060995227714,44.813778546266555,0.14491493955620366,-0.03867819858494789,-0.013885798895354202,0.08695188909769058
2026-01-13 16:47:24.568713,4.810012342204573e-06,-0.00026979282847605646,44.999481201171875,-3.2806594371795654,-9.524480819702148,-1.7119019031524658,49.069000244140625,53.03300094604492,55.78799819946289,53.03200149536133,35.917999267578125,53.03200149536133,1768294044,524128873,X6-tool2,-0.33951668731497797,0.17122060995227714,44.813778546266555,0.14491493955620366,-0.03867819858494789,-0.013885798895354202,0.08695188909769058
2026-01-13 16:47:24.602998,4.810012342204573e-06,-0.00026979282847605646,44.999481201171875,-3.4690439701080322,-9.459863662719727,-1.716837763786316,49.38800048828125,53.03300094604492,55.446998596191406,53.03200149536133,35.880001068115234,53.03200149536133,1768294044,524128873,X6-tool2,-0.33951668731497797,0.17122060995227714,44.813778546266555,0.14491493955620366,-0.03867819858494789,-0.013885798895354202,0.08695188909769058
2026-01-13 16:47:24.637432,4.810012342204573e-06,-0.00026979282847605646,44.999481201171875,-3.8364627361297607,-9.318893432617188,-1.7331538200378418,50.029998779296875,53.03300094604492,54.78200149536133,53.03200149536133,35.819000244140625,53.03200149536133,1768294044,623961321,X6-tool2,-0.19967237276374117,0.15735376192385897,44.7780874507381,0.1396564117746091,-0.05582725319868056,-0.014398083079555382,0.08078193664550781
2026-01-13 16:47:24.671906,4.810012342204573e-06,-0.00026979282847605646,44.999481201171875,-4.236230850219727,-9.149879455566406,-1.7553601264953613,50.755001068115234,53.03300094604492,54.06800079345703,53.03200149536133,35.763999938964844,53.03200149536133,1768294044,623961321,X6-tool2,-0.19967237276374117,0.15735376192385897,44.7780874507381,0.1396564117746091,-0.05582725319868056,-0.014398083079555382,0.08078193664550781
2026-01-13 16:47:24.706191,4.810012342204573e-06,-0.00026979282847605646,44.999481201171875,-4.418866157531738,-9.076289176940918,-1.7656457424163818,51.09600067138672,53.03300094604492,53.76100158691406,53.03200149536133,35.73699951171875,53.03200149536133,1768294044,623961321,X6-tool2,-0.19967237276374117,0.15735376192385897,44.7780874507381,0.1396564117746091,-0.05582725319868056,-0.014398083079555382,0.08078193664550781
2026-01-13 16:47:24.740574,4.810012342204573e-06,-0.00026979282847605646,44.999481201171875,-4.773208141326904,-8.9100980758667,-1.7675913572311401,51.76100158691406,53.03300094604492,53.11800003051758,53.03200149536133,35.68199920654297,53.03200149536133,1768294044,723900303,X6-tool2,-0.26523824062945534,0.13328938543842636,44.804322880566666,0.13111284121508393,-0.0712289320992489,-0.015167484771174076,0.07776927947998047
2026-01-13 16:47:24.775060,4.810012342204573e-06,-0.00026979282847605646,44.999481201171875,-5.111816883087158,-8.693334579467773,-1.7766673564910889,52.42499923706055,53.03300094604492,52.44200134277344,53.03200149536133,35.665000915527344,53.03200149536133,1768294044,723900303,X6-tool2,-0.26523824062945534,0.13328938543842636,44.804322880566666,0.13111284121508393,-0.0712289320992489,-0.015167484771174076,0.07776927947998047
2026-01-13 16:47:24.809489,4.810012342204573e-06,-0.00026979282847605646,44.999481201171875,-5.455770969390869,-8.487363815307617,-1.8105506896972656,53.138999938964844,53.03300094604492,51.8380012512207,53.03200149536133,35.65999984741211,53.03200149536133,1768294044,723900303,X6-tool2,-0.26523824062945534,0.13328938543842636,44.804322880566666,0.13111284121508393,-0.0712289320992489,-0.015167484771174076,0.07776927947998047
2026-01-13 16:47:24.843941,4.810012342204573e-06,-0.00026979282847605646,44.999481201171875,-5.627070903778076,-8.373916625976562,-1.8236135244369507,53.50199890136719,53.03300094604492,51.525001525878906,53.03200149536133,35.65999984741211,53.03200149536133,1768294044,823875237,X6-tool2,-0.20665832131542203,0.07769164710560678,44.79595842131681,0.1219654677836781,-0.0859962346721137,-0.015150154046167989,0.07644907385110855
2026-01-13 16:47:24.878423,4.810012342204573e-06,-0.00026979282847605646,44.999481201171875,-5.951752662658691,-8.161961555480957,-1.8427793979644775,54.20500183105469,53.03300094604492,50.948001861572266,53.03200149536133,35.65399932861328,53.03200149536133,1768294044,823875237,X6-tool2,-0.20665832131542203,0.07769164710560678,44.79595842131681,0.1219654677836781,-0.0859962346721137,-0.015150154046167989,0.07644907385110855
2026-01-13 16:47:24.912934,4.810012342204573e-06,-0.00026979282847605646,44.999481201171875,-6.256862640380859,-7.918688774108887,-1.8461631536483765,54.88100051879883,53.03300094604492,50.34400177001953,53.03200149536133,35.65999984741211,53.03200149536133,1768294044,823875237,X6-tool2,-0.20665832131542203,0.07769164710560678,44.79595842131681,0.1219654677836781,-0.0859962346721137,-0.015150154046167989,0.07644907385110855
2026-01-13 16:47:24.947370,4.810012342204573e-06,-0.00026979282847605646,44.999481201171875,-6.575535297393799,-7.662301540374756,-1.8459917306900024,55.611000061035156,53.03300094604492,49.729000091552734,53.03200149536133,35.665000915527344,53.03200149536133,1768294044,923912753,X6-tool2,-0.27413297215112986,0.29626621050552154,44.838910924902436,0.11819167848570364,-0.09800489842676294,-0.015722108181298343,0.08449745178222656
2026-01-13 16:47:24.981849,4.810012342204573e-06,-0.00026979282847605646,44.999481201171875,-6.728302478790283,-7.536863803863525,-1.8485726118087769,55.9739990234375,53.03300094604492,49.44300079345703,53.03200149536133,35.67100143432617,53.03200149536133,1768294044,923912753,X6-tool2,-0.27413297215112986,0.29626621050552154,44.838910924902436,0.11819167848570364,-0.09800489842676294,-0.015722108181298343,0.08449745178222656
