TCliu030506/rrc_ws/src/x6_pkg/x6_control_python/record/record_20260113_164548.csv
timestamp,x6position_pose_rp[0],x6position_pose_rp[1],x6position_pose_rp[2],x6position_pose_rp[3],x6position_pose_rp[4],x6position_pose_rp[5],x6position_joints[0],x6position_joints[1],x6position_joints[2],x6position_joints[3],x6position_joints[4],x6position_joints[5],aimooe_coord_header.stamp.sec,aimooe_coord_header.stamp.nanosec,aimooe_coord_header.frame_id,aimooe_coord_position.x,aimooe_coord_position.y,aimooe_coord_position.z,aimooe_coord_orientation.x,aimooe_coord_orientation.y,aimooe_coord_orientation.z,aimooe_coord_mean_error
2026-01-13 16:45:24.174031,-0.00022644597629550844,-0.00040881699533201754,45.00144958496094,-0.0009084437042474747,0.0005655043059960008,-0.0010254851076751947,43.097999572753906,53.03900146484375,43.097999572753906,53.0369987487793,43.097999572753906,53.03799819946289,1768293924,128426628,X6-tool2,-0.1967041786316814,0.43843746669035916,44.72488036262667,-0.03797288217467314,-0.028368400037367517,0.024748099650404663,0.0680023804306984
2026-01-13 16:45:24.211548,-0.00022644597629550844,-0.00040881699533201754,45.00144958496094,-0.0009084437042474747,0.0005655043059960008,-0.0010254851076751947,43.097999572753906,53.03900146484375,43.097999572753906,53.0369987487793,43.097999572753906,53.03799819946289,1768293924,128426628,X6-tool2,-0.1967041786316814,0.43843746669035916,44.72488036262667,-0.03797288217467314,-0.028368400037367517,0.024748099650404663,0.0680023804306984
2026-01-13 16:45:24.246356,-0.00022644597629550844,-0.00040881699533201754,45.00144958496094,-0.0009084437042474747,0.0005655043059960008,-0.0010254851076751947,43.097999572753906,53.03900146484375,43.097999572753906,53.0369987487793,43.097999572753906,53.03799819946289,1768293924,228057804,X6-tool2,-0.2033272843051302,0.4347882263582267,44.68863891249153,-0.038274408369830065,-0.02821995779944562,0.02482705800232697,0.06941509246826172
2026-01-13 16:45:24.280831,-0.00022644597629550844,-0.00040881699533201754,45.00144958496094,-0.0009084437042474747,0.0005655043059960008,-0.0010254851076751947,43.097999572753906,53.03900146484375,43.097999572753906,53.0369987487793,43.097999572753906,53.03799819946289,1768293924,228057804,X6-tool2,-0.2033272843051302,0.4347882263582267,44.68863891249153,-0.038274408369830065,-0.02821995779944562,0.02482705800232697,0.06941509246826172
2026-01-13 16:45:24.315383,-0.00022644597629550844,-0.00040881699533201754,45.00144958496094,-0.0009084437042474747,0.0005655043059960008,-0.0010254851076751947,43.097999572753906,53.03900146484375,43.097999572753906,53.0369987487793,43.097999572753906,53.03799819946289,1768293924,228057804,X6-tool2,-0.2033272843051302,0.4347882263582267,44.68863891249153,-0.038274408369830065,-0.02821995779944562,0.02482705800232697,0.06941509246826172
2026-01-13 16:45:24.349820,-0.00022644597629550844,-0.00040881699533201754,45.00144958496094,-0.0009084437042474747,0.0005655043059960008,-0.0010254851076751947,43.097999572753906,53.03900146484375,43.09299850463867,53.0369987487793,43.097999572753906,53.03799819946289,1768293924,327288785,X6-tool2,-0.19083188904886517,0.40181007413588943,44.72687751305745,-0.03850914641640393,-0.028443338920760033,0.02472834964447114,0.06710433959960938
2026-01-13 16:45:24.384423,-0.00022644597629550844,-0.00040881699533201754,45.00144958496094,-0.0009084437042474747,0.0005655043059960008,-0.0010254851076751947,43.097999572753906,53.03900146484375,43.09299850463867,53.0369987487793,43.097999572753906,53.03799819946289,1768293924,327288785,X6-tool2,-0.19083188904886517,0.40181007413588943,44.72687751305745,-0.03850914641640393,-0.028443338920760033,0.02472834964447114,0.06710433959960938
2026-01-13 16:45:24.419514,-0.00022644597629550844,-0.00040881699533201754,45.00144958496094,-0.0009084437042474747,0.0005655043059960008,-0.0010254851076751947,43.097999572753906,53.03900146484375,43.09299850463867,53.0369987487793,43.097999572753906,53.03799819946289,1768293924,327288785,X6-tool2,-0.19083188904886517,0.40181007413588943,44.72687751305745,-0.03850914641640393,-0.028443338920760033,0.02472834964447114,0.06710433959960938
2026-01-13 16:45:24.454160,-0.00022644597629550844,-0.00040881699533201754,45.00144958496094,-0.0009084437042474747,0.0005655043059960008,-0.0010254851076751947,43.097999572753906,53.03900146484375,43.09299850463867,53.0369987487793,43.097999572753906,53.03799819946289,1768293924,427148959,X6-tool2,-0.16459205616569772,0.4516590584143808,44.70985937355032,-0.037775845895812316,-0.028902291373224087,0.024787643922474314,0.07540035247802734
2026-01-13 16:45:24.488936,-0.00022644597629550844,-0.00040881699533201754,45.00144958496094,-0.0009084437042474747,0.0005655043059960008,-0.0010254851076751947,43.097999572753906,53.03900146484375,43.09299850463867,53.0369987487793,43.097999572753906,53.03799819946289,1768293924,427148959,X6-tool2,-0.16459205616569772,0.4516590584143808,44.70985937355032,-0.037775845895812316,-0.028902291373224087,0.024787643922474314,0.07540035247802734
2026-01-13 16:45:24.523660,-0.00022644597629550844,-0.00040881699533201754,45.00144958496094,-0.0009084437042474747,0.0005655043059960008,-0.0010254851076751947,43.097999572753906,53.03900146484375,43.09299850463867,53.0369987487793,43.097999572753906,53.03799819946289,1768293924,427148959,X6-tool2,-0.16459205616569772,0.4516590584143808,44.70985937355032,-0.037775845895812316,-0.028902291373224087,0.024787643922474314,0.07540035247802734
2026-01-13 16:45:24.558054,-0.00022644597629550844,-0.00040881699533201754,45.00144958496094,-0.0009084437042474747,0.0005655043059960008,-0.0010254851076751947,43.097999572753906,53.03900146484375,43.09299850463867,53.0369987487793,43.097999572753906,53.03799819946289,1768293924,526502624,X6-tool2,-0.1912903750133067,0.419864445310074,44.702428870635444,-0.038410420580148076,-0.028507197447028856,0.024907303942827412,0.07652155309915543
2026-01-13 16:45:24.592712,-0.00022644597629550844,-0.00040881699533201754,45.00144958496094,-0.0009084437042474747,0.0005655043059960008,-0.0010254851076751947,43.097999572753906,53.03900146484375,43.09299850463867,53.0369987487793,43.097999572753906,53.03799819946289,1768293924,526502624,X6-tool2,-0.1912903750133067,0.419864445310074,44.702428870635444,-0.038410420580148076,-0.028507197447028856,0.024907303942827412,0.07652155309915543
2026-01-13 16:45:24.627192,-0.00022644597629550844,-0.00040881699533201754,45.00144958496094,-0.0009084437042474747,0.0005655043059960008,-0.0010254851076751947,43.097999572753906,53.03900146484375,43.09299850463867,53.0369987487793,43.097999572753906,53.03799819946289,1768293924,625977043,X6-tool2,-0.22264143195077818,0.44874165248923376,44.77287575061551,-0.03743814727528658,-0.02771234411179482,0.02475665185803387,0.07232507318258286
2026-01-13 16:45:24.661697,-0.00022644597629550844,-0.00040881699533201754,45.00144958496094,-0.0009084437042474747,0.0005655043059960008,-0.0010254851076751947,43.097999572753906,53.03900146484375,43.09299850463867,53.0369987487793,43.097999572753906,53.03799819946289,1768293924,625977043,X6-tool2,-0.22264143195077818,0.44874165248923376,44.77287575061551,-0.03743814727528658,-0.02771234411179482,0.02475665185803387,0.07232507318258286
2026-01-13 16:45:24.696246,-0.00022644597629550844,-0.00040881699533201754,45.00144958496094,-0.0009084437042474747,0.0005655043059960008,-0.0010254851076751947,43.097999572753906,53.03900146484375,43.09299850463867,53.0369987487793,43.097999572753906,53.03799819946289,1768293924,625977043,X6-tool2,-0.22264143195077818,0.44874165248923376,44.77287575061551,-0.03743814727528658,-0.02771234411179482,0.02475665185803387,0.07232507318258286
2026-01-13 16:45:24.730538,-0.00022644597629550844,-0.00040881699533201754,45.00144958496094,-0.0009084437042474747,0.0005655043059960008,-0.0010254851076751947,43.097999572753906,53.03900146484375,43.09299850463867,53.0369987487793,43.097999572753906,53.03799819946289,1768293924,725158682,X6-tool2,-0.2000431606701673,0.4440772646997691,44.69959597998448,-0.0375634078970133,-0.028464000306791415,0.024799862508842953,0.07317638397216797
2026-01-13 16:45:24.765218,-0.00022644597629550844,-0.00040881699533201754,45.00144958496094,-0.0009084437042474747,0.0005655043059960008,-0.0010254851076751947,43.097999572753906,53.03900146484375,43.09299850463867,53.0369987487793,43.097999572753906,53.03799819946289,1768293924,725158682,X6-tool2,-0.2000431606701673,0.4440772646997691,44.69959597998448,-0.0375634078970133,-0.028464000306791415,0.024799862508842953,0.07317638397216797
2026-01-13 16:45:24.799916,-0.00022644597629550844,-0.00040881699533201754,45.00144958496094,-0.0009084437042474747,0.0005655043059960008,-0.0010254851076751947,43.097999572753906,53.03900146484375,43.09299850463867,53.0369987487793,43.097999572753906,53.03799819946289,1768293924,725158682,X6-tool2,-0.2000431606701673,0.4440772646997691,44.69959597998448,-0.0375634078970133,-0.028464000306791415,0.024799862508842953,0.07317638397216797
2026-01-13 16:45:24.834381,-0.00022644597629550844,-0.00040881699533201754,45.00144958496094,-0.0009084437042474747,0.0005655043059960008,-0.0010254851076751947,43.097999572753906,53.03900146484375,43.09299850463867,53.0369987487793,43.097999572753906,53.03799819946289,1768293924,824782907,X6-tool2,-0.17280474046237887,0.4223431027868541,44.68996864157093,-0.03839532351316887,-0.028909680375643565,0.02474339366922778,0.07246812433004379
2026-01-13 16:45:24.868973,-0.00022644597629550844,-0.00040881699533201754,45.00144958496094,-0.0009084437042474747,0.0005655043059960008,-0.0010254851076751947,43.097999572753906,53.03900146484375,43.09299850463867,53.0369987487793,43.097999572753906,53.03799819946289,1768293924,824782907,X6-tool2,-0.17280474046237887,0.4223431027868541,44.68996864157093,-0.03839532351316887,-0.028909680375643565,0.02474339366922778,0.07246812433004379
2026-01-13 16:45:24.903440,-0.00022644597629550844,-0.00040881699533201754,45.00144958496094,-0.0009084437042474747,0.0005655043059960008,-0.0010254851076751947,43.097999572753906,53.03900146484375,43.09299850463867,53.0369987487793,43.097999572753906,53.03799819946289,1768293924,824782907,X6-tool2,-0.17280474046237887,0.4223431027868541,44.68996864157093,-0.03839532351316887,-0.028909680375643565,0.02474339366922778,0.07246812433004379
2026-01-13 16:45:24.937745,-0.00022644597629550844,-0.00040881699533201754,45.00144958496094,-0.0009084437042474747,0.0005655043059960008,-0.0010254851076751947,43.097999572753906,53.03900146484375,43.09299850463867,53.0369987487793,43.097999572753906,53.03799819946289,1768293924,924257767,X6-tool2,-0.20439649898699927,0.44361603745325356,44.70514456834389,-0.037800608150632395,-0.02835087787215817,0.024800153541641345,0.0712289810180664
2026-01-13 16:45:24.972175,-0.00022644597629550844,-0.00040881699533201754,45.00144958496094,-0.0009084437042474747,0.0005655043059960008,-0.0010254851076751947,43.097999572753906,53.03900146484375,43.09299850463867,53.0369987487793,43.097999572753906,53.03799819946289,1768293924,924257767,X6-tool2,-0.20439649898699927,0.44361603745325356,44.70514456834389,-0.037800608150632395,-0.02835087787215817,0.024800153541641345,0.0712289810180664
2026-01-13 16:45:25.006549,-0.00022644597629550844,-0.00040881699533201754,45.00144958496094,-0.0009084437042474747,0.0005655043059960008,-0.0010254851076751947,43.097999572753906,53.03900146484375,43.09299850463867,53.0369987487793,43.097999572753906,53.03799819946289,1768293924,924257767,X6-tool2,-0.20439649898699927,0.44361603745325356,44.70514456834389,-0.037800608150632395,-0.02835087787215817,0.024800153541641345,0.0712289810180664
2026-01-13 16:45:25.041041,-0.00022644597629550844,-0.00040881699533201754,45.00144958496094,-0.0009084437042474747,0.0005655043059960008,-0.0010254851076751947,43.097999572753906,53.03900146484375,43.09299850463867,53.0369987487793,43.097999572753906,53.03799819946289,1768293925,24319430,X6-tool2,-0.178582536008184,0.4198351752849794,44.756257555494344,-0.03836261143325126,-0.028592799080373047,0.025094033180235665,0.07216516882181168
2026-01-13 16:45:25.075637,-0.00022644597629550844,-0.00040881699533201754,45.00144958496094,-0.0009084437042474747,0.0005655043059960008,-0.0010254851076751947,43.097999572753906,53.03900146484375,43.09299850463867,53.0369987487793,43.097999572753906,53.03799819946289,1768293925,24319430,X6-tool2,-0.178582536008184,0.4198351752849794,44.756257555494344,-0.03836261143325126,-0.028592799080373047,0.025094033180235665,0.07216516882181168
2026-01-13 16:45:25.110468,0.02567128837108612,0.0015308244619518518,45.002708435058594,0.00953896064311266,0.014739458449184895,0.011033168062567711,43.097999572753906,53.03900146484375,43.097999572753906,53.097999572753906,43.06999969482422,52.987998962402344,1768293925,24319430,X6-tool2,-0.178582536008184,0.4198351752849794,44.756257555494344,-0.03836261143325126,-0.028592799080373047,0.025094033180235665,0.07216516882181168
2026-01-13 16:45:25.145009,0.07399380207061768,0.012878474779427052,45.011627197265625,-0.001211239374242723,0.03470563516020775,0.02056359313428402,43.15299987792969,53.03900146484375,43.13100051879883,53.24100112915039,43.020999908447266,52.92300033569336,1768293925,124653323,X6-tool2,-0.16115379672159325,0.4076283796210939,44.671290781586734,-0.03884661293829165,-0.028492295166110796,0.02453319735274351,0.06701310724020004
2026-01-13 16:45:25.179668,0.17100790143013,0.02765277773141861,45.022403717041016,0.0018644857918843627,0.0687948614358902,0.021284500136971474,43.24599838256836,53.03900146484375,43.20800018310547,53.499000549316406,42.93299865722656,52.76300048828125,1768293925,124653323,X6-tool2,-0.16115379672159325,0.4076283796210939,44.671290781586734,-0.03884661293829165,-0.028492295166110796,0.02453319735274351,0.06701310724020004
2026-01-13 16:45:25.213975,0.25891977548599243,0.031228724867105484,45.025211334228516,0.016455817967653275,0.07482756674289703,-0.01804223470389843,43.35100173950195,53.04399871826172,43.31800079345703,53.70199966430664,42.85599899291992,52.58700180053711,1768293925,124653323,X6-tool2,-0.16115379672159325,0.4076283796210939,44.671290781586734,-0.03884661293829165,-0.028492295166110796,0.02453319735274351,0.06701310724020004
2026-01-13 16:45:25.248404,0.3450446128845215,0.04141802340745926,45.031715393066406,0.017079629004001617,0.10248076170682907,-0.03568197041749954,43.45500183105469,53.04399871826172,43.39500045776367,53.922000885009766,42.78499984741211,52.433998107910156,1768293925,224035259,X6-tool2,-0.07712213139812053,0.5149890508821491,44.73333376856222,-0.03499859612713362,-0.02637786777871257,0.02504948343453981,0.07419967651367188
2026-01-13 16:45:25.282941,0.395822137594223,0.043371714651584625,45.0340576171875,0.025987539440393448,0.11844444274902344,-0.04150944575667381,43.50400161743164,53.04999923706055,43.43299865722656,54.042999267578125,42.74100112915039,52.334999084472656,1768293925,224035259,X6-tool2,-0.07712213139812053,0.5149890508821491,44.73333376856222,-0.03499859612713362,-0.02637786777871257,0.02504948343453981,0.07419967651367188
2026-01-13 16:45:25.317424,0.49314582347869873,0.051071956753730774,45.037654876708984,0.02413836121559143,0.14547176659107208,-0.06076480448246002,43.625,53.04999923706055,43.5099983215332,54.27899932861328,42.64699935913086,52.14799880981445,1768293925,224035259,X6-tool2,-0.07712213139812053,0.5149890508821491,44.73333376856222,-0.03499859612713362,-0.02637786777871257,0.02504948343453981,0.07419967651367188
2026-01-13 16:45:25.351720,0.5884652733802795,0.06691762059926987,45.049713134765625,0.021420741453766823,0.17310141026973724,-0.042499687522649765,43.7239990234375,53.05500030517578,43.582000732421875,54.54800033569336,42.542999267578125,52.0,1768293925,324214317,X6-tool2,0.13005028262080134,0.4684459137726018,44.76423843740842,-0.03579634440499341,-0.0237085815598405,0.026709716479995226,0.06710752099752426
2026-01-13 16:45:25.386335,0.6386149525642395,0.07457149773836136,45.05653381347656,0.016521446406841278,0.19183170795440674,-0.033763330429792404,43.78499984741211,53.06100082397461,43.6150016784668,54.691001892089844,42.49300003051758,51.92300033569336,1768293925,324214317,X6-tool2,0.13005028262080134,0.4684459137726018,44.76423843740842,-0.03579634440499341,-0.0237085815598405,0.026709716479995226,0.06710752099752426
2026-01-13 16:45:25.421179,0.7447182536125183,0.09237971156835556,45.069332122802734,0.01975884474813938,0.23817183077335358,-0.016002489253878593,43.89400100708008,53.066001892089844,43.68600082397461,54.99300003051758,42.400001525878906,51.757999420166016,1768293925,324214317,X6-tool2,0.13005028262080134,0.4684459137726018,44.76423843740842,-0.03579634440499341,-0.0237085815598405,0.026709716479995226,0.06710752099752426
2026-01-13 16:45:25.455695,0.8455522656440735,0.10537511110305786,45.07821273803711,0.01907883584499359,0.2589591443538666,-0.011330440640449524,44.01499938964844,53.071998596191406,43.77399826049805,55.268001556396484,42.290000915527344,51.5880012512207,1768293925,424233768,X6-tool2,0.40949905116276314,0.4466196768409558,44.85186952757637,-0.03643909862415054,-0.022545042841678235,0.030361085177715536,0.06706428527832031
2026-01-13 16:45:25.490130,0.9495875239372253,0.1190011277794838,45.08676528930664,0.009758040308952332,0.26707741618156433,0.024102680385112762,44.125,53.07699966430664,43.845001220703125,55.553001403808594,42.13100051879883,51.4119987487793,1768293925,424233768,X6-tool2,0.40949905116276314,0.4466196768409558,44.85186952757637,-0.03643909862415054,-0.022545042841678235,0.030361085177715536,0.06706428527832031
2026-01-13 16:45:25.524551,1.0016320943832397,0.12348075211048126,45.090152740478516,0.01243576593697071,0.2745749354362488,0.03369343653321266,44.18000030517578,53.08300018310547,43.88399887084961,55.691001892089844,42.064998626708984,51.319000244140625,1768293925,424233768,X6-tool2,0.40949905116276314,0.4466196768409558,44.85186952757637,-0.03643909862415054,-0.022545042841678235,0.030361085177715536,0.06706428527832031
2026-01-13 16:45:25.559146,1.1089134216308594,0.13442762196063995,45.09782028198242,0.022055452689528465,0.3002249598503113,0.05387784540653229,44.290000915527344,53.09400177001953,43.96099853515625,55.981998443603516,41.944000244140625,51.13199996948242,1768293925,524091212,X6-tool2,0.5656419110581123,0.41754108486212543,44.909434819152985,-0.03676473440066402,-0.018588277944058706,0.03320849230509377,0.0657246932387352
2026-01-13 16:45:25.593669,1.2145694494247437,0.14307962357997894,45.10109329223633,0.022679198533296585,0.3117586374282837,0.069276824593544,44.4109992980957,53.0989990234375,44.03799819946289,56.25600051879883,41.80099868774414,50.933998107910156,1768293925,524091212,X6-tool2,0.5656419110581123,0.41754108486212543,44.909434819152985,-0.03676473440066402,-0.018588277944058706,0.03320849230509377,0.0657246932387352
2026-01-13 16:45:25.628064,1.3276792764663696,0.14549411833286285,45.10036849975586,0.016103066504001617,0.3083544671535492,0.08522525429725647,44.55400085449219,53.11000061035156,44.1150016784668,56.53099822998047,41.619998931884766,50.702999114990234,1768293925,624086363,X6-tool2,0.831833580304279,0.34540305835920543,44.979621161850226,-0.03684496408561047,-0.017399527029126345,0.03706046711632636,0.06499099731445312
2026-01-13 16:45:25.662494,1.381476879119873,0.14500288665294647,45.098751068115234,0.014232860878109932,0.310085266828537,0.07710766047239304,44.63600158691406,53.11600112915039,44.159000396728516,56.65700149536133,41.54899978637695,50.5880012512207,1768293925,624086363,X6-tool2,0.831833580304279,0.34540305835920543,44.979621161850226,-0.03684496408561047,-0.017399527029126345,0.03706046711632636,0.06499099731445312
2026-01-13 16:45:25.696828,1.4841958284378052,0.14747272431850433,45.09597396850586,0.009525174275040627,0.30542147159576416,0.07632694393396378,44.784000396728516,53.12099838256836,44.23500061035156,56.904998779296875,41.388999938964844,50.374000549316406,1768293925,624086363,X6-tool2,0.831833580304279,0.34540305835920543,44.979621161850226,-0.03684496408561047,-0.017399527029126345,0.03706046711632636,0.06499099731445312
2026-01-13 16:45:25.731666,1.5949290990829468,0.14989756047725677,45.092594146728516,0.0020798295736312866,0.3097189962863922,0.0836666002869606,44.93299865722656,53.12699890136719,44.31800079345703,57.17399978637695,41.22999954223633,50.143001556396484,1768293925,724217217,X6-tool2,1.0556568162637396,0.36825023172388316,44.97965927809661,-0.035797990437943045,-0.01627895278185646,0.037996223255631095,0.07407983392477036
2026-01-13 16:45:25.766315,1.6542617082595825,0.1514638066291809,45.09148025512695,0.013685153797268867,0.30991825461387634,0.07521418482065201,45.0099983215332,53.13199996948242,44.37799835205078,57.321998596191406,41.159000396728516,50.02199935913086,1768293925,724217217,X6-tool2,1.0556568162637396,0.36825023172388316,44.97965927809661,-0.035797990437943045,-0.01627895278185646,0.037996223255631095,0.07407983392477036
2026-01-13 16:45:25.801153,1.7710074186325073,0.16073592007160187,45.09282302856445,0.013372110202908516,0.3206818103790283,0.07332820445299149,45.185001373291016,53.13800048828125,44.47700119018555,57.6349983215332,41.020999908447266,49.801998138427734,1768293925,724217217,X6-tool2,1.0556568162637396,0.36825023172388316,44.97965927809661,-0.035797990437943045,-0.01627895278185646,0.037996223255631095,0.07407983392477036
2026-01-13 16:45:25.835615,1.894039511680603,0.1729269176721573,45.09348678588867,0.010298870503902435,0.3395631015300751,0.07876835763454437,45.367000579833984,53.13800048828125,44.58100128173828,57.970001220703125,40.867000579833984,49.571998596191406,1768293925,824099823,X6-tool2,1.3981755448218833,0.30363446681328526,44.921562608192666,-0.038024010812535806,-0.016714199449310282,0.03874159307966582,0.06257184594869614
2026-01-13 16:45:25.870182,2.001356363296509,0.18121275305747986,45.09345245361328,-0.0040565477684140205,0.34636545181274414,0.09818457067012787,45.5369987487793,53.143001556396484,44.65299987792969,58.26100158691406,40.70800018310547,49.36800003051758,1768293925,824099823,X6-tool2,1.3981755448218833,0.30363446681328526,44.921562608192666,-0.038024010812535806,-0.016714199449310282,0.03874159307966582,0.06257184594869614
2026-01-13 16:45:25.904487,2.0548949241638184,0.1823064237833023,45.091976165771484,-0.015110916458070278,0.34527963399887085,0.11288876086473465,45.625,53.14899826049805,44.68000030517578,58.39899826049805,40.6150016784668,49.25899887084961,1768293925,824099823,X6-tool2,1.3981755448218833,0.30363446681328526,44.921562608192666,-0.038024010812535806,-0.016714199449310282,0.03874159307966582,0.06257184594869614
2026-01-13 16:45:25.939016,2.159105062484741,0.1887771636247635,45.088260650634766,-0.024624835699796677,0.34408697485923767,0.13080541789531708,45.784000396728516,53.14899826049805,44.75199890136719,58.67300033569336,40.45000076293945,49.04999923706055,1768293925,924112524,X6-tool2,1.6146895162482386,0.308218938075462,44.93763323475776,-0.038281040855361735,-0.015728927940849603,0.04014540532495268,0.07520993798971176
2026-01-13 16:45:25.973510,2.2570152282714844,0.19605818390846252,45.0872688293457,-0.03007461130619049,0.3303544521331787,0.14273351430892944,45.94300079345703,53.15399932861328,44.845001220703125,58.94300079345703,40.29600143432617,48.862998962402344,1768293925,924112524,X6-tool2,1.6146895162482386,0.308218938075462,44.93763323475776,-0.038281040855361735,-0.015728927940849603,0.04014540532495268,0.07520993798971176
2026-01-13 16:45:26.007944,2.369602680206299,0.20337392389774323,45.08271026611328,-0.05003754049539566,0.3251800239086151,0.1507706344127655,46.152000427246094,53.15399932861328,44.93299865722656,59.244998931884766,40.119998931884766,48.63800048828125,1768293925,924112524,X6-tool2,1.6146895162482386,0.308218938075462,44.93763323475776,-0.038281040855361735,-0.015728927940849603,0.04014540532495268,0.07520993798971176
2026-01-13 16:45:26.042839,2.4782283306121826,0.2064630091190338,45.07672119140625,-0.04043961688876152,0.3284175992012024,0.1580640971660614,46.305999755859375,53.15999984741211,45.01499938964844,59.529998779296875,39.97800064086914,48.41299819946289,1768293926,24337043,X6-tool2,1.8678363538021923,0.3332272475110549,44.92187636856486,-0.03765535678236428,-0.015456499006127715,0.04145056311869714,0.06449731439352036
2026-01-13 16:45:26.077438,2.5322368144989014,0.20773322880268097,45.072269439697266,-0.03382082283496857,0.34527960419654846,0.15977753698825836,46.38800048828125,53.15999984741211,45.04800033569336,59.667999267578125,39.9119987487793,48.297000885009766,1768293926,24337043,X6-tool2,1.8678363538021923,0.3332272475110549,44.92187636856486,-0.03765535678236428,-0.015456499006127715,0.04145056311869714,0.06449731439352036
2026-01-13 16:45:26.111816,2.6405491828918457,0.20644205808639526,45.06161117553711,-0.022608688101172447,0.37860167026519775,0.15209603309631348,46.558998107910156,53.165000915527344,45.10900115966797,59.9370002746582,39.79600143432617,48.055999755859375,1768293926,24337043,X6-tool2,1.8678363538021923,0.3332272475110549,44.92187636856486,-0.03765535678236428,-0.015456499006127715,0.04145056311869714,0.06449731439352036
2026-01-13 16:45:26.146286,2.6998350620269775,0.20795883238315582,45.05648422241211,-0.010467173531651497,0.3993690013885498,0.1610596925020218,46.630001068115234,53.165000915527344,45.13600158691406,60.090999603271484,39.72999954223633,47.92900085449219,1768293926,124267111,X6-tool2,2.119173851047942,0.4119929312787452,45.04971260655774,-0.0367733345498763,-0.014039121128542,0.042195062248797495,0.08054319769144058
2026-01-13 16:45:26.180997,2.8172965049743652,0.2090848684310913,45.04657745361328,0.015029423870146275,0.42948275804519653,0.17609959840774536,46.77799987792969,53.17100143432617,45.20199966430664,60.39799880981445,39.59299850463867,47.676998138427734,1768293926,124267111,X6-tool2,2.119173851047942,0.4119929312787452,45.04971260655774,-0.0367733345498763,-0.014039121128542,0.042195062248797495,0.08054319769144058
2026-01-13 16:45:26.215550,2.895784854888916,0.19010713696479797,45.02141189575195,0.0272216796875,0.4011772871017456,0.11982940882444382,46.926998138427734,53.17100143432617,45.28499984741211,60.51900100708008,39.46099853515625,47.435001373291016,1768293926,124267111,X6-tool2,2.119173851047942,0.4119929312787452,45.04971260655774,-0.0367733345498763,-0.014039121128542,0.042195062248797495,0.08054319769144058
2026-01-13 16:45:26.249919,2.9519388675689697,0.1553121954202652,44.987003326416016,0.029858939349651337,0.3358628451824188,0.02479197084903717,47.08100128173828,53.17599868774414,45.37200164794922,60.525001525878906,39.32400131225586,47.19300079345703,1768293926,224139686,X6-tool2,2.453891509819802,0.36398054597997237,44.93541768721847,-0.03802368790821348,-0.014136032904076081,0.04310195125240378,0.07300567626953125
2026-01-13 16:45:26.284427,2.979461669921875,0.1382720023393631,44.96916580200195,0.029963871464133263,0.28783634305000305,-0.017643345519900322,47.152000427246094,53.17599868774414,45.422000885009766,60.525001525878906,39.236000061035156,47.071998596191406,1768293926,224139686,X6-tool2,2.453891509819802,0.36398054597997237,44.93541768721847,-0.03802368790821348,-0.014136032904076081,0.04310195125240378,0.07300567626953125
2026-01-13 16:45:26.319053,2.999509572982788,0.12405768036842346,44.95684051513672,-0.021859699860215187,0.14754177629947662,-0.03592444583773613,47.28900146484375,53.18199920654297,45.5099983215332,60.525001525878906,39.03799819946289,46.98400115966797,1768293926,224139686,X6-tool2,2.453891509819802,0.36398054597997237,44.93541768721847,-0.03802368790821348,-0.014136032904076081,0.04310195125240378,0.07300567626953125
2026-01-13 16:45:26.353825,3.000662326812744,0.1218431293964386,44.95667266845703,-0.09026763588190079,0.08013990521430969,-0.0654090940952301,47.44900131225586,53.1870002746582,45.558998107910156,60.525001525878906,38.96099853515625,46.979000091552734,1768293926,324216109,X6-tool2,2.5971874677193263,0.2381815265151619,44.827767473766265,-0.03787845282181212,-0.015182207683241834,0.04218933353495439,0.06550756841897964
2026-01-13 16:45:26.388301,3.000662326812744,0.1218431293964386,44.95667266845703,-0.11237089335918427,0.07545831799507141,-0.07932856678962708,47.50400161743164,53.1870002746582,45.564998626708984,60.525001525878906,38.95600128173828,46.979000091552734,1768293926,324216109,X6-tool2,2.5971874677193263,0.2381815265151619,44.827767473766265,-0.03787845282181212,-0.015182207683241834,0.04218933353495439,0.06550756841897964
2026-01-13 16:45:26.422931,3.0006797313690186,0.12003177404403687,44.957359313964844,-0.11237089335918427,0.07545831799507141,-0.07932856678962708,47.50400161743164,53.19300079345703,45.564998626708984,60.525001525878906,38.95600128173828,46.979000091552734,1768293926,324216109,X6-tool2,2.5971874677193263,0.2381815265151619,44.827767473766265,-0.03787845282181212,-0.015182207683241834,0.04218933353495439,0.06550756841897964
2026-01-13 16:45:26.457503,3.0006797313690186,0.12003177404403687,44.957359313964844,-0.11237089335918427,0.07545831799507141,-0.07932856678962708,47.50400161743164,53.19300079345703,45.56999969482422,60.525001525878906,38.95600128173828,46.979000091552734,1768293926,424299742,X6-tool2,2.60295157060814,0.232697914712264,44.80916752928397,-0.03741281781103391,-0.016000201734828315,0.04200816549508497,0.06990909576416016
2026-01-13 16:45:26.491883,3.0006942749023438,0.11852237582206726,44.95793151855469,-0.1080334335565567,0.07073602825403214,-0.07925571501255035,47.50400161743164,53.198001861572266,45.564998626708984,60.525001525878906,38.95600128173828,46.979000091552734,1768293926,424299742,X6-tool2,2.60295157060814,0.232697914712264,44.80916752928397,-0.03741281781103391,-0.016000201734828315,0.04200816549508497,0.06990909576416016
2026-01-13 16:45:26.526225,2.999553918838501,0.115971639752388,44.95812225341797,-0.1080334335565567,0.07073602825403214,-0.07925571501255035,47.50400161743164,53.20399856567383,45.56999969482422,60.51900100708008,38.95600128173828,46.979000091552734,1768293926,524310313,X6-tool2,2.573173386274312,0.2467928339107679,44.8834857513366,-0.036880487953793284,-0.01536926098208825,0.042034909710363264,0.07010873407125473
2026-01-13 16:45:26.560686,2.999553918838501,0.115971639752388,44.95812225341797,-0.1080334335565567,0.07073602825403214,-0.07925571501255035,47.50400161743164,53.20399856567383,45.564998626708984,60.51900100708008,38.95600128173828,46.979000091552734,1768293926,524310313,X6-tool2,2.573173386274312,0.2467928339107679,44.8834857513366,-0.036880487953793284,-0.01536926098208825,0.042034909710363264,0.07010873407125473
2026-01-13 16:45:26.595189,2.999568223953247,0.11446244269609451,44.95869445800781,-0.1080334335565567,0.07073602825403214,-0.07925571501255035,47.50400161743164,53.20899963378906,45.564998626708984,60.51900100708008,38.95600128173828,46.979000091552734,1768293926,524310313,X6-tool2,2.573173386274312,0.2467928339107679,44.8834857513366,-0.036880487953793284,-0.01536926098208825,0.042034909710363264,0.07010873407125473
2026-01-13 16:45:26.629661,2.9995827674865723,0.1129533052444458,44.959266662597656,-0.10411780327558517,0.06618563830852509,-0.0778685212135315,47.50400161743164,53.2140007019043,45.56999969482422,60.51900100708008,38.95600128173828,46.979000091552734,1768293926,624321994,X6-tool2,2.6194264835340015,0.2568621052277487,44.826206977770255,-0.03693022337234295,-0.016405879519893404,0.04209071730171904,0.06650575250387192
2026-01-13 16:45:26.664059,2.9996001720428467,0.11114241182804108,44.95995330810547,-0.10411780327558517,0.06618563830852509,-0.0778685212135315,47.50400161743164,53.220001220703125,45.564998626708984,60.51900100708008,38.95600128173828,46.979000091552734,1768293926,624321994,X6-tool2,2.6194264835340015,0.2568621052277487,44.826206977770255,-0.03693022337234295,-0.016405879519893404,0.04209071730171904,0.06650575250387192
2026-01-13 16:45:26.698380,2.9996001720428467,0.11114241182804108,44.95995330810547,-0.10411780327558517,0.06618563830852509,-0.0778685212135315,47.50400161743164,53.220001220703125,45.56999969482422,60.51900100708008,38.95600128173828,46.979000091552734,1768293926,624321994,X6-tool2,2.6194264835340015,0.2568621052277487,44.826206977770255,-0.03693022337234295,-0.016405879519893404,0.04209071730171904,0.06650575250387192
2026-01-13 16:45:26.732872,2.9996144771575928,0.10963339358568192,44.96052551269531,-0.10411780327558517,0.06618563830852509,-0.0778685212135315,47.50400161743164,53.224998474121094,45.564998626708984,60.51900100708008,38.95600128173828,46.979000091552734,1768293926,724227871,X6-tool2,2.5869532916473106,0.208769153301306,44.80642601324733,-0.037626700089685314,-0.016017870673356957,0.04201263081134213,0.06660874933004379
2026-01-13 16:45:26.767248,2.999631881713867,0.10782265663146973,44.96120834350586,-0.09940353780984879,0.06307468563318253,-0.07421901822090149,47.50400161743164,53.23099899291992,45.56999969482422,60.51900100708008,38.95600128173828,46.979000091552734,1768293926,724227871,X6-tool2,2.5869532916473106,0.208769153301306,44.80642601324733,-0.037626700089685314,-0.016017870673356957,0.04201263081134213,0.06660874933004379
2026-01-13 16:45:26.801726,2.9996464252471924,0.10631376504898071,44.9617805480957,-0.09940353780984879,0.06307468563318253,-0.07421901822090149,47.50400161743164,53.236000061035156,45.564998626708984,60.51900100708008,38.95600128173828,46.979000091552734,1768293926,724227871,X6-tool2,2.5869532916473106,0.208769153301306,44.80642601324733,-0.037626700089685314,-0.016017870673356957,0.04201263081134213,0.06660874933004379
2026-01-13 16:45:26.836195,2.9996635913848877,0.10450317710638046,44.962467193603516,-0.09940353780984879,0.06307468563318253,-0.07421901822090149,47.50400161743164,53.242000579833984,45.56999969482422,60.51900100708008,38.95600128173828,46.979000091552734,1768293926,824163848,X6-tool2,2.607907724867992,0.22885783469908186,44.81412705258332,-0.03767350010612136,-0.01604665517959397,0.04181647828774853,0.06466865539550781
2026-01-13 16:45:26.870796,2.999695301055908,0.10118396580219269,44.963722229003906,-0.09625167399644852,0.06285543739795685,-0.06849463284015656,47.50400161743164,53.25299835205078,45.56999969482422,60.51900100708008,38.95600128173828,46.979000091552734,1768293926,824163848,X6-tool2,2.607907724867992,0.22885783469908186,44.81412705258332,-0.03767350010612136,-0.01604665517959397,0.04181647828774853,0.06466865539550781
2026-01-13 16:45:26.905328,2.9997270107269287,0.0978650376200676,44.9649772644043,-0.0907365158200264,0.06109120324254036,-0.07052118331193924,47.50400161743164,53.263999938964844,45.564998626708984,60.51900100708008,38.96099853515625,46.979000091552734,1768293926,824163848,X6-tool2,2.607907724867992,0.22885783469908186,44.81412705258332,-0.03767350010612136,-0.01604665517959397,0.04181647828774853,0.06466865539550781
2026-01-13 16:45:26.939823,2.999741554260254,0.09635652601718903,44.965545654296875,-0.0907365158200264,0.06109120324254036,-0.07052118331193924,47.50400161743164,53.26900100708008,45.56999969482422,60.51900100708008,38.96099853515625,46.979000091552734,1768293926,924358906,X6-tool2,2.5970884408136468,0.26607484597786535,44.87741808941967,-0.03640785793961071,-0.015880886477417838,0.041995959847991225,0.06268469244241714
2026-01-13 16:45:26.974283,2.9997904300689697,0.09122801572084427,44.96748352050781,-0.08602943271398544,0.0579763799905777,-0.06686390191316605,47.50400161743164,53.2859992980957,45.56999969482422,60.51900100708008,38.96099853515625,46.979000091552734,1768293926,924358906,X6-tool2,2.5970884408136468,0.26607484597786535,44.87741808941967,-0.03640785793961071,-0.015880886477417838,0.041995959847991225,0.06268469244241714
2026-01-13 16:45:27.008566,2.9998364448547363,0.08640178292989731,44.96930694580078,-0.07994154095649719,0.05394423007965088,-0.062126945704221725,47.50400161743164,53.301998138427734,45.564998626708984,60.51900100708008,38.96099853515625,46.979000091552734,1768293926,924358906,X6-tool2,2.5970884408136468,0.26607484597786535,44.87741808941967,-0.03640785793961071,-0.015880886477417838,0.041995959847991225,0.06268469244241714
2026-01-13 16:45:27.043066,2.9998679161071777,0.08308408409357071,44.97056198120117,-0.07551687955856323,0.051011551171541214,-0.05867818742990494,47.50400161743164,53.3129997253418,45.56999969482422,60.51900100708008,38.96099853515625,46.979000091552734,1768293927,24294674,X6-tool2,2.605088242624151,0.2362570751153233,44.920664118991525,-0.036877370729068326,-0.015768029516725655,0.04179264015302867,0.06283823400735855
2026-01-13 16:45:27.077761,2.999962329864502,0.07313267141580582,44.97431564331055,-0.06639866530895233,0.04495985805988312,-0.05155772715806961,47.50400161743164,53.34600067138672,45.56999969482422,60.51900100708008,38.96099853515625,46.979000091552734,1768293927,24294674,X6-tool2,2.605088242624151,0.2362570751153233,44.920664118991525,-0.036877370729068326,-0.015768029516725655,0.04179264015302867,0.06283823400735855
2026-01-13 16:45:27.112383,3.000042200088501,0.06469101458787918,44.97749710083008,-0.05867026373744011,0.039821807295084,-0.045508477836847305,47.50400161743164,53.374000549316406,45.56999969482422,60.51900100708008,38.96099853515625,46.979000091552734,1768293927,24294674,X6-tool2,2.605088242624151,0.2362570751153233,44.920664118991525,-0.036877370729068326,-0.015768029516725655,0.04179264015302867,0.06283823400735855
2026-01-13 16:45:27.146848,3.000136137008667,0.05474424734711647,44.98124313354492,-0.04957000911235809,0.03376510739326477,-0.038368191570043564,47.50400161743164,53.40700149536133,45.56999969482422,60.51900100708008,38.96099853515625,46.979000091552734,1768293927,124552424,X6-tool2,2.6229934656122422,0.23547861649104332,44.90236840289443,-0.03668999380840947,-0.01618368138994042,0.04185502672843993,0.061085063964128494
2026-01-13 16:45:27.181588,3.0001816749572754,0.04992247745394707,44.98305892944336,-0.045163001865148544,0.03082764707505703,-0.03490058705210686,47.50400161743164,53.42300033569336,45.56999969482422,60.51900100708008,38.96099853515625,46.979000091552734,1768293927,124552424,X6-tool2,2.6229934656122422,0.23547861649104332,44.90236840289443,-0.03668999380840947,-0.01618368138994042,0.04185502672843993,0.061085063964128494
2026-01-13 16:45:27.216778,3.0002920627593994,0.038171906024217606,44.98747634887695,-0.03442872315645218,0.0236635971814394,-0.02644115500152111,47.50400161743164,53.46200180053711,45.56999969482422,60.51900100708008,38.96099853515625,46.979000091552734,1768293927,124552424,X6-tool2,2.6229934656122422,0.23547861649104332,44.90236840289443,-0.03668999380840947,-0.01618368138994042,0.04185502672843993,0.061085063964128494
2026-01-13 16:45:27.251147,3.0004162788391113,0.02491910383105278,44.99245071411133,-0.022334683686494827,0.015575448051095009,-0.016880780458450317,47.50400161743164,53.50600051879883,45.56999969482422,60.51900100708008,38.96099853515625,46.979000091552734,1768293927,224085346,X6-tool2,2.581698366988125,0.24055818553260175,44.93061461204945,-0.036440924737482665,-0.015366433203085596,0.041654170593354266,0.06612619012594223
2026-01-13 16:45:27.285641,3.0004780292510986,0.018294397741556168,44.994937896728516,-0.016295932233333588,0.011530337855219841,-0.012090731412172318,47.50400161743164,53.52799987792969,45.56999969482422,60.51900100708008,38.96099853515625,46.979000091552734,1768293927,224085346,X6-tool2,2.581698366988125,0.24055818553260175,44.93061461204945,-0.036440924737482665,-0.015366433203085596,0.041654170593354266,0.06612619012594223
2026-01-13 16:45:27.320111,3.000570774078369,0.00835946574807167,44.9986572265625,-0.01026085577905178,0.007483473047614098,-0.0072974772192537785,47.50400161743164,53.56100082397461,45.56999969482422,60.51900100708008,38.96099853515625,46.979000091552734,1768293927,224085346,X6-tool2,2.581698366988125,0.24055818553260175,44.93061461204945,-0.036440924737482665,-0.015366433203085596,0.041654170593354266,0.06612619012594223
2026-01-13 16:45:27.354656,3.0006322860717773,0.0017375986790284514,45.001136779785156,-0.004158212803304195,0.005218788981437683,0.0008873767219483852,47.50400161743164,53.58300018310547,45.56999969482422,60.51900100708008,38.96099853515625,46.979000091552734,1768293927,324118107,X6-tool2,2.616515662558647,0.20146117863373772,44.8236946589864,-0.03737018509190209,-0.01639567489028512,0.041609168616046986,0.0573527030646801
2026-01-13 16:45:27.389144,3.0006463527679443,0.0002327876427443698,45.00170135498047,0.0001533684117021039,0.0004908128757961094,0.0009924990590661764,47.50400161743164,53.5880012512207,45.56999969482422,60.51900100708008,38.96099853515625,46.979000091552734,1768293927,324118107,X6-tool2,2.616515662558647,0.20146117863373772,44.8236946589864,-0.03737018509190209,-0.01639567489028512,0.041609168616046986,0.0573527030646801
2026-01-13 16:45:27.425141,2.9996848106384277,-0.00037867651553824544,45.00128936767578,0.0001533684117021039,0.0004908128757961094,0.0009924990590661764,47.50400161743164,53.5880012512207,45.564998626708984,60.513999938964844,38.96099853515625,46.979000091552734,1768293927,324118107,X6-tool2,2.616515662558647,0.20146117863373772,44.8236946589864,-0.03737018509190209,-0.01639567489028512,0.041609168616046986,0.0573527030646801
2026-01-13 16:45:27.460211,2.9996848106384277,-0.00037867651553824544,45.00128936767578,0.0001533684117021039,0.0004908128757961094,0.0009924990590661764,47.50400161743164,53.5880012512207,45.56999969482422,60.513999938964844,38.96099853515625,46.979000091552734,1768293927,424579586,X6-tool2,2.608247673367825,0.2789648307301926,44.884393915705694,-0.03539806261072744,-0.01611992936049237,0.04149411851744467,0.06362184137105942
2026-01-13 16:45:27.494616,2.9996848106384277,-0.00037867651553824544,45.00128936767578,0.0001533684117021039,0.0004908128757961094,0.0009924990590661764,47.50400161743164,53.5880012512207,45.56999969482422,60.513999938964844,38.96099853515625,46.979000091552734,1768293927,424579586,X6-tool2,2.608247673367825,0.2789648307301926,44.884393915705694,-0.03539806261072744,-0.01611992936049237,0.04149411851744467,0.06362184137105942
2026-01-13 16:45:27.529100,2.9996848106384277,-0.00037867651553824544,45.00128936767578,0.0001533684117021039,0.0004908128757961094,0.0009924990590661764,47.50400161743164,53.5880012512207,45.564998626708984,60.513999938964844,38.96099853515625,46.979000091552734,1768293927,524407459,X6-tool2,2.6000711739753366,0.22742840226241795,44.89514101841015,-0.03608804291986412,-0.01599554076404896,0.04162459539567526,0.059356689453125
2026-01-13 16:45:27.563610,2.9996848106384277,-0.00037867651553824544,45.00128936767578,0.0001533684117021039,0.0004908128757961094,0.0009924990590661764,47.50400161743164,53.5880012512207,45.564998626708984,60.513999938964844,38.96099853515625,46.979000091552734,1768293927,524407459,X6-tool2,2.6000711739753366,0.22742840226241795,44.89514101841015,-0.03608804291986412,-0.01599554076404896,0.04162459539567526,0.059356689453125
2026-01-13 16:45:27.598118,2.9996848106384277,-0.00037867651553824544,45.00128936767578,0.0001533684117021039,0.0004908128757961094,0.0009924990590661764,47.50400161743164,53.5880012512207,45.56999969482422,60.513999938964844,38.96099853515625,46.979000091552734,1768293927,524407459,X6-tool2,2.6000711739753366,0.22742840226241795,44.89514101841015,-0.03608804291986412,-0.01599554076404896,0.04162459539567526,0.059356689453125
2026-01-13 16:45:27.632703,2.9996848106384277,-0.00037867651553824544,45.00128936767578,0.0001533684117021039,0.0004908128757961094,0.0009924990590661764,47.50400161743164,53.5880012512207,45.56999969482422,60.513999938964844,38.96099853515625,46.979000091552734,1768293927,624148149,X6-tool2,2.597078992875034,0.22761550430382663,44.88760994843646,-0.03648292232546307,-0.015849106013791466,0.04165644329683722,0.060238201171159744
2026-01-13 16:45:27.667457,2.9996848106384277,-0.00037867651553824544,45.00128936767578,0.0001533684117021039,0.0004908128757961094,0.0009924990590661764,47.50400161743164,53.5880012512207,45.564998626708984,60.513999938964844,38.96099853515625,46.979000091552734,1768293927,624148149,X6-tool2,2.597078992875034,0.22761550430382663,44.88760994843646,-0.03648292232546307,-0.015849106013791466,0.04165644329683722,0.060238201171159744
2026-01-13 16:45:27.701913,2.9996848106384277,-0.00037867651553824544,45.00128936767578,0.0001533684117021039,0.0004908128757961094,0.0009924990590661764,47.50400161743164,53.5880012512207,45.56999969482422,60.513999938964844,38.96099853515625,46.979000091552734,1768293927,624148149,X6-tool2,2.597078992875034,0.22761550430382663,44.88760994843646,-0.03648292232546307,-0.015849106013791466,0.04165644329683722,0.060238201171159744
2026-01-13 16:45:27.736225,2.9996848106384277,-0.00037867651553824544,45.00128936767578,0.0001533684117021039,0.0004908128757961094,0.0009924990590661764,47.50400161743164,53.5880012512207,45.56999969482422,60.513999938964844,38.96099853515625,46.979000091552734,1768293927,724050865,X6-tool2,2.597286564005843,0.18786015314234397,44.902688649454156,-0.03685868197441974,-0.015950287553225282,0.041660620539790395,0.062267303466796875
2026-01-13 16:45:27.770713,2.9996848106384277,-0.00037867651553824544,45.00128936767578,0.0001533684117021039,0.0004908128757961094,0.0009924990590661764,47.50400161743164,53.5880012512207,45.56999969482422,60.513999938964844,38.96099853515625,46.979000091552734,1768293927,724050865,X6-tool2,2.597286564005843,0.18786015314234397,44.902688649454156,-0.03685868197441974,-0.015950287553225282,0.041660620539790395,0.062267303466796875
2026-01-13 16:45:27.805041,2.9996848106384277,-0.00037867651553824544,45.00128936767578,0.0001533684117021039,0.0004908128757961094,0.0009924990590661764,47.50400161743164,53.5880012512207,45.564998626708984,60.513999938964844,38.96099853515625,46.979000091552734,1768293927,724050865,X6-tool2,2.597286564005843,0.18786015314234397,44.902688649454156,-0.03685868197441974,-0.015950287553225282,0.041660620539790395,0.062267303466796875
2026-01-13 16:45:27.839493,2.9996848106384277,-0.00037867651553824544,45.00128936767578,0.0001533684117021039,0.0004908128757961094,0.0009924990590661764,47.50400161743164,53.5880012512207,45.56999969482422,60.513999938964844,38.96099853515625,46.979000091552734,1768293927,824068626,X6-tool2,2.6153633912629606,0.18659623155844493,44.84370587634245,-0.03727280693570397,-0.01643638471266352,0.04165797120731294,0.060272216796875
2026-01-13 16:45:27.873932,2.9996848106384277,-0.00037867651553824544,45.00128936767578,0.0001533684117021039,0.0004908128757961094,0.0009924990590661764,47.50400161743164,53.5880012512207,45.56999969482422,60.513999938964844,38.96099853515625,46.979000091552734,1768293927,824068626,X6-tool2,2.6153633912629606,0.18659623155844493,44.84370587634245,-0.03727280693570397,-0.01643638471266352,0.04165797120731294,0.060272216796875
2026-01-13 16:45:27.908342,2.9996848106384277,-0.00037867651553824544,45.00128936767578,0.0001533684117021039,0.0004908128757961094,0.0009924990590661764,47.50400161743164,53.5880012512207,45.564998626708984,60.513999938964844,38.96099853515625,46.979000091552734,1768293927,824068626,X6-tool2,2.6153633912629606,0.18659623155844493,44.84370587634245,-0.03727280693570397,-0.01643638471266352,0.04165797120731294,0.060272216796875
2026-01-13 16:45:27.942672,2.9996848106384277,-0.00037867651553824544,45.00128936767578,0.0001533684117021039,0.0004908128757961094,0.0009924990590661764,47.50400161743164,53.5880012512207,45.56999969482422,60.513999938964844,38.96099853515625,46.979000091552734,1768293927,924166040,X6-tool2,2.6222033161930227,0.2494542949762825,44.84412990942686,-0.035997451343586714,-0.016535313623913674,0.04154793175800816,0.06028715893626213
2026-01-13 16:45:27.977508,2.9996848106384277,-0.00037867651553824544,45.00128936767578,0.0001533684117021039,0.0004908128757961094,0.0009924990590661764,47.50400161743164,53.5880012512207,45.56999969482422,60.513999938964844,38.96099853515625,46.979000091552734,1768293927,924166040,X6-tool2,2.6222033161930227,0.2494542949762825,44.84412990942686,-0.035997451343586714,-0.016535313623913674,0.04154793175800816,0.06028715893626213
2026-01-13 16:45:28.011916,2.9996848106384277,-0.00037867651553824544,45.00128936767578,0.0001533684117021039,0.0004908128757961094,0.0009924990590661764,47.50400161743164,53.5880012512207,45.564998626708984,60.513999938964844,38.96099853515625,46.979000091552734,1768293927,924166040,X6-tool2,2.6222033161930227,0.2494542949762825,44.84412990942686,-0.035997451343586714,-0.016535313623913674,0.04154793175800816,0.06028715893626213
2026-01-13 16:45:28.046295,2.9996848106384277,-0.00037867651553824544,45.00128936767578,0.0001533684117021039,0.0004908128757961094,0.0009924990590661764,47.50400161743164,53.5880012512207,45.56999969482422,60.513999938964844,38.96099853515625,46.979000091552734,1768293928,24269184,X6-tool2,2.59768115196214,0.24751076055868645,44.936912840881256,-0.035662658830388536,-0.015925736093081982,0.04145850340920924,0.062320392578840256
2026-01-13 16:45:28.080790,2.9996848106384277,-0.00037867651553824544,45.00128936767578,0.0001533684117021039,0.0004908128757961094,0.0009924990590661764,47.50400161743164,53.5880012512207,45.56999969482422,60.513999938964844,38.96099853515625,46.979000091552734,1768293928,24269184,X6-tool2,2.59768115196214,0.24751076055868645,44.936912840881256,-0.035662658830388536,-0.015925736093081982,0.04145850340920924,0.062320392578840256
2026-01-13 16:45:28.115275,2.9996848106384277,-0.00037867651553824544,45.00128936767578,0.0001533684117021039,0.0004908128757961094,0.0009924990590661764,47.50400161743164,53.5880012512207,45.564998626708984,60.513999938964844,38.96099853515625,46.979000091552734,1768293928,24269184,X6-tool2,2.59768115196214,0.24751076055868645,44.936912840881256,-0.035662658830388536,-0.015925736093081982,0.04145850340920924,0.062320392578840256
2026-01-13 16:45:28.149752,2.9996848106384277,-0.00037867651553824544,45.00128936767578,0.0001533684117021039,0.0004908128757961094,0.0009924990590661764,47.50400161743164,53.5880012512207,45.56999969482422,60.513999938964844,38.96099853515625,46.979000091552734,1768293928,132103522,X6-tool2,2.6344987264553765,0.2446791100178421,44.8802869800045,-0.03590364948732864,-0.016848521524449635,0.041720727703816345,0.06444963067770004
2026-01-13 16:45:28.184293,2.9996848106384277,-0.00037867651553824544,45.00128936767578,0.0001533684117021039,0.0004908128757961094,0.0009924990590661764,47.50400161743164,53.5880012512207,45.56999969482422,60.513999938964844,38.96099853515625,46.979000091552734,1768293928,132103522,X6-tool2,2.6344987264553765,0.2446791100178421,44.8802869800045,-0.03590364948732864,-0.016848521524449635,0.041720727703816345,0.06444963067770004
2026-01-13 16:45:28.218667,2.9996848106384277,-0.00037867651553824544,45.00128936767578,0.0001533684117021039,0.0004908128757961094,0.0009924990590661764,47.50400161743164,53.5880012512207,45.564998626708984,60.513999938964844,38.96099853515625,46.979000091552734,1768293928,132103522,X6-tool2,2.6344987264553765,0.2446791100178421,44.8802869800045,-0.03590364948732864,-0.016848521524449635,0.041720727703816345,0.06444963067770004
2026-01-13 16:45:28.253260,2.9996848106384277,-0.00037867651553824544,45.00128936767578,0.0001533684117021039,0.0004908128757961094,0.0009924990590661764,47.50400161743164,53.5880012512207,45.56999969482422,60.513999938964844,38.96099853515625,46.979000091552734,1768293928,231615832,X6-tool2,2.647414662349251,0.19154531766965605,44.88399749897764,-0.03690639362154995,-0.016977980152170072,0.04181934881278047,0.05881531909108162
2026-01-13 16:45:28.287616,2.9996848106384277,-0.00037867651553824544,45.00128936767578,0.0001533684117021039,0.0004908128757961094,0.0009924990590661764,47.50400161743164,53.5880012512207,45.56999969482422,60.513999938964844,38.96099853515625,46.979000091552734,1768293928,231615832,X6-tool2,2.647414662349251,0.19154531766965605,44.88399749897764,-0.03690639362154995,-0.016977980152170072,0.04181934881278047,0.05881531909108162
2026-01-13 16:45:28.322056,2.9996848106384277,-0.00037867651553824544,45.00128936767578,0.0001533684117021039,0.0004908128757961094,0.0009924990590661764,47.50400161743164,53.5880012512207,45.564998626708984,60.513999938964844,38.96099853515625,46.979000091552734,1768293928,231615832,X6-tool2,2.647414662349251,0.19154531766965605,44.88399749897764,-0.03690639362154995,-0.016977980152170072,0.04181934881278047,0.05881531909108162
2026-01-13 16:45:28.356418,2.9996848106384277,-0.00037867651553824544,45.00128936767578,0.0001533684117021039,0.0004908128757961094,0.0009924990590661764,47.50400161743164,53.5880012512207,45.56999969482422,60.513999938964844,38.96099853515625,46.979000091552734,1768293928,330934386,X6-tool2,2.595004542324333,0.19538818620568213,44.84099629657109,-0.03688512526038404,-0.016153703854935003,0.041716471936712005,0.06388410180807114
2026-01-13 16:45:28.390963,2.9996848106384277,-0.00037867651553824544,45.00128936767578,0.0001533684117021039,0.0004908128757961094,0.0009924990590661764,47.50400161743164,53.5880012512207,45.56999969482422,60.513999938964844,38.96099853515625,46.979000091552734,1768293928,330934386,X6-tool2,2.595004542324333,0.19538818620568213,44.84099629657109,-0.03688512526038404,-0.016153703854935003,0.041716471936712005,0.06388410180807114
2026-01-13 16:45:28.425389,2.9996848106384277,-0.00037867651553824544,45.00128936767578,0.0001533684117021039,0.0004908128757961094,0.0009924990590661764,47.50400161743164,53.5880012512207,45.56999969482422,60.513999938964844,38.96099853515625,46.979000091552734,1768293928,330934386,X6-tool2,2.595004542324333,0.19538818620568213,44.84099629657109,-0.03688512526038404,-0.016153703854935003,0.041716471936712005,0.06388410180807114
2026-01-13 16:45:28.460020,2.9996848106384277,-0.00037867651553824544,45.00128936767578,0.0001533684117021039,0.0004908128757961094,0.0009924990590661764,47.50400161743164,53.5880012512207,45.56999969482422,60.513999938964844,38.96099853515625,46.979000091552734,1768293928,430583132,X6-tool2,2.605545158229902,0.23523587133012258,44.86615613975694,-0.03647510679442673,-0.016198685126712097,0.041483953153505636,0.0601806640625
2026-01-13 16:45:28.495292,2.9996848106384277,-0.00037867651553824544,45.00128936767578,0.0001533684117021039,0.0004908128757961094,0.0009924990590661764,47.50400161743164,53.5880012512207,45.56999969482422,60.513999938964844,38.96099853515625,46.979000091552734,1768293928,430583132,X6-tool2,2.605545158229902,0.23523587133012258,44.86615613975694,-0.03647510679442673,-0.016198685126712097,0.041483953153505636,0.0601806640625
2026-01-13 16:45:28.529879,2.9996848106384277,-0.00037867651553824544,45.00128936767578,0.0001533684117021039,0.0004908128757961094,0.0009924990590661764,47.50400161743164,53.5880012512207,45.56999969482422,60.513999938964844,38.96099853515625,46.979000091552734,1768293928,430583132,X6-tool2,2.605545158229902,0.23523587133012258,44.86615613975694,-0.03647510679442673,-0.016198685126712097,0.041483953153505636,0.0601806640625
2026-01-13 16:45:28.564654,2.9996848106384277,-0.00037867651553824544,45.00128936767578,0.0001533684117021039,0.0004908128757961094,0.0009924990590661764,47.50400161743164,53.5880012512207,45.564998626708984,60.513999938964844,38.96099853515625,46.979000091552734,1768293928,530171876,X6-tool2,2.625808859156387,0.204165213865196,44.88958051472133,-0.03641092864923452,-0.016643593938687442,0.041765476823135125,0.061084430664777756
2026-01-13 16:45:28.598967,2.9996848106384277,-0.00037867651553824544,45.00128936767578,0.0001533684117021039,0.0004908128757961094,0.0009924990590661764,47.50400161743164,53.5880012512207,45.56999969482422,60.513999938964844,38.96099853515625,46.979000091552734,1768293928,530171876,X6-tool2,2.625808859156387,0.204165213865196,44.88958051472133,-0.03641092864923452,-0.016643593938687442,0.041765476823135125,0.061084430664777756
2026-01-13 16:45:28.633360,3.006159782409668,0.05832010135054588,44.98955535888672,0.0153964227065444,-0.009558613412082195,-0.029994256794452667,47.40999984741211,53.42300033569336,45.65800094604492,60.569000244140625,38.96099853515625,46.994998931884766,1768293928,629178927,X6-tool2,2.6235244945993883,0.2286417308854412,44.90360333785452,-0.03675250039878464,-0.016108432388421294,0.04151040416132571,0.06174977496266365
2026-01-13 16:45:28.667658,3.010436773300171,0.16492757201194763,44.975914001464844,0.0379127636551857,-0.024509141221642494,-0.05003252997994423,47.222999572753906,53.143001556396484,45.79499816894531,60.67300033569336,38.96099853515625,47.06100082397461,1768293928,629178927,X6-tool2,2.6235244945993883,0.2286417308854412,44.90360333785452,-0.03675250039878464,-0.016108432388421294,0.04151040416132571,0.06174977496266365
2026-01-13 16:45:28.702172,3.0122368335723877,0.21420438587665558,44.968441009521484,0.061017222702503204,-0.04506012424826622,-0.0682658851146698,47.11899948120117,53.01100158691406,45.882999420166016,60.71699905395508,38.96099853515625,47.0890007019043,1768293928,629178927,X6-tool2,2.6235244945993883,0.2286417308854412,44.90360333785452,-0.03675250039878464,-0.016108432388421294,0.04151040416132571,0.06174977496266365
2026-01-13 16:45:28.736695,2.9939842224121094,0.34341534972190857,44.95743179321289,0.04093838483095169,-0.04362943395972252,-0.057477034628391266,46.90999984741211,52.68199920654297,45.97100067138672,60.79399871826172,38.97200012207031,47.231998443603516,1768293928,729034582,X6-tool2,2.5058061798126716,0.45398575152495063,44.860653362045454,-0.03763659900122069,-0.014772371731950578,0.04416223616712824,0.08018270879983902
2026-01-13 16:45:28.771478,2.9869384765625,0.4638514220714569,44.942779541015625,0.05663600564002991,-0.030347082763910294,-0.043110452592372894,46.65800094604492,52.36899948120117,46.058998107910156,60.88199996948242,38.98899841308594,47.33599853515625,1768293928,729034582,X6-tool2,2.5058061798126716,0.45398575152495063,44.860653362045454,-0.03763659900122069,-0.014772371731950578,0.04416223616712824,0.08018270879983902
2026-01-13 16:45:28.805950,2.9638912677764893,0.5304285883903503,44.94167709350586,0.04543253406882286,-0.05287462845444679,-0.026062795892357826,46.5260009765625,52.20899963378906,46.11399841308594,60.89799880981445,38.99399948120117,47.45100021362305,1768293928,729034582,X6-tool2,2.5058061798126716,0.45398575152495063,44.860653362045454,-0.03763659900122069,-0.014772371731950578,0.04416223616712824,0.08018270879983902
2026-01-13 16:45:28.840360,2.942861795425415,0.6618559956550598,44.914283752441406,0.0238998681306839,-0.040010083466768265,-0.06000446155667305,46.31100082397461,51.83599853515625,46.207000732421875,60.91999816894531,39.027000427246094,47.56100082397461,1768293928,828318834,X6-tool2,2.5720715613689635,0.6933156186063933,44.85572711185426,-0.04184863192766077,-0.016396991945993068,0.047813211424103164,0.0681600570678711
2026-01-13 16:45:28.874918,2.912325143814087,0.7932279109954834,44.89322280883789,-0.0026928740553557873,-0.0531802698969841,-0.07496614009141922,46.08599853515625,51.479000091552734,46.3120002746582,60.9370002746582,39.04899978637695,47.709999084472656,1768293928,828318834,X6-tool2,2.5720715613689635,0.6933156186063933,44.85572711185426,-0.04184863192766077,-0.016396991945993068,0.047813211424103164,0.0681600570678711
2026-01-13 16:45:28.909358,2.873939037322998,0.9049466252326965,44.88294219970703,-0.00492479931563139,-0.03933587670326233,-0.03732182830572128,45.805999755859375,51.19300079345703,46.349998474121094,60.94200134277344,39.09299850463867,47.8849983215332,1768293928,828318834,X6-tool2,2.5720715613689635,0.6933156186063933,44.85572711185426,-0.04184863192766077,-0.016396991945993068,0.047813211424103164,0.0681600570678711
2026-01-13 16:45:28.943932,2.8577842712402344,0.9531641006469727,44.87731170654297,-0.00492479931563139,-0.03933587670326233,-0.03732182830572128,45.691001892089844,51.06700134277344,46.388999938964844,60.94200134277344,39.1150016784668,47.957000732421875,1768293928,928037833,X6-tool2,2.543819928003476,0.9618239536745463,44.905078635782985,-0.04363655884707138,-0.016840738669454524,0.04996651702017216,0.06240018084645271
2026-01-13 16:45:28.978576,2.8100979328155518,1.0559293031692505,44.876766204833984,0.001972431782633066,-0.04390682652592659,-0.013348650187253952,45.4379997253418,50.82500076293945,46.465999603271484,60.94200134277344,39.19200134277344,48.17100143432617,1768293928,928037833,X6-tool2,2.543819928003476,0.9618239536745463,44.905078635782985,-0.04363655884707138,-0.016840738669454524,0.04996651702017216,0.06240018084645271
2026-01-13 16:45:29.013023,2.7664356231689453,1.1750763654708862,44.86366271972656,0.002297522034496069,-0.015629127621650696,-0.026024239137768745,45.18000030517578,50.516998291015625,46.54800033569336,60.9370002746582,39.29600143432617,48.362998962402344,1768293928,928037833,X6-tool2,2.543819928003476,0.9618239536745463,44.905078635782985,-0.04363655884707138,-0.016840738669454524,0.04996651702017216,0.06240018084645271
2026-01-13 16:45:29.047476,2.715616226196289,1.3086260557174683,44.848201751708984,0.006629005540162325,0.03912939131259918,-0.03788388893008232,44.87799835205078,50.17100143432617,46.61899948120117,60.92599868774414,39.433998107910156,48.58300018310547,1768293929,27293983,X6-tool2,2.4589856279724276,1.257470581215982,44.85463810725528,-0.04373460460612412,-0.017083687746997433,0.04894078832260196,0.0656026229262352
2026-01-13 16:45:29.082237,2.6891348361968994,1.3600389957427979,44.847599029541016,0.01645689830183983,0.04994582384824753,-0.03197464346885681,44.7400016784668,50.04999923706055,46.65800094604492,60.91999816894531,39.49399948120117,48.698001861572266,1768293929,27293983,X6-tool2,2.4589856279724276,1.257470581215982,44.85463810725528,-0.04373460460612412,-0.017083687746997433,0.04894078832260196,0.0656026229262352
2026-01-13 16:45:29.116702,2.632960081100464,1.471001148223877,44.83864974975586,0.013989950530230999,0.03775981068611145,-0.008742394857108593,44.45500183105469,49.77000045776367,46.7400016784668,60.887001037597656,39.560001373291016,48.92399978637695,1768293929,27293983,X6-tool2,2.4589856279724276,1.257470581215982,44.85463810725528,-0.04373460460612412,-0.017083687746997433,0.04894078832260196,0.0656026229262352
2026-01-13 16:45:29.151087,2.5683693885803223,1.5753432512283325,44.8272819519043,0.027093559503555298,0.04388318210840225,-0.002259955508634448,44.14699935913086,49.49599838256836,46.8120002746582,60.816001892089844,39.66400146484375,49.15399932861328,1768293929,127000832,X6-tool2,2.353224991900794,1.5383872587680112,44.80693027425864,-0.04457674237845872,-0.015818394950575246,0.048666006569117584,0.06424331665039062
2026-01-13 16:45:29.185658,2.5422143936157227,1.6226069927215576,44.820472717285156,0.034500475972890854,0.06109444424510002,-0.002245640615001321,44.0099983215332,49.36899948120117,46.83399963378906,60.78799819946289,39.71900177001953,49.24800109863281,1768293929,127000832,X6-tool2,2.353224991900794,1.5383872587680112,44.80693027425864,-0.04457674237845872,-0.015818394950575246,0.048666006569117584,0.06424331665039062
2026-01-13 16:45:29.220023,2.4684698581695557,1.7338924407958984,44.800384521484375,0.00940723903477192,0.06771861761808395,-0.027620891109108925,43.75199890136719,49.055999755859375,46.904998779296875,60.678001403808594,39.82899856567383,49.48400115966797,1768293929,127000832,X6-tool2,2.353224991900794,1.5383872587680112,44.80693027425864,-0.04457674237845872,-0.015818394950575246,0.048666006569117584,0.06424331665039062
2026-01-13 16:45:29.254459,2.400653600692749,1.835574984550476,44.783912658691406,-0.00312057719565928,0.06793393194675446,-0.026676714420318604,43.483001708984375,48.7760009765625,46.965999603271484,60.584999084472656,39.91699981689453,49.70899963378906,1768293929,226172040,X6-tool2,2.2512933918161155,1.8390353339596603,44.7679053317143,-0.04493926023779137,-0.0148854451139863,0.04640173829833043,0.07003911584615707
2026-01-13 16:45:29.288939,2.325920343399048,1.923722505569458,44.77167510986328,-0.010640689171850681,0.05390177294611931,-0.008844185620546341,43.20800018310547,48.534000396728516,47.01499938964844,60.470001220703125,39.99399948120117,49.94499969482422,1768293929,226172040,X6-tool2,2.2512933918161155,1.8390353339596603,44.7679053317143,-0.04493926023779137,-0.0148854451139863,0.04640173829833043,0.07003911584615707
2026-01-13 16:45:29.323267,2.292921781539917,1.965194821357727,44.765079498291016,-0.017367059364914894,0.05403289571404457,-0.018065515905618668,43.10300064086914,48.41899871826172,47.04800033569336,60.41999816894531,40.04399871826172,50.04999923706055,1768293929,226172040,X6-tool2,2.2512933918161155,1.8390353339596603,44.7679053317143,-0.04493926023779137,-0.0148854451139863,0.04640173829833043,0.07003911584615707
2026-01-13 16:45:29.357623,2.205238103866577,2.0401322841644287,44.756195068359375,0.004660880193114281,0.03404906019568443,-0.0037370100617408752,42.790000915527344,48.209999084472656,47.108001708984375,60.26599884033203,40.14799880981445,50.30799865722656,1768293929,325710702,X6-tool2,2.093840474869066,1.9482091556452283,44.69570321420526,-0.04670180814728745,-0.014525220127734405,0.04441279979224432,0.07053375244140625
2026-01-13 16:45:29.392102,2.107250928878784,2.1154730319976807,44.74448013305664,0.0061736879870295525,0.01092158816754818,-0.023086288943886757,42.520999908447266,47.9900016784668,47.185001373291016,60.08000183105469,40.27399826049805,50.582000732421875,1768293929,325710702,X6-tool2,2.093840474869066,1.9482091556452283,44.69570321420526,-0.04670180814728745,-0.014525220127734405,0.04441279979224432,0.07053375244140625
2026-01-13 16:45:29.426455,2.019185781478882,2.1989800930023193,44.731475830078125,0.029939476400613785,0.0036110440269112587,-0.015345803461968899,42.20800018310547,47.75400161743164,47.250999450683594,59.930999755859375,40.39500045776367,50.84600067138672,1768293929,425148330,X6-tool2,1.945954530293105,2.305538747486299,44.69364766988584,-0.042849686479487725,-0.014342025409665338,0.04297768873065821,0.06488704681396484
2026-01-13 16:45:29.460918,1.9688308238983154,2.2467713356018066,44.718963623046875,0.01542237401008606,0.003256426192820072,-0.028678162023425102,42.064998626708984,47.60599899291992,47.27899932861328,59.832000732421875,40.45500183105469,50.983001708984375,1768293929,425148330,X6-tool2,1.945954530293105,2.305538747486299,44.69364766988584,-0.042849686479487725,-0.014342025409665338,0.04297768873065821,0.06488704681396484
2026-01-13 16:45:29.495296,1.8632490634918213,2.326716899871826,44.704856872558594,0.0047570220194756985,-0.02457849681377411,-0.03429749235510826,41.79100036621094,47.369998931884766,47.349998474121094,59.6349983215332,40.57099914550781,51.279998779296875,1768293929,425148330,X6-tool2,1.945954530293105,2.305538747486299,44.69364766988584,-0.042849686479487725,-0.014342025409665338,0.04297768873065821,0.06488704681396484
2026-01-13 16:45:29.529698,1.772780179977417,2.419649839401245,44.690208435058594,-0.020675543695688248,-0.02284388430416584,-0.030622215941548347,41.542999267578125,47.11199951171875,47.404998779296875,59.49700164794922,40.68600082397461,51.566001892089844,1768293929,524687882,X6-tool2,1.686166761521946,2.4587614467387313,44.68379421440067,-0.042594292524299984,-0.013975955348372603,0.041053020280114816,0.07587369531393051
2026-01-13 16:45:29.564554,1.722285509109497,2.453296184539795,44.686763763427734,-0.01221222709864378,-0.017365064471960068,-0.029874417930841446,41.40599822998047,47.018001556396484,47.426998138427734,59.409000396728516,40.76300048828125,51.7140007019043,1768293929,524687882,X6-tool2,1.686166761521946,2.4587614467387313,44.68379421440067,-0.042594292524299984,-0.013975955348372603,0.041053020280114816,0.07587369531393051
2026-01-13 16:45:29.599235,1.616402506828308,2.5217583179473877,44.675445556640625,0.01289533544331789,0.007879111915826797,-0.041176650673151016,41.1150016784668,46.814998626708984,47.46500015258789,59.21200180053711,40.93899917602539,52.01100158691406,1768293929,524687882,X6-tool2,1.686166761521946,2.4587614467387313,44.68379421440067,-0.042594292524299984,-0.013975955348372603,0.041053020280114816,0.07587369531393051
2026-01-13 16:45:29.633607,1.5158493518829346,2.581618547439575,44.656558990478516,0.010789019986987114,0.009136535227298737,-0.06503130495548248,40.87900161743164,46.61199951171875,47.49800109863281,58.99700164794922,41.07099914550781,52.26300048828125,1768293929,624021386,X6-tool2,1.4557839220170308,2.602275062714843,44.6104293770412,-0.0430978788254946,-0.014997030400772013,0.04023133124604731,0.07075849920511246
2026-01-13 16:45:29.668258,1.406774640083313,2.6286535263061523,44.644840240478516,0.00729542039334774,-0.004993698094040155,-0.07496190816164017,40.659000396728516,46.45199966430664,47.5260009765625,58.766998291015625,41.196998596191406,52.53799819946289,1768293929,624021386,X6-tool2,1.4557839220170308,2.602275062714843,44.6104293770412,-0.0430978788254946,-0.014997030400772013,0.04023133124604731,0.07075849920511246
2026-01-13 16:45:29.702705,1.355692744255066,2.6534078121185303,44.636775970458984,-0.002802827162668109,-0.014757832512259483,-0.07940857857465744,40.560001373291016,46.3650016784668,47.5369987487793,58.65700149536133,41.24700164794922,52.66400146484375,1768293929,624021386,X6-tool2,1.4557839220170308,2.602275062714843,44.6104293770412,-0.0430978788254946,-0.014997030400772013,0.04023133124604731,0.07075849920511246
2026-01-13 16:45:29.737102,1.2425087690353394,2.7144827842712402,44.61918258666992,-0.010055867955088615,-0.021575121209025383,-0.07320249080657959,40.301998138427734,46.1609992980957,47.553001403808594,58.42599868774414,41.367000579833984,52.95600128173828,1768293929,724300237,X6-tool2,1.2264732945460377,2.894579822216921,44.62032872640456,-0.040057017252282855,-0.015783993324291683,0.03871763143735509,0.06696923822164536
2026-01-13 16:45:29.771690,1.1486780643463135,2.765763759613037,44.60866165161133,-0.021484851837158203,-0.0053121112287044525,-0.08085982501506805,40.12099838256836,46.00199890136719,47.56399917602539,58.25,41.499000549316406,53.2140007019043,1768293929,724300237,X6-tool2,1.2264732945460377,2.894579822216921,44.62032872640456,-0.040057017252282855,-0.015783993324291683,0.03871763143735509,0.06696923822164536
2026-01-13 16:45:29.806030,1.0880687236785889,2.7842307090759277,44.606712341308594,-0.014003262855112553,-0.012905590236186981,-0.06315818428993225,39.99399948120117,45.94200134277344,47.56399917602539,58.130001068115234,41.560001373291016,53.37300109863281,1768293929,724300237,X6-tool2,1.2264732945460377,2.894579822216921,44.62032872640456,-0.040057017252282855,-0.015783993324291683,0.03871763143735509,0.06696923822164536
2026-01-13 16:45:29.840962,0.9831002354621887,2.8318276405334473,44.59797668457031,0.010159280151128769,-0.0031208693981170654,-0.032168932259082794,39.73099899291992,45.792999267578125,47.56399917602539,57.93199920654297,41.68600082397461,53.659000396728516,1768293929,824007806,X6-tool2,0.8940938081471913,3.094895001042047,44.6391379642963,-0.03804449220696127,-0.0141647741557898,0.03811232942155938,0.06240876391530037
2026-01-13 16:45:29.875399,0.875713050365448,2.870537042617798,44.593013763427734,0.02869603782892227,0.00038752422551624477,-0.003349500708281994,39.5,45.672000885009766,47.56399917602539,57.729000091552734,41.8120002746582,53.95000076293945,1768293929,824007806,X6-tool2,0.8940938081471913,3.094895001042047,44.6391379642963,-0.03804449220696127,-0.0141647741557898,0.03811232942155938,0.06240876391530037
2026-01-13 16:45:29.909735,0.7398895621299744,2.8915915489196777,44.57950973510742,0.03679495304822922,-0.005977817811071873,-0.02819926105439663,39.301998138427734,45.55699920654297,47.558998107910156,57.415000915527344,41.97700119018555,54.25199890136719,1768293929,824007806,X6-tool2,0.8940938081471913,3.094895001042047,44.6391379642963,-0.03804449220696127,-0.0141647741557898,0.03811232942155938,0.06240876391530037
2026-01-13 16:45:29.944070,0.6819438338279724,2.9010307788848877,44.57585525512695,0.04064381122589111,-0.008053976111114025,-0.03415706753730774,39.220001220703125,45.51300048828125,47.558998107910156,57.28900146484375,42.04899978637695,54.388999938964844,1768293929,924008985,X6-tool2,0.5922385721433294,3.1048849540009242,44.583938738017835,-0.04039446661828568,-0.013349440193539215,0.037619670860550694,0.060677528381347656
2026-01-13 16:45:29.978615,0.558779239654541,2.9235787391662598,44.55751037597656,0.0371592678129673,-0.029326200485229492,-0.04289614036679268,39.03300094604492,45.387001037597656,47.54800033569336,56.99800109863281,42.16400146484375,54.65299987792969,1768293929,924008985,X6-tool2,0.5922385721433294,3.1048849540009242,44.583938738017835,-0.04039446661828568,-0.013349440193539215,0.037619670860550694,0.060677528381347656
2026-01-13 16:45:30.013392,0.43735650181770325,2.933336019515991,44.54322052001953,0.04594321548938751,-0.04207833856344223,-0.06582421809434891,38.874000549316406,45.29899978637695,47.5369987487793,56.707000732421875,42.30099868774414,54.90599822998047,1768293929,924008985,X6-tool2,0.5922385721433294,3.1048849540009242,44.583938738017835,-0.04039446661828568,-0.013349440193539215,0.037619670860550694,0.060677528381347656
2026-01-13 16:45:30.048137,0.32330086827278137,2.9541711807250977,44.52581024169922,0.047465287148952484,-0.012384528294205666,-0.11139439046382904,38.736000061035156,45.18299865722656,47.50899887084961,56.44300079345703,42.47700119018555,55.15299987792969,1768293930,23977744,X6-tool2,0.36082129293146753,3.225213520140082,44.637832231330464,-0.039579562319453455,-0.015056327657875825,0.03775377224808949,0.06652132421731949
2026-01-13 16:45:30.082560,0.2678644359111786,2.95914888381958,44.51835250854492,0.047465287148952484,-0.012384528294205666,-0.11139439046382904,38.665000915527344,45.13999938964844,47.48699951171875,56.31100082397461,42.53200149536133,55.268001556396484,1768293930,23977744,X6-tool2,0.36082129293146753,3.225213520140082,44.637832231330464,-0.039579562319453455,-0.015056327657875825,0.03775377224808949,0.06652132421731949
2026-01-13 16:45:30.117093,0.14199772477149963,2.9743521213531494,44.51177978515625,0.03003678470849991,-0.022900499403476715,-0.08015518635511398,38.51100158691406,45.0629997253418,47.426998138427734,56.04800033569336,42.641998291015625,55.56999969482422,1768293930,23977744,X6-tool2,0.36082129293146753,3.225213520140082,44.637832231330464,-0.039579562319453455,-0.015056327657875825,0.03775377224808949,0.06652132421731949
2026-01-13 16:45:30.152054,0.026119457557797432,2.975367546081543,44.49738311767578,0.0575249046087265,-0.013568100519478321,-0.0708542913198471,38.334999084472656,44.99700164794922,47.35599899291992,55.766998291015625,42.768001556396484,55.80099868774414,1768293930,124255455,X6-tool2,0.09268262724433575,3.1991994303923295,44.53989323574425,-0.0419660957514565,-0.016651284145419245,0.037034684430549636,0.07123661041259766
2026-01-13 16:45:30.186850,-0.09804431349039078,2.972748279571533,44.48868942260742,0.05996040999889374,-0.006697588600218296,-0.06500336527824402,38.20899963378906,44.952999114990234,47.27899932861328,55.481998443603516,42.904998779296875,56.064998626708984,1768293930,124255455,X6-tool2,0.09268262724433575,3.1991994303923295,44.53989323574425,-0.0419660957514565,-0.016651284145419245,0.037034684430549636,0.07123661041259766
2026-01-13 16:45:30.221445,-0.161851704120636,2.9688632488250732,44.482357025146484,0.044337522238492966,-0.008183536119759083,-0.04275710880756378,38.14899826049805,44.930999755859375,47.20199966430664,55.327999114990234,42.944000244140625,56.191001892089844,1768293930,124255455,X6-tool2,0.09268262724433575,3.1991994303923295,44.53989323574425,-0.0419660957514565,-0.016651284145419245,0.037034684430549636,0.07123661041259766
2026-01-13 16:45:30.255813,-0.28815826773643494,2.960249662399292,44.47453689575195,0.022728148847818375,-0.02786550670862198,-0.023179834708571434,38.05500030517578,44.90299987792969,47.11899948120117,55.0369987487793,43.042999267578125,56.45500183105469,1768293930,224105789,X6-tool2,-0.16448416729190918,3.3314490365214477,44.56209473790055,-0.04047684149994272,-0.019317707031731687,0.0365609648306698,0.06429608911275864
2026-01-13 16:45:30.290348,-0.40090084075927734,2.9687910079956055,44.45610046386719,-0.00630137650296092,-0.014119407162070274,-0.023455819115042686,37.95600128173828,44.814998626708984,47.02000045776367,54.77299880981445,43.15299987792969,56.685001373291016,1768293930,224105789,X6-tool2,-0.16448416729190918,3.3314490365214477,44.56209473790055,-0.04047684149994272,-0.019317707031731687,0.0365609648306698,0.06429608911275864
2026-01-13 16:45:30.324908,-0.45939895510673523,2.9614479541778564,44.4484748840332,-0.013876141980290413,-0.014834635891020298,-0.01968885026872158,37.9119987487793,44.79899978637695,46.959999084472656,54.625,43.20199966430664,56.790000915527344,1768293930,224105789,X6-tool2,-0.16448416729190918,3.3314490365214477,44.56209473790055,-0.04047684149994272,-0.019317707031731687,0.0365609648306698,0.06429608911275864
2026-01-13 16:45:30.359926,-0.5822353363037109,2.9431097507476807,44.43013000488281,-0.020044246688485146,-0.005433476064354181,-0.030261902138590813,37.82500076293945,44.76599884033203,46.83399963378906,54.305999755859375,43.327999114990234,56.999000549316406,1768293930,324319307,X6-tool2,-0.41548591564808673,3.4408259292269663,44.508087254430905,-0.039282544625345764,-0.02215416417791738,0.03563148818424055,0.06486734002828598
2026-01-13 16:45:30.394327,-0.7106547951698303,2.9163033962249756,44.41147232055664,-0.033402860164642334,-0.030003860592842102,-0.05008836090564728,37.763999938964844,44.75,46.7400016784668,53.965999603271484,43.4379997253418,57.207000732421875,1768293930,324319307,X6-tool2,-0.41548591564808673,3.4408259292269663,44.508087254430905,-0.039282544625345764,-0.02215416417791738,0.03563148818424055,0.06486734002828598
2026-01-13 16:45:30.428876,-0.8387815952301025,2.876319408416748,44.38994216918945,-0.022164395079016685,-0.057769518345594406,-0.06663874536752701,37.6870002746582,44.755001068115234,46.630001068115234,53.60300064086914,43.542999267578125,57.382999420166016,1768293930,424205043,X6-tool2,-0.7168518124559395,3.296731147781198,44.44483539742427,-0.04105713155850143,-0.0240733202205515,0.03371034252120386,0.06940428167581558
2026-01-13 16:45:30.463547,-0.8915485143661499,2.8653252124786377,44.384300231933594,-0.03111644648015499,-0.04794580861926079,-0.05758371204137802,37.65999984741211,44.755001068115234,46.54800033569336,53.47100067138672,43.59199905395508,57.47600173950195,1768293930,424205043,X6-tool2,-0.7168518124559395,3.296731147781198,44.44483539742427,-0.04105713155850143,-0.0240733202205515,0.03371034252120386,0.06940428167581558
2026-01-13 16:45:30.498380,-0.987120509147644,2.841599464416504,44.37495803833008,-0.04366783797740936,-0.029712017625570297,-0.05553055927157402,37.62699890136719,44.76599884033203,46.4109992980957,53.22999954223633,43.69599914550781,57.64099884033203,1768293930,424205043,X6-tool2,-0.7168518124559395,3.296731147781198,44.44483539742427,-0.04105713155850143,-0.0240733202205515,0.03371034252120386,0.06940428167581558
2026-01-13 16:45:30.533014,-1.0939385890960693,2.8010847568511963,44.360992431640625,-0.022246794775128365,-0.006470782682299614,-0.083453468978405,37.5880012512207,44.79899978637695,46.27299880981445,52.93299865722656,43.845001220703125,57.790000915527344,1768293930,524248885,X6-tool2,-1.0886813269224935,3.3917166817249105,44.41098302494988,-0.03774233361471973,-0.025610652650771747,0.031687560517130856,0.0602264404296875
2026-01-13 16:45:30.567767,-1.2060387134552002,2.756768226623535,44.347843170166016,-0.030314411967992783,-0.014160551130771637,-0.09579586982727051,37.57699966430664,44.84299850463867,46.125,52.625,43.95500183105469,57.94900131225586,1768293930,524248885,X6-tool2,-1.0886813269224935,3.3917166817249105,44.41098302494988,-0.03774233361471973,-0.025610652650771747,0.031687560517130856,0.0602264404296875
2026-01-13 16:45:30.602218,-1.2694778442382812,2.72472882270813,44.343597412109375,-0.022400250658392906,-0.006406616419553757,-0.08155098557472229,37.55500030517578,44.891998291015625,46.01499938964844,52.45000076293945,44.01499938964844,58.0369987487793,1768293930,524248885,X6-tool2,-1.0886813269224935,3.3917166817249105,44.41098302494988,-0.03774233361471973,-0.025610652650771747,0.031687560517130856,0.0602264404296875
2026-01-13 16:45:30.636795,-1.385035753250122,2.6631126403808594,44.326499938964844,-0.012770470231771469,-0.01947752758860588,-0.0983845517039299,37.54399871826172,44.9640007019043,45.849998474121094,52.104000091552734,44.125,58.16299819946289,1768293930,624182933,X6-tool2,-1.3051558535585854,3.337430274616139,44.28399895776484,-0.037326768144695356,-0.028575481115126866,0.03001003280593341,0.07230758666992188
2026-01-13 16:45:30.671267,-1.4906367063522339,2.6121253967285156,44.314414978027344,-0.021591313183307648,0.003243961837142706,-0.08334309607744217,37.53300094604492,45.029998779296875,45.625,51.80699920654297,44.229000091552734,58.29999923706055,1768293930,624182933,X6-tool2,-1.3051558535585854,3.337430274616139,44.28399895776484,-0.037326768144695356,-0.028575481115126866,0.03001003280593341,0.07230758666992188
2026-01-13 16:45:30.706356,-1.5410665273666382,2.582432508468628,44.3066520690918,-0.02653585374355316,0.019424786791205406,-0.07783351093530655,37.53300094604492,45.06800079345703,45.49300003051758,51.65299987792969,44.27899932861328,58.349998474121094,1768293930,624182933,X6-tool2,-1.3051558535585854,3.337430274616139,44.28399895776484,-0.037326768144695356,-0.028575481115126866,0.03001003280593341,0.07230758666992188
2026-01-13 16:45:30.740758,-1.6544275283813477,2.516864061355591,44.29447937011719,-0.019875189289450645,0.017151132225990295,-0.07371796667575836,37.53300094604492,45.16699981689453,45.28499984741211,51.32400131225586,44.388999938964844,58.481998443603516,1768293930,724428962,X6-tool2,-1.593356239468341,3.2497259344556433,44.23990723378362,-0.036329988567328865,-0.03106581587814163,0.029351172450001902,0.068939208984375
2026-01-13 16:45:30.775403,-1.7668015956878662,2.447119951248169,44.27607345581055,-0.02566986344754696,0.021480051800608635,-0.06262914091348648,37.53900146484375,45.2599983215332,45.042999267578125,50.97700119018555,44.481998443603516,58.58599853515625,1768293930,724428962,X6-tool2,-1.593356239468341,3.2497259344556433,44.23990723378362,-0.036329988567328865,-0.03106581587814163,0.029351172450001902,0.068939208984375
2026-01-13 16:45:30.809906,-1.8677916526794434,2.369140863418579,44.26251983642578,0.004126113839447498,0.010060679167509079,-0.0613277442753315,37.54399871826172,45.387001037597656,44.85100173950195,50.65299987792969,44.58100128173828,58.66299819946289,1768293930,724428962,X6-tool2,-1.593356239468341,3.2497259344556433,44.23990723378362,-0.036329988567328865,-0.03106581587814163,0.029351172450001902,0.068939208984375
2026-01-13 16:45:30.844413,-1.9036774635314941,2.3343522548675537,44.26342010498047,0.012350344099104404,0.01269320584833622,-0.04269200935959816,37.55500030517578,45.4640007019043,44.75199890136719,50.542999267578125,44.61399841308594,58.69599914550781,1768293930,824074948,X6-tool2,-1.8972527586575223,3.0113386983789647,44.19467851078306,-0.03809800321102571,-0.031039140196244833,0.028404733529759904,0.0660257339477539
2026-01-13 16:45:30.879017,-1.9833637475967407,2.2629752159118652,44.2630729675293,0.020283980295062065,0.019891416653990746,0.0013172118924558163,37.57699966430664,45.617000579833984,44.527000427246094,50.301998138427734,44.68000030517578,58.77299880981445,1768293930,824074948,X6-tool2,-1.8972527586575223,3.0113386983789647,44.19467851078306,-0.03809800321102571,-0.031039140196244833,0.028404733529759904,0.0660257339477539
2026-01-13 16:45:30.913655,-2.0701422691345215,2.184765577316284,44.25133514404297,0.028700247406959534,0.022499123588204384,0.012119989842176437,37.61000061035156,45.755001068115234,44.29600143432617,50.01100158691406,44.762001037597656,58.821998596191406,1768293930,824074948,X6-tool2,-1.8972527586575223,3.0113386983789647,44.19467851078306,-0.03809800321102571,-0.031039140196244833,0.028404733529759904,0.0660257339477539
2026-01-13 16:45:30.948131,-2.169013738632202,2.0997426509857178,44.2313117980957,0.04439860209822655,0.030104950070381165,0.010261318646371365,37.63800048828125,45.887001037597656,44.03799819946289,49.66999816894531,44.867000579833984,58.86600112915039,1768293930,924143221,X6-tool2,-2.13599725208648,2.8324972170548697,44.18503824154663,-0.03786155095026436,-0.032114228664696855,0.02862420995831851,0.06845632940530777
2026-01-13 16:45:30.982971,-2.2160236835479736,2.049179792404175,44.22597885131836,0.042964447289705276,0.020365111529827118,0.00854558777064085,37.68199920654297,45.98500061035156,43.91699981689453,49.505001068115234,44.90999984741211,58.882999420166016,1768293930,924143221,X6-tool2,-2.13599725208648,2.8324972170548697,44.18503824154663,-0.03786155095026436,-0.032114228664696855,0.02862420995831851,0.06845632940530777
2026-01-13 16:45:31.017272,-2.3111190795898438,1.959850549697876,44.20509338378906,0.051040858030319214,0.0024586275685578585,0.0006055496050976217,37.73099899291992,46.12799835205078,43.68600082397461,49.165000915527344,44.99300003051758,58.90999984741211,1768293930,924143221,X6-tool2,-2.13599725208648,2.8324972170548697,44.18503824154663,-0.03786155095026436,-0.032114228664696855,0.02862420995831851,0.06845632940530777
2026-01-13 16:45:31.051757,-2.381756067276001,1.876282811164856,44.19212341308594,0.01974632404744625,0.007662877440452576,-0.007128134835511446,37.83000183105469,46.28200149536133,43.428001403808594,48.895999908447266,45.058998107910156,58.90999984741211,1768293931,24076408,X6-tool2,-2.3535343236536597,2.6795278635462876,44.13884313096932,-0.036898007808858366,-0.03323481861491967,0.027077821525139722,0.06096712872385979
2026-01-13 16:45:31.086198,-2.418006658554077,1.8282443284988403,44.18812942504883,0.024607272818684578,-0.005897029303014278,0.0035400395281612873,37.862998962402344,46.38100051879883,43.31800079345703,48.757999420166016,45.08100128173828,58.90999984741211,1768293931,24076408,X6-tool2,-2.3535343236536597,2.6795278635462876,44.13884313096932,-0.036898007808858366,-0.03323481861491967,0.027077821525139722,0.06096712872385979
2026-01-13 16:45:31.120543,-2.494438648223877,1.718495488166809,44.18388366699219,0.03768058121204376,-0.023669825866818428,0.0394614152610302,37.939998626708984,46.62300109863281,43.05400085449219,48.46699905395508,45.13600158691406,58.90999984741211,1768293931,24076408,X6-tool2,-2.3535343236536597,2.6795278635462876,44.13884313096932,-0.036898007808858366,-0.03323481861491967,0.027077821525139722,0.06096712872385979
2026-01-13 16:45:31.154795,-2.5683434009552,1.6281496286392212,44.166900634765625,0.014628924429416656,-0.014843819662928581,0.027622763067483902,38.03900146484375,46.7869987487793,42.779998779296875,48.17599868774414,45.21799850463867,58.89899826049805,1768293931,124031496,X6-tool2,-2.552409312438034,2.4305515576996912,44.1666716966403,-0.03610622694468066,-0.03483189514667254,0.02719526422614736,0.0718069076538086
2026-01-13 16:45:31.189752,-2.627297878265381,1.5300205945968628,44.158958435058594,0.0198744535446167,0.018288390710949898,0.051631804555654526,38.11600112915039,46.99599838256836,42.47200012207031,47.92300033569336,45.29999923706055,58.86600112915039,1768293931,124031496,X6-tool2,-2.552409312438034,2.4305515576996912,44.1666716966403,-0.03610622694468066,-0.03483189514667254,0.02719526422614736,0.0718069076538086
2026-01-13 16:45:31.224032,-2.656708240509033,1.4782146215438843,44.15646743774414,0.0198744535446167,0.018288390710949898,0.051631804555654526,38.17599868774414,47.11199951171875,42.34600067138672,47.797000885009766,45.34400177001953,58.849998474121094,1768293931,124031496,X6-tool2,-2.552409312438034,2.4305515576996912,44.1666716966403,-0.03610622694468066,-0.03483189514667254,0.02719526422614736,0.0718069076538086
2026-01-13 16:45:31.258388,-2.706653594970703,1.377720832824707,44.143497467041016,0.0080477399751544,0.05537966638803482,0.035708364099264145,38.29100036621094,47.314998626708984,42.04899978637695,47.54399871826172,45.4379997253418,58.77799987792969,1768293931,223975204,X6-tool2,-2.6711185928651155,2.194163514662794,44.126160699331976,-0.03548244996201062,-0.036465142419905346,0.025754244733223033,0.06627464294433594
2026-01-13 16:45:31.292783,-2.747048854827881,1.2539591789245605,44.14324188232422,0.04212319478392601,0.03813372924923897,0.05816159024834633,38.395999908447266,47.611000061035156,41.8129997253418,47.30799865722656,45.48699951171875,58.685001373291016,1768293931,223975204,X6-tool2,-2.6711185928651155,2.194163514662794,44.126160699331976,-0.03548244996201062,-0.036465142419905346,0.025754244733223033,0.06627464294433594
2026-01-13 16:45:31.327046,-2.7981977462768555,1.1444900035858154,44.13077163696289,0.0341399721801281,0.012940562330186367,0.06108048930764198,38.51100158691406,47.84199905395508,41.57099914550781,47.04399871826172,45.52000045776367,58.608001708984375,1768293931,324083418,X6-tool2,-2.886966827875675,1.912566538634878,44.07908921790274,-0.03405167453578068,-0.03514735728654774,0.024885656804575995,0.08376630395650864
2026-01-13 16:45:31.361482,-2.8183836936950684,1.0749917030334473,44.12924575805664,0.04384565353393555,-0.011293229646980762,0.05122547224164009,38.59400177001953,48.00699996948242,41.47200012207031,46.91299819946289,45.54800033569336,58.54800033569336,1768293931,324083418,X6-tool2,-2.886966827875675,1.912566538634878,44.07908921790274,-0.03405167453578068,-0.03514735728654774,0.024885656804575995,0.08376630395650864
2026-01-13 16:45:31.395917,-2.879314422607422,0.9625998735427856,44.10857391357422,0.008517253212630749,-0.03415227681398392,0.03512807562947273,38.736000061035156,48.22700119018555,41.198001861572266,46.61000061035156,45.59199905395508,58.47100067138672,1768293931,324083418,X6-tool2,-2.886966827875675,1.912566538634878,44.07908921790274,-0.03405167453578068,-0.03514735728654774,0.024885656804575995,0.08376630395650864
2026-01-13 16:45:31.430232,-2.915623188018799,0.845632016658783,44.08591079711914,0.019192591309547424,-0.020319491624832153,0.023059407249093056,38.840999603271484,48.45199966430664,40.9010009765625,46.33599853515625,45.652000427246094,58.321998596191406,1768293931,424282186,X6-tool2,-2.9040090383485424,1.6616424529783727,43.99788198360074,-0.032673622244822516,-0.039614385847893056,0.023849695384777405,0.07265154272317886
2026-01-13 16:45:31.464806,-2.9374074935913086,0.7808507680892944,44.073360443115234,0.030412856489419937,-0.028167758136987686,0.009288283064961433,38.9010009765625,48.577999114990234,40.76900100708008,46.18199920654297,45.685001373291016,58.244998931884766,1768293931,424282186,X6-tool2,-2.9040090383485424,1.6616424529783727,43.99788198360074,-0.032673622244822516,-0.039614385847893056,0.023849695384777405,0.07265154272317886
2026-01-13 16:45:31.499274,-2.9577836990356445,0.6776707172393799,44.05846405029297,0.04302019253373146,-0.005477245431393385,0.022405778989195824,38.98400115966797,48.792999267578125,40.494998931884766,45.972999572753906,45.722999572753906,58.10300064086914,1768293931,424282186,X6-tool2,-2.9040090383485424,1.6616424529783727,43.99788198360074,-0.032673622244822516,-0.039614385847893056,0.023849695384777405,0.07265154272317886
2026-01-13 16:45:31.533751,-2.973651170730591,0.5729113221168518,44.05656051635742,0.01563882641494274,0.010533083230257034,0.035261619836091995,39.125999450683594,49.05099868774414,40.236000061035156,45.803001403808594,45.75600051879883,57.98699951171875,1768293931,524300797,X6-tool2,-3.080886451451457,1.48649408416816,43.92686655978065,-0.031242714495300458,-0.038812854213247615,0.023478942246596305,0.08273156732320786
2026-01-13 16:45:31.568080,-2.986088752746582,0.5177885293960571,44.04996871948242,0.018443573266267776,0.01774904690682888,0.03666985407471657,39.180999755859375,49.172000885009766,40.10499954223633,45.69300079345703,45.784000396728516,57.92100143432617,1768293931,524300797,X6-tool2,-3.080886451451457,1.48649408416816,43.92686655978065,-0.031242714495300458,-0.038812854213247615,0.023478942246596305,0.08273156732320786
2026-01-13 16:45:31.602530,-2.9960546493530273,0.3844873011112213,44.03931427001953,0.03715379908680916,0.014081641100347042,0.034678585827350616,39.319000244140625,49.479000091552734,39.85200119018555,45.472999572753906,45.821998596191406,57.729000091552734,1768293931,524300797,X6-tool2,-3.080886451451457,1.48649408416816,43.92686655978065,-0.031242714495300458,-0.038812854213247615,0.023478942246596305,0.08273156732320786
2026-01-13 16:45:31.636825,-2.9981391429901123,0.2666964828968048,44.03068161010742,0.047496166080236435,0.04066624492406845,0.06491463631391525,39.42300033569336,49.75400161743164,39.566001892089844,45.29199981689453,45.84400177001953,57.54800033569336,1768293931,624291566,X6-tool2,-3.1697592896469544,0.9804534984064047,43.86075919502809,-0.036087836185408194,-0.038790767366357365,0.024087401929956506,0.06971486657857895
2026-01-13 16:45:31.671333,-3.0121333599090576,0.1473347395658493,44.01701354980469,0.007978715002536774,0.023369433358311653,0.04497920349240303,39.5989990234375,50.02299880981445,39.33000183105469,45.077999114990234,45.85499954223633,57.382999420166016,1768293931,624291566,X6-tool2,-3.1697592896469544,0.9804534984064047,43.86075919502809,-0.036087836185408194,-0.038790767366357365,0.024087401929956506,0.06971486657857895
2026-01-13 16:45:31.705664,-3.014191150665283,0.08573555201292038,44.01306915283203,0.01848590560257435,0.01945427991449833,0.057059045881032944,39.65399932861328,50.17100143432617,39.21500015258789,44.98400115966797,45.861000061035156,57.29499816894531,1768293931,624291566,X6-tool2,-3.1697592896469544,0.9804534984064047,43.86075919502809,-0.036087836185408194,-0.038790767366357365,0.024087401929956506,0.06971486657857895
2026-01-13 16:45:31.740162,-3.031891107559204,-0.03729458898305893,43.994510650634766,0.00418477226048708,-0.007672213017940521,0.043854884803295135,39.801998138427734,50.439998626708984,38.98899841308594,44.74800109863281,45.87200164794922,57.125,1768293931,724271656,X6-tool2,-3.018322067051215,0.733125926779132,43.86119540284104,-0.03546780338919141,-0.04417116935039994,0.024648901956512294,0.07210826873779297
2026-01-13 16:45:31.774742,-3.0263965129852295,-0.1551714688539505,43.990726470947266,0.029428798705339432,-0.026821814477443695,0.05932707339525223,39.9119987487793,50.73699951171875,38.819000244140625,44.59400177001953,45.87699890136719,56.94900131225586,1768293931,724271656,X6-tool2,-3.018322067051215,0.733125926779132,43.86119540284104,-0.03546780338919141,-0.04417116935039994,0.024648901956512294,0.07210826873779297
2026-01-13 16:45:31.809080,-3.009533166885376,-0.2822679877281189,43.982383728027344,-0.023435605689883232,-0.035519883036613464,0.023749709129333496,40.137001037597656,51.04499816894531,38.5989990234375,44.435001373291016,45.87699890136719,56.7239990234375,1768293931,724271656,X6-tool2,-3.018322067051215,0.733125926779132,43.86119540284104,-0.03546780338919141,-0.04417116935039994,0.024648901956512294,0.07210826873779297
2026-01-13 16:45:31.843524,-3.002291440963745,-0.34045884013175964,43.975181579589844,-0.03814978897571564,-0.0391504280269146,0.006898570340126753,40.224998474121094,51.176998138427734,38.500999450683594,44.35300064086914,45.87699890136719,56.61399841308594,1768293931,824267705,X6-tool2,-3.211238685640763,0.4312353798528767,43.88210465899681,-0.0345591997537242,-0.04128823627011316,0.023433719223937183,0.06478309631347656
2026-01-13 16:45:31.877921,-2.9879512786865234,-0.4474009871482849,43.955604553222656,-0.03211704641580582,-0.018924912437796593,0.012199658900499344,40.32899856567383,51.402000427246094,38.27000045776367,44.1879997253418,45.87699890136719,56.39400100708008,1768293931,824267705,X6-tool2,-3.211238685640763,0.4312353798528767,43.88210465899681,-0.0345591997537242,-0.04128823627011316,0.023433719223937183,0.06478309631347656
2026-01-13 16:45:31.912415,-2.970289945602417,-0.5723147988319397,43.93410873413086,-0.038979802280664444,-0.00555843859910965,0.0014506535371765494,40.46099853515625,51.67100143432617,38.02299880981445,44.000999450683594,45.87699890136719,56.141998291015625,1768293931,824267705,X6-tool2,-3.211238685640763,0.4312353798528767,43.88210465899681,-0.0345591997537242,-0.04128823627011316,0.023433719223937183,0.06478309631347656
2026-01-13 16:45:31.946888,-2.9462618827819824,-0.6870810985565186,43.916202545166016,-0.05495859310030937,0.003355974331498146,-0.0197337344288826,40.61000061035156,51.92399978637695,37.819000244140625,43.84700012207031,45.87200164794922,55.900001525878906,1768293931,924269105,X6-tool2,-3.0649496580715776,0.20502884892084502,43.82297268687614,-0.033683349935041886,-0.04614214345851122,0.023995453153250853,0.08181381225585938
2026-01-13 16:45:31.981669,-2.9266529083251953,-0.7511823177337646,43.912330627441406,-0.029265137389302254,0.003495244076475501,-0.007986685261130333,40.659000396728516,52.08300018310547,37.731998443603516,43.7869987487793,45.86600112915039,55.768001556396484,1768293931,924269105,X6-tool2,-3.0649496580715776,0.20502884892084502,43.82297268687614,-0.033683349935041886,-0.04614214345851122,0.023995453153250853,0.08181381225585938
2026-01-13 16:45:32.016174,-2.898681163787842,-0.873854398727417,43.895381927490234,-0.005731275305151939,0.00924414861947298,-0.007831071503460407,40.77399826049805,52.362998962402344,37.53900146484375,43.632999420166016,45.86600112915039,55.51499938964844,1768293931,924269105,X6-tool2,-3.0649496580715776,0.20502884892084502,43.82297268687614,-0.033683349935041886,-0.04614214345851122,0.023995453153250853,0.08181381225585938
2026-01-13 16:45:32.050421,-2.85855770111084,-1.001977801322937,43.88827896118164,0.03014172986149788,0.0007149750599637628,0.011452761478722095,40.88999938964844,52.6870002746582,37.380001068115234,43.518001556396484,45.84400177001953,55.25699996948242,1768293932,24233414,X6-tool2,-3.146938993634968,-0.1519907092861327,43.77365299433145,-0.03544023158454953,-0.04485067790008158,0.02367716281061738,0.06957753747701645
2026-01-13 16:45:32.084961,-2.820227861404419,-1.1097774505615234,43.871795654296875,0.04667668417096138,-0.009026529267430305,-0.002716813702136278,41.01100158691406,52.92900085449219,37.24800109863281,43.402000427246094,45.805999755859375,55.00400161743164,1768293932,24233414,X6-tool2,-3.146938993634968,-0.1519907092861327,43.77365299433145,-0.03544023158454953,-0.04485067790008158,0.02367716281061738,0.06957753747701645
2026-01-13 16:45:32.119211,-2.8013720512390137,-1.1643873453140259,43.87163162231445,0.043368928134441376,-0.006542150862514973,0.00927402637898922,41.07099914550781,53.07699966430664,37.17100143432617,43.36399841308594,45.79999923706055,54.900001525878906,1768293932,24233414,X6-tool2,-3.146938993634968,-0.1519907092861327,43.77365299433145,-0.03544023158454953,-0.04485067790008158,0.02367716281061738,0.06957753747701645
2026-01-13 16:45:32.153483,-2.7425308227539062,-1.2748533487319946,43.862510681152344,0.032506417483091354,0.0027135859709233046,0.02939348667860031,41.196998596191406,53.34600067138672,37.00600051879883,43.29800033569336,45.71799850463867,54.619998931884766,1768293932,124288546,X6-tool2,-3.0588793059353234,-0.42819437714541886,43.73035361254899,-0.034429706029630615,-0.046125294347104065,0.023962539318770425,0.07669734954833984
