TCliu030506/rrc_ws/src/x6_pkg/x6_control_python/record/record_20260114_161514.csv
timestamp,out_1_header.stamp.sec,out_1_header.stamp.nanosec,out_1_header.frame_id,out_1_val,out_1_speed,out_2_header.stamp.sec,out_2_header.stamp.nanosec,out_2_header.frame_id,out_2_val,out_2_speed,out_3_header.stamp.sec,out_3_header.stamp.nanosec,out_3_header.frame_id,out_3_val,out_3_speed,out_4_header.stamp.sec,out_4_header.stamp.nanosec,out_4_header.frame_id,out_4_val,out_4_speed,out_5_header.stamp.sec,out_5_header.stamp.nanosec,out_5_header.frame_id,out_5_val,out_5_speed,out_6_header.stamp.sec,out_6_header.stamp.nanosec,out_6_header.frame_id,out_6_val,out_6_speed,x6position_pose_rp[0],x6position_pose_rp[1],x6position_pose_rp[2],x6position_pose_rp[3],x6position_pose_rp[4],x6position_pose_rp[5],x6position_joints[0],x6position_joints[1],x6position_joints[2],x6position_joints[3],x6position_joints[4],x6position_joints[5],aimooe_coord_header.stamp.sec,aimooe_coord_header.stamp.nanosec,aimooe_coord_header.frame_id,aimooe_coord_position.x,aimooe_coord_position.y,aimooe_coord_position.z,aimooe_coord_orientation.x,aimooe_coord_orientation.y,aimooe_coord_orientation.z,aimooe_coord_mean_error
2026-01-14 16:14:50.616901,1768378490,599235225,1,166201,0,1768378490,602600971,2,161966,0,1768378490,605898344,3,174386,0,1768378490,609209807,4,169882,0,1768378490,612632145,5,175369,0,1768378490,616015331,6,166723,0,3.0004208087921143,-0.0008502496057190001,39.00107192993164,0.00042488175677135587,-0.0009295662166550756,-0.0031991160940378904,33.274208068847656,39.121498107910156,35.51033020019531,43.99800491333008,27.88825225830078,31.49553108215332,1768378490,604675488,X6-tool2,2.969861567544991,-0.3249881131738766,39.070111271643015,0.0006529565231020275,0.03512653496366737,0.0408555353737064,0.06249523162841797
2026-01-14 16:14:50.652945,1768378490,639278800,1,166201,0,1768378490,642600654,2,161966,0,1768378490,645942048,3,174386,0,1768378490,649328365,4,169882,0,1768378490,632680623,5,175369,0,1768378490,635978717,6,166723,0,3.0004208087921143,-0.0008502496057190001,39.00107192993164,0.00042488175677135587,-0.0009295662166550756,-0.0031991160940378904,33.274208068847656,39.121498107910156,35.51033020019531,43.99800491333008,27.88825225830078,31.49553108215332,1768378490,604675488,X6-tool2,2.969861567544991,-0.3249881131738766,39.070111271643015,0.0006529565231020275,0.03512653496366737,0.0408555353737064,0.06249523162841797
2026-01-14 16:14:50.689270,1768378490,679199089,1,166201,0,1768378490,682545444,2,161966,0,1768378490,685858258,3,174386,0,1768378490,669189876,4,169882,0,1768378490,672528710,5,175369,0,1768378490,675879195,6,166723,0,3.0004208087921143,-0.0008502496057190001,39.00107192993164,0.00042488175677135587,-0.0009295662166550756,-0.0031991160940378904,33.274208068847656,39.121498107910156,35.51033020019531,43.99800491333008,27.88825225830078,31.49553108215332,1768378490,604675488,X6-tool2,2.969861567544991,-0.3249881131738766,39.070111271643015,0.0006529565231020275,0.03512653496366737,0.0408555353737064,0.06249523162841797
2026-01-14 16:14:50.725132,1768378490,719274335,1,166201,0,1768378490,722597538,2,161966,0,1768378490,705858934,3,174386,0,1768378490,709211249,4,169882,0,1768378490,712526133,5,175369,0,1768378490,715932570,6,166723,0,3.0004208087921143,-0.0008502496057190001,39.00107192993164,0.00042488175677135587,-0.0009295662166550756,-0.0031991160940378904,33.274208068847656,39.121498107910156,35.51033020019531,43.99800491333008,27.88825225830078,31.49553108215332,1768378490,704605237,X6-tool2,2.978217904582012,-0.3396439398340396,39.05402019903331,0.000249446306496059,0.034923516570852936,0.04102674794684996,0.060596466064453125
2026-01-14 16:14:50.760724,1768378490,759194615,1,166201,0,1768378490,742541683,2,161966,0,1768378490,745880778,3,174386,0,1768378490,749191011,4,169882,0,1768378490,752546546,5,175369,0,1768378490,755881601,6,166723,0,3.0004208087921143,-0.0008502496057190001,39.00107192993164,0.00042488175677135587,-0.0009295662166550756,-0.0031991160940378904,33.274208068847656,39.121498107910156,35.51033020019531,43.99800491333008,27.88825225830078,31.49553108215332,1768378490,704605237,X6-tool2,2.978217904582012,-0.3396439398340396,39.05402019903331,0.000249446306496059,0.034923516570852936,0.04102674794684996,0.060596466064453125
2026-01-14 16:14:50.795926,1768378490,779212471,1,166201,0,1768378490,782604618,2,161966,0,1768378490,785878900,3,174386,0,1768378490,789220175,4,169882,0,1768378490,792558709,5,175369,0,1768378490,775856866,6,166723,0,3.0004208087921143,-0.0008502496057190001,39.00107192993164,0.00042488175677135587,-0.0009295662166550756,-0.0031991160940378904,33.274208068847656,39.121498107910156,35.51033020019531,43.99800491333008,27.88825225830078,31.49553108215332,1768378490,704605237,X6-tool2,2.978217904582012,-0.3396439398340396,39.05402019903331,0.000249446306496059,0.034923516570852936,0.04102674794684996,0.060596466064453125
2026-01-14 16:14:50.831255,1768378490,819334288,1,166201,0,1768378490,822658712,2,161966,0,1768378490,825879793,3,174386,0,1768378490,829326081,4,169882,0,1768378490,812657679,5,175369,0,1768378490,816001504,6,166723,0,3.0004208087921143,-0.0008502496057190001,39.00107192993164,0.00042488175677135587,-0.0009295662166550756,-0.0031991160940378904,33.274208068847656,39.121498107910156,35.51033020019531,43.99800491333008,27.88825225830078,31.49553108215332,1768378490,804645370,X6-tool2,2.982340440992641,-0.3505337663159197,39.054641272324915,0.00024817062681318705,0.03474448106138432,0.041064732594834334,0.06070995330810547
2026-01-14 16:14:50.868708,1768378490,859276369,1,166201,0,1768378490,862557971,2,161966,0,1768378490,865865565,3,174386,0,1768378490,849279776,4,169882,0,1768378490,852618281,5,175369,0,1768378490,855990656,6,166723,0,3.0004208087921143,-0.0008502496057190001,39.00107192993164,0.00042488175677135587,-0.0009295662166550756,-0.0031991160940378904,33.274208068847656,39.121498107910156,35.51033020019531,43.99800491333008,27.88825225830078,31.49553108215332,1768378490,804645370,X6-tool2,2.982340440992641,-0.3505337663159197,39.054641272324915,0.00024817062681318705,0.03474448106138432,0.041064732594834334,0.06070995330810547
2026-01-14 16:14:50.904573,1768378490,899201939,1,166201,0,1768378490,902576855,2,161966,0,1768378490,885860761,3,174386,0,1768378490,889264448,4,169882,0,1768378490,892548300,5,175369,0,1768378490,895914106,6,166723,0,3.0004208087921143,-0.0008502496057190001,39.00107192993164,0.00042488175677135587,-0.0009295662166550756,-0.0031991160940378904,33.274208068847656,39.121498107910156,35.51033020019531,43.99800491333008,27.88825225830078,31.49553108215332,1768378490,804645370,X6-tool2,2.982340440992641,-0.3505337663159197,39.054641272324915,0.00024817062681318705,0.03474448106138432,0.041064732594834334,0.06070995330810547
2026-01-14 16:14:50.940996,1768378490,939337476,1,166201,0,1768378490,922574931,2,161966,0,1768378490,925945487,3,174386,0,1768378490,929261861,4,169882,0,1768378490,932545883,5,175369,0,1768378490,935867637,6,166723,0,3.0004208087921143,-0.0008502496057190001,39.00107192993164,0.00042488175677135587,-0.0009295662166550756,-0.0031991160940378904,33.274208068847656,39.121498107910156,35.51033020019531,43.99800491333008,27.88825225830078,31.49553108215332,1768378490,904513767,X6-tool2,2.975461968345533,-0.3465120081365199,39.03747562966267,0.00016327477075872787,0.03497065206125505,0.04099740036092267,0.05995464324951172
2026-01-14 16:14:50.976574,1768378490,959268800,1,166201,0,1768378490,962552743,2,161966,0,1768378490,965860156,3,174386,0,1768378490,969233192,4,169882,0,1768378490,972521655,5,175369,0,1768378490,975885941,6,166723,0,3.0004208087921143,-0.0008502496057190001,39.00107192993164,0.00042488175677135587,-0.0009295662166550756,-0.0031991160940378904,33.274208068847656,39.121498107910156,35.51033020019531,43.99800491333008,27.88825225830078,31.49553108215332,1768378490,904513767,X6-tool2,2.975461968345533,-0.3465120081365199,39.03747562966267,0.00016327477075872787,0.03497065206125505,0.04099740036092267,0.05995464324951172
2026-01-14 16:14:51.011813,1768378490,999213971,1,166201,0,1768378491,2583237,2,161966,0,1768378491,5883320,3,174386,0,1768378491,9236465,4,169882,0,1768378490,992548772,5,175369,0,1768378490,995887987,6,166723,0,3.0004208087921143,-0.0008502496057190001,39.00107192993164,0.00042488175677135587,-0.0009295662166550756,-0.0031991160940378904,33.274208068847656,39.121498107910156,35.51033020019531,43.99800491333008,27.88825225830078,31.49553108215332,1768378491,4665874,X6-tool2,2.976540342570607,-0.35884985689155297,39.06594283604311,7.411725939610329e-05,0.034915948547207434,0.041043022852375884,0.05984274670481682
2026-01-14 16:14:51.048117,1768378491,39210373,1,166201,0,1768378491,42537388,2,161966,0,1768378491,45989516,3,174386,0,1768378491,29265162,4,169882,0,1768378491,32544344,5,175369,0,1768378491,35975523,6,166723,0,3.0004208087921143,-0.0008502496057190001,39.00107192993164,0.00042488175677135587,-0.0009295662166550756,-0.0031991160940378904,33.274208068847656,39.121498107910156,35.51033020019531,43.99800491333008,27.88825225830078,31.49553108215332,1768378491,4665874,X6-tool2,2.976540342570607,-0.35884985689155297,39.06594283604311,7.411725939610329e-05,0.034915948547207434,0.041043022852375884,0.05984274670481682
2026-01-14 16:14:51.084660,1768378491,79219026,1,166201,0,1768378491,82552050,2,161966,0,1768378491,65888779,3,174386,0,1768378491,69246164,4,169882,0,1768378491,72553657,5,175369,0,1768378491,75863381,6,166723,0,3.0004208087921143,-0.0008502496057190001,39.00107192993164,0.00042488175677135587,-0.0009295662166550756,-0.0031991160940378904,33.274208068847656,39.121498107910156,35.51033020019531,43.99800491333008,27.88825225830078,31.49553108215332,1768378491,4665874,X6-tool2,2.976540342570607,-0.35884985689155297,39.06594283604311,7.411725939610329e-05,0.034915948547207434,0.041043022852375884,0.05984274670481682
2026-01-14 16:14:51.119943,1768378491,109194644,1,166130,-40,1768378491,112545739,2,161862,-48,1768378491,116025239,3,174073,-124,1768378491,119222588,4,169486,-139,1768378491,102535186,5,175177,-118,1768378491,105881731,6,166289,-236,2.920198440551758,0.06553779542446136,39.093292236328125,-0.06851613521575928,-0.12210873514413834,-0.003133597318083048,33.345211029052734,39.13249588012695,35.598331451416016,44.1300048828125,28.080251693725586,31.92953109741211,1768378491,104422106,X6-tool2,2.9650439175521814,-0.33457821008792027,39.089207008198564,0.0004886153775099215,0.0352531572184519,0.04104779650491419,0.05875396728515625
2026-01-14 16:14:51.155294,1768378491,149224658,1,165932,-43,1768378491,152530071,2,161631,-65,1768378491,135903641,3,173831,-115,1768378491,139223145,4,169217,-154,1768378491,142582100,5,174589,-135,1768378491,145884744,6,165311,-250,2.8575868606567383,0.13563337922096252,39.220733642578125,-0.036959175020456314,-0.20795756578445435,-0.05213283374905586,33.444210052490234,39.22549819946289,35.82332992553711,44.394004821777344,28.404251098632812,32.41852951049805,1768378491,104422106,X6-tool2,2.9650439175521814,-0.33457821008792027,39.089207008198564,0.0004886153775099215,0.0352531572184519,0.04104779650491419,0.05875396728515625
2026-01-14 16:14:51.191489,1768378491,189218330,1,165751,-47,1768378491,172572139,2,161510,-46,1768378491,175883833,3,173337,-106,1768378491,179226247,4,168712,-131,1768378491,182552642,5,174018,-155,1768378491,185903697,6,164306,-270,2.7321667671203613,0.26274776458740234,39.48001480102539,0.014783204533159733,-0.47507020831108093,-0.10114657133817673,33.63121032714844,39.45649719238281,36.30133056640625,44.9160041809082,28.9532527923584,33.40153121948242,1768378491,104422106,X6-tool2,2.9650439175521814,-0.33457821008792027,39.089207008198564,0.0004886153775099215,0.0352531572184519,0.04104779650491419,0.05875396728515625
2026-01-14 16:14:51.226605,1768378491,209219286,1,165657,-45,1768378491,212544760,2,161268,-68,1768378491,215880425,3,172875,-103,1768378491,219223750,4,168157,-151,1768378491,222549434,5,173392,-168,1768378491,225900899,6,163301,-237,2.59909987449646,0.3930295407772064,39.74285888671875,0.07177349179983139,-0.6753356456756592,-0.15557844936847687,33.81821060180664,39.69249725341797,36.79033279418945,45.43800354003906,29.563251495361328,34.41753005981445,1768378491,204604974,X6-tool2,2.9350225447218303,-0.022354646777661136,39.424154949650216,-0.002309653150957917,0.0318213339246901,0.03211255071833982,0.06467151641845703
2026-01-14 16:14:51.261966,1768378491,249212608,1,165454,-53,1768378491,252570524,2,160972,-71,1768378491,255880057,3,172425,-113,1768378491,259235953,4,167629,-80,1768378491,242558091,5,173090,-145,1768378491,245902085,6,162812,-252,2.4816811084747314,0.5059624910354614,40.01071548461914,0.1292404979467392,-0.78926020860672,-0.17113040387630463,34.021209716796875,39.9944953918457,37.24633026123047,45.987003326416016,30.167251586914062,35.406532287597656,1768378491,204604974,X6-tool2,2.9350225447218303,-0.022354646777661136,39.424154949650216,-0.002309653150957917,0.0318213339246901,0.03211255071833982,0.06467151641845703
2026-01-14 16:14:51.298028,1768378491,289218292,1,165229,-52,1768378491,292569686,2,160703,-67,1768378491,295883350,3,171958,-130,1768378491,279222059,4,167404,-112,1768378491,282556453,5,172491,-152,1768378491,285877017,6,161807,-246,2.345839023590088,0.6276378035545349,40.26407241821289,0.13058656454086304,-0.9116529226303101,-0.2005792260169983,34.24620819091797,40.242496490478516,37.69633102416992,46.47600555419922,30.766252517700195,36.411529541015625,1768378491,204604974,X6-tool2,2.9350225447218303,-0.022354646777661136,39.424154949650216,-0.002309653150957917,0.0318213339246901,0.03211255071833982,0.06467151641845703
2026-01-14 16:14:51.333655,1768378491,329238665,1,165026,-43,1768378491,332571219,2,160417,-65,1768378491,315864496,3,171689,-137,1768378491,319225231,4,166921,-134,1768378491,322581856,5,171859,-140,1768378491,325965052,6,160790,-236,2.276201009750366,0.6839402318000793,40.3932991027832,0.1478094756603241,-0.9681187868118286,-0.21858835220336914,34.35620880126953,40.38449478149414,37.938331604003906,46.7180061340332,31.079252243041992,36.92253112792969,1768378491,313046160,X6-tool2,2.6016149491282117,0.30148433036765115,40.08494381744534,0.005735809943025724,0.03451450096178668,0.02951277894078123,0.06599172204732895
2026-01-14 16:14:51.369005,1768378491,349238401,1,164932,-53,1768378491,352569275,2,160274,-75,1768378491,355905719,3,171189,-118,1768378491,359224304,4,166371,-131,1768378491,362547097,5,171293,-153,1768378491,365890732,6,159802,-258,2.1485397815704346,0.7982428669929504,40.64923858642578,0.19811025261878967,-1.0985509157180786,-0.23028069734573364,34.543209075927734,40.67049789428711,38.45433044433594,47.228004455566406,31.667251586914062,37.92253112792969,1768378491,313046160,X6-tool2,2.6016149491282117,0.30148433036765115,40.08494381744534,0.005735809943025724,0.03451450096178668,0.02951277894078123,0.06599172204732895
2026-01-14 16:14:51.405228,1768378491,389194112,1,164718,-56,1768378491,392569568,2,159983,-71,1768378491,395881641,3,170706,-119,1768378491,399221496,4,165850,-131,1768378491,402549970,5,170645,-163,1768378491,385885368,6,159285,-245,2.0276670455932617,0.9210277199745178,40.908348083496094,0.21842408180236816,-1.1617538928985596,-0.22687730193138123,34.75720977783203,40.95649719238281,38.95433044433594,47.77800369262695,32.277252197265625,38.933528900146484,1768378491,313046160,X6-tool2,2.6016149491282117,0.30148433036765115,40.08494381744534,0.005735809943025724,0.03451450096178668,0.02951277894078123,0.06599172204732895
2026-01-14 16:14:51.440843,1768378491,429214475,1,164537,-48,1768378491,432542259,2,159692,-78,1768378491,435879764,3,170217,-124,1768378491,439220898,4,165333,-129,1768378491,422549656,5,170343,-151,1768378491,425881311,6,158264,-239,1.8983418941497803,1.0368512868881226,41.16354751586914,0.2643699645996094,-1.1846851110458374,-0.2177003026008606,34.938209533691406,41.25249481201172,39.438331604003906,48.29400634765625,32.91425323486328,39.954532623291016,1768378491,412533933,X6-tool2,2.1972953416608463,0.6478988460495777,40.7314189074299,0.01490285771213294,0.03743730374083866,0.028315955501882116,0.0682586058974266
2026-01-14 16:14:51.476621,1768378491,469215428,1,164339,-55,1768378491,472541922,2,159406,-56,1768378491,475879276,3,169733,-121,1768378491,459275856,4,165075,-105,1768378491,462529098,5,169733,-140,1768378491,465883613,6,157269,-231,1.7756569385528564,1.1471413373947144,41.41217803955078,0.29858633875846863,-1.2088384628295898,-0.20469047129154205,35.13621139526367,41.55549621582031,39.93233108520508,48.80500411987305,33.524253845214844,40.94953155517578,1768378491,412533933,X6-tool2,2.1972953416608463,0.6478988460495777,40.7314189074299,0.01490285771213294,0.03743730374083866,0.028315955501882116,0.0682586058974266
2026-01-14 16:14:51.512118,1768378491,509191529,1,164152,-59,1768378491,492542778,2,159302,-56,1768378491,495861101,3,169492,-120,1768378491,499234277,4,164570,-132,1768378491,502530780,5,169135,-158,1768378491,505883776,6,156237,-244,1.706272006034851,1.2130192518234253,41.5356559753418,0.28048959374427795,-1.2265764474868774,-0.17879177629947662,35.23521041870117,41.681495666503906,40.163330078125,49.058006286621094,33.815250396728516,41.476531982421875,1768378491,412533933,X6-tool2,2.1972953416608463,0.6478988460495777,40.7314189074299,0.01490285771213294,0.03743730374083866,0.028315955501882116,0.0682586058974266
2026-01-14 16:14:51.548401,1768378491,529212656,1,164064,-40,1768378491,532544160,2,159033,-75,1768378491,535883665,3,168997,-132,1768378491,539238240,4,164081,-127,1768378491,542545573,5,168525,-165,1768378491,545886938,6,155215,-252,1.5723397731781006,1.3431437015533447,41.77116012573242,0.2822229862213135,-1.2221440076828003,-0.15922009944915771,35.41120910644531,41.91749572753906,40.646331787109375,49.54700469970703,34.43625259399414,42.498531341552734,1768378491,511990003,X6-tool2,1.8412254238098087,0.9819055325323738,41.310001014839166,0.020339600972494647,0.03570810429304603,0.028449887209542182,0.06795692443847656
2026-01-14 16:14:51.584418,1768378491,569213559,1,163823,-86,1768378491,572544833,2,158796,-62,1768378491,575905478,3,168459,-136,1768378491,579237802,4,163548,-130,1768378491,582548966,5,167904,-158,1768378491,565862754,6,154715,-253,1.4507524967193604,1.4707859754562378,42.006282806396484,0.2621898651123047,-1.2290561199188232,-0.1597680151462555,35.6522102355957,42.17049789428711,41.184329986572266,50.06300354003906,35.04525375366211,43.50353240966797,1768378491,511990003,X6-tool2,1.8412254238098087,0.9819055325323738,41.310001014839166,0.020339600972494647,0.03570810429304603,0.028449887209542182,0.06795692443847656
2026-01-14 16:14:51.619380,1768378491,609195230,1,163592,-63,1768378491,612569096,2,158522,-63,1768378491,615862829,3,167964,-129,1768378491,599232928,4,163268,-146,1768378491,602530682,5,167574,-168,1768378491,605861686,6,153671,-265,1.32929527759552,1.6069133281707764,42.247623443603516,0.23701421916484833,-1.1770743131637573,-0.131433367729187,35.883209228515625,42.428497314453125,41.690330505371094,50.612003326416016,35.683250427246094,44.54753112792969,1768378491,611465805,X6-tool2,1.4733436602549763,1.396309010226061,41.88915038521672,0.024635341713662044,0.032777259564482596,0.02833285254680761,0.06693807989358902
2026-01-14 16:14:51.655036,1768378491,649242165,1,163334,-46,1768378491,652541608,2,158247,-82,1768378491,635878946,3,167728,-115,1768378491,639236021,4,162762,-123,1768378491,642551355,5,166965,-158,1768378491,645862948,6,152661,-247,1.271276831626892,1.6688458919525146,42.364688873291016,0.2256234735250473,-1.1427563428878784,-0.11831977218389511,36.00421142578125,42.56549835205078,41.93233108520508,50.87600326538086,35.99625015258789,45.05253219604492,1768378491,611465805,X6-tool2,1.4733436602549763,1.396309010226061,41.88915038521672,0.024635341713662044,0.032777259564482596,0.02833285254680761,0.06693807989358902
2026-01-14 16:14:51.691079,1768378491,689214196,1,163092,-54,1768378491,672543084,2,158071,-60,1768378491,675881248,3,167228,-113,1768378491,679238334,4,162274,-126,1768378491,682527147,5,166371,-170,1768378491,685886522,6,151639,-269,1.1464288234710693,1.7850427627563477,42.59175491333008,0.18393053114414215,-1.1049137115478516,-0.08844780176877975,36.25720977783203,42.84049606323242,42.41533279418945,51.359004974365234,36.58925247192383,46.06352996826172,1768378491,611465805,X6-tool2,1.4733436602549763,1.396309010226061,41.88915038521672,0.024635341713662044,0.032777259564482596,0.02833285254680761,0.06693807989358902
2026-01-14 16:14:51.726712,1768378491,709239843,1,162966,-64,1768378491,712568527,2,157775,-78,1768378491,715904762,3,166729,-121,1768378491,719230846,4,161735,-151,1768378491,722573131,5,165734,-152,1768378491,725941686,6,150595,-248,1.0221469402313232,1.8941606283187866,42.82940673828125,0.17097219824790955,-1.0519399642944336,-0.04898577928543091,36.50920867919922,43.16449737548828,42.92633056640625,51.86500549316406,37.21025085449219,47.1075325012207,1768378491,710979268,X6-tool2,1.1527952097460468,1.718459486150329,42.416918376649605,0.026752019832747782,0.029211155705111798,0.028519072247696675,0.06183306500315666
2026-01-14 16:14:51.761782,1768378491,749211315,1,162729,-55,1768378491,752543399,2,157467,-72,1768378491,755862903,3,166212,-123,1768378491,759234589,4,161246,-121,1768378491,742601088,5,165421,-156,1768378491,745940462,6,150095,-258,0.9073383808135986,2.0067501068115234,43.056968688964844,0.16538774967193604,-0.9668365120887756,-0.013523366302251816,36.74620819091797,43.466495513916016,43.42633056640625,52.375003814697266,37.83625030517578,48.123531341552734,1768378491,710979268,X6-tool2,1.1527952097460468,1.718459486150329,42.416918376649605,0.026752019832747782,0.029211155705111798,0.028519072247696675,0.06183306500315666
2026-01-14 16:14:51.797999,1768378491,789212897,1,162504,-64,1768378491,792541901,2,157187,-66,1768378491,795883476,3,165668,-134,1768378491,779264926,4,160994,-128,1768378491,782545198,5,164800,-175,1768378491,785886473,6,149073,-265,0.7938771843910217,2.121150493621826,43.281044006347656,0.16596932709217072,-0.8856788277626038,0.026098446920514107,36.97121047973633,43.76349639892578,43.94832992553711,52.88600540161133,38.457252502441406,49.145530700683594,1768378491,710979268,X6-tool2,1.1527952097460468,1.718459486150329,42.416918376649605,0.026752019832747782,0.029211155705111798,0.028519072247696675,0.06183306500315666
2026-01-14 16:14:51.833215,1768378491,829195889,1,162235,-51,1768378491,832566735,2,156918,-64,1768378491,815903163,3,165421,-129,1768378491,819235757,4,160433,-145,1768378491,822621634,5,164180,-144,1768378491,825993470,6,148030,-263,0.7389503717422485,2.186448812484741,43.39389419555664,0.15771512687206268,-0.8413659930229187,0.04375699535012245,37.09220886230469,43.90049743652344,44.22833251953125,53.16100311279297,38.77525329589844,49.67253112792969,1768378491,810448069,X6-tool2,0.8050382511442062,2.0518235175512745,42.95302789935019,0.025616356938796186,0.02897684656942356,0.029887467971424417,0.06765524297952652
2026-01-14 16:14:51.868531,1768378491,849218976,1,162114,-73,1768378491,852569601,2,156791,-54,1768378491,855882535,3,164938,-126,1768378491,859237330,4,159944,-113,1768378491,862553814,5,163592,-142,1768378491,865861227,6,147030,-251,0.6398629546165466,2.3132665157318115,43.611289978027344,0.10579973459243774,-0.7331164479255676,0.09847930818796158,37.361209869384766,44.16949462890625,44.71733093261719,53.71000671386719,39.36825180053711,50.68852996826172,1768378491,810448069,X6-tool2,0.8050382511442062,2.0518235175512745,42.95302789935019,0.025616356938796186,0.02897684656942356,0.029887467971424417,0.06765524297952652
2026-01-14 16:14:51.903907,1768378491,889214448,1,161900,-59,1768378491,892541963,2,156500,-75,1768378491,895903388,3,164449,-147,1768378491,899265574,4,159461,-127,1768378491,902530205,5,162933,-176,1768378491,885886104,6,146508,-268,0.5234190821647644,2.42684268951416,43.81736755371094,0.10214924067258835,-0.6015149354934692,0.12994517385959625,37.57521057128906,44.43849563598633,45.194332122802734,54.177005767822266,40.011253356933594,51.71052932739258,1768378491,810448069,X6-tool2,0.8050382511442062,2.0518235175512745,42.95302789935019,0.025616356938796186,0.02897684656942356,0.029887467971424417,0.06765524297952652
2026-01-14 16:14:51.938919,1768378491,929237501,1,161664,-58,1768378491,932569246,2,156242,-69,1768378491,935905190,3,163900,-140,1768378491,919366333,4,159197,-142,1768378491,922628565,5,162625,-149,1768378491,925939249,6,145470,-243,0.4160495400428772,2.5439038276672363,44.02726745605469,0.0877886414527893,-0.4873017966747284,0.17417512834072113,37.81121063232422,44.71949768066406,45.71133041381836,54.683006286621094,40.63225173950195,52.748531341552734,1768378491,910075797,X6-tool2,0.487356620895093,2.3435618072917226,43.44513651895521,0.020668365514760118,0.027052025820808158,0.032720221052188275,0.06493282318115234
2026-01-14 16:14:51.974981,1768378491,969331138,1,161461,-53,1768378491,972569688,2,155956,-67,1768378491,955913257,3,163658,-131,1768378491,959377977,4,158665,-88,1768378491,962667329,5,162010,-159,1768378491,966008654,6,144454,-248,0.3690931797027588,2.6061439514160156,44.12800979614258,0.09512051939964294,-0.4327472150325775,0.19143863022327423,37.91020965576172,44.845497131347656,45.99633026123047,54.946006774902344,40.93925094604492,53.25353240966797,1768378491,910075797,X6-tool2,0.487356620895093,2.3435618072917226,43.44513651895521,0.020668365514760118,0.027052025820808158,0.032720221052188275,0.06493282318115234
2026-01-14 16:14:52.010811,1768378492,9213286,1,161235,-52,1768378491,992540903,2,155830,-64,1768378491,995879568,3,163147,-129,1768378491,999238083,4,158148,-132,1768378492,2546327,5,161384,-158,1768378492,5942904,6,143421,-253,0.27449163794517517,2.720533847808838,44.332794189453125,0.10499710589647293,-0.28379353880882263,0.24217543005943298,38.124210357666016,45.13149642944336,46.49633026123047,55.4680061340332,41.571250915527344,54.27553176879883,1768378492,9238027,X6-tool2,0.23562330019071484,2.6883540793458134,43.93996351713294,0.015358213934398908,0.02591160828447395,0.03507762427355032,0.0645202025771141
2026-01-14 16:14:52.046029,1768378492,29212322,1,161131,-50,1768378492,32541676,2,155533,-70,1768378492,35882071,3,162625,-103,1768378492,39213175,4,157621,-129,1768378492,42543159,5,160774,-172,1768378492,25885598,6,142905,-243,0.18162594735622406,2.840895175933838,44.533241271972656,0.09454931318759918,-0.15452507138252258,0.3058140277862549,38.344207763671875,45.40049743652344,47.01333236694336,55.9950065612793,42.17025375366211,55.31352996826172,1768378492,9238027,X6-tool2,0.23562330019071484,2.6883540793458134,43.93996351713294,0.015358213934398908,0.02591160828447395,0.03507762427355032,0.0645202025771141
2026-01-14 16:14:52.081944,1768378492,69212694,1,160845,-106,1768378492,72546079,2,155226,-86,1768378492,75878543,3,162142,-115,1768378492,79237448,4,157115,-123,1768378492,62599847,5,160461,-166,1768378492,65864999,6,141894,-253,0.09598138928413391,2.9473276138305664,44.73028564453125,0.07487206161022186,-0.005381118506193161,0.3293793797492981,38.630210876464844,45.696495056152344,47.51832962036133,56.51200485229492,42.7962532043457,56.32453155517578,1768378492,9238027,X6-tool2,0.23562330019071484,2.6883540793458134,43.93996351713294,0.015358213934398908,0.02591160828447395,0.03507762427355032,0.0645202025771141
2026-01-14 16:14:52.117326,1768378492,109237767,1,160582,-67,1768378492,112571212,2,154891,-77,1768378492,115938007,3,161653,-121,1768378492,99240954,4,156962,-31,1768378492,102543748,5,159807,-144,1768378492,105884472,6,141004,-25,0.011350425891578197,3.007902145385742,44.90922546386719,0.12441331893205643,0.14609301090240479,0.2921988070011139,38.893211364746094,46.04249572753906,48.0013313293457,56.91800308227539,43.450252532958984,57.21453094482422,1768378492,108714628,X6-tool2,-0.0264698255872675,2.9747075385955326,44.46792833583769,0.009150413184313345,0.0246742731173806,0.037637086185975346,0.06455007940530777
2026-01-14 16:14:52.152762,1768378492,149209219,1,160318,-58,1768378492,132634110,2,154737,-78,1768378492,135933923,3,161526,-31,1768378492,139378752,4,156918,0,1768378492,142662464,5,159604,-8,1768378492,145946607,6,140900,0,0.0004858568718191236,2.9787094593048096,44.944602966308594,0.18147340416908264,0.11481631547212601,0.17882268130779266,39.025211334228516,46.196495056152344,48.24333190917969,56.95100402832031,43.61525344848633,57.30253219604492,1768378492,108714628,X6-tool2,-0.0264698255872675,2.9747075385955326,44.46792833583769,0.009150413184313345,0.0246742731173806,0.037637086185975346,0.06455007940530777
2026-01-14 16:14:52.188565,1768378492,169211645,1,160192,-64,1768378492,172542709,2,154561,-11,1768378492,175878343,3,161494,0,1768378492,179223679,4,156912,0,1768378492,182599484,5,159598,0,1768378492,185879887,6,140894,0,-0.003486931324005127,2.900139808654785,44.99247360229492,0.17949950695037842,0.021032661199569702,0.11349035799503326,39.28321075439453,46.48749542236328,48.39733123779297,56.962005615234375,43.65925216674805,57.32453155517578,1768378492,108714628,X6-tool2,-0.0264698255872675,2.9747075385955326,44.46792833583769,0.009150413184313345,0.0246742731173806,0.037637086185975346,0.06455007940530777
2026-01-14 16:14:52.224148,1768378492,209219778,1,159950,-62,1768378492,212541891,2,154550,0,1768378492,215928868,3,161494,0,1768378492,219223271,4,156912,0,1768378492,222674270,5,159593,0,1768378492,205927925,6,140894,0,-0.0024105363991111517,2.8868489265441895,45.00069046020508,0.06377103179693222,-0.0020541695412248373,0.04180838167667389,39.525211334228516,46.53749465942383,48.4023323059082,56.9680061340332,43.65925216674805,57.32453155517578,1768378492,208336134,X6-tool2,-0.15111975288493681,2.950931266145154,44.61774795206378,0.00834061558284171,0.02305036815425146,0.03736177978209894,0.06278292089700699
2026-01-14 16:14:52.259152,1768378492,249214840,1,159840,-10,1768378492,252542454,2,154545,0,1768378492,255995163,3,161494,0,1768378492,239240907,4,156912,0,1768378492,242556531,5,159593,0,1768378492,245866095,6,140894,0,-0.0024105363991111517,2.8868489265441895,45.00069046020508,0.004469976294785738,-0.0060430471785366535,0.0009566007647663355,39.63520812988281,46.53749465942383,48.4023323059082,56.9680061340332,43.66425323486328,57.32453155517578,1768378492,208336134,X6-tool2,-0.15111975288493681,2.950931266145154,44.61774795206378,0.00834061558284171,0.02305036815425146,0.03736177978209894,0.06278292089700699
2026-01-14 16:14:52.295039,1768378492,289197711,1,159835,0,1768378492,292542966,2,154545,0,1768378492,275892405,3,161494,0,1768378492,279211179,4,156912,0,1768378492,282542033,5,159593,-6,1768378492,285885208,6,140894,0,-0.002448596525937319,2.8854305744171143,45.0014533996582,0.004469976294785738,-0.0060430471785366535,0.0009566007647663355,39.64020919799805,46.54249572753906,48.4023323059082,56.9680061340332,43.66425323486328,57.32453155517578,1768378492,208336134,X6-tool2,-0.15111975288493681,2.950931266145154,44.61774795206378,0.00834061558284171,0.02305036815425146,0.03736177978209894,0.06278292089700699
2026-01-14 16:14:52.330894,1768378492,329212334,1,159835,0,1768378492,312569373,2,154545,0,1768378492,315902288,3,161494,0,1768378492,319301854,4,156912,0,1768378492,322620218,5,159593,0,1768378492,325886390,6,140894,0,-0.002448596525937319,2.8854305744171143,45.0014533996582,0.004469976294785738,-0.0060430471785366535,0.0009566007647663355,39.64020919799805,46.54249572753906,48.4023323059082,56.9680061340332,43.66425323486328,57.32453155517578,1768378492,307720553,X6-tool2,-0.1591113088496449,2.9364344883431226,44.72429916189848,0.008046318792625075,0.020861326917280217,0.03739443401356893,0.06308683007955551
2026-01-14 16:14:52.366286,1768378492,349262372,1,159835,0,1768378492,352567636,2,154545,0,1768378492,355931601,3,161494,0,1768378492,359310367,4,156912,0,1768378492,362543198,5,159593,0,1768378492,345940028,6,140894,0,-0.002448596525937319,2.8854305744171143,45.0014533996582,0.004469976294785738,-0.0060430471785366535,0.0009566007647663355,39.64020919799805,46.54249572753906,48.4023323059082,56.9680061340332,43.66425323486328,57.32453155517578,1768378492,307720553,X6-tool2,-0.1591113088496449,2.9364344883431226,44.72429916189848,0.008046318792625075,0.020861326917280217,0.03739443401356893,0.06308683007955551
2026-01-14 16:14:52.402139,1768378492,389265365,1,159835,0,1768378492,392569398,2,154545,0,1768378492,395933483,3,161494,0,1768378492,399229027,4,156912,0,1768378492,382599016,5,159593,0,1768378492,385886239,6,140894,0,-0.002448596525937319,2.8854305744171143,45.0014533996582,0.004469976294785738,-0.0060430471785366535,0.0009566007647663355,39.64020919799805,46.54249572753906,48.4023323059082,56.9680061340332,43.66425323486328,57.32453155517578,1768378492,307720553,X6-tool2,-0.1591113088496449,2.9364344883431226,44.72429916189848,0.008046318792625075,0.020861326917280217,0.03739443401356893,0.06308683007955551
2026-01-14 16:14:52.437899,1768378492,429234366,1,159835,0,1768378492,432564460,2,154545,0,1768378492,435930616,3,161494,0,1768378492,419393479,4,156912,0,1768378492,422598838,5,159593,0,1768378492,425879551,6,140894,0,-0.002448596525937319,2.8854305744171143,45.0014533996582,0.004469976294785738,-0.0060430471785366535,0.0009566007647663355,39.64020919799805,46.54249572753906,48.4023323059082,56.9680061340332,43.66425323486328,57.32453155517578,1768378492,407299168,X6-tool2,-0.15492375367471073,2.956466028437791,44.71024397765136,0.00837984365653414,0.020369687166010553,0.03752943722652455,0.06100527569651604
2026-01-14 16:14:52.473914,1768378492,469264869,1,159835,0,1768378492,472541012,2,154545,0,1768378492,456087408,3,161494,0,1768378492,459411381,4,156907,0,1768378492,462755946,5,159593,0,1768378492,465879583,6,140894,0,-0.0012348444433882833,2.8861756324768066,45.001930236816406,0.004469976294785738,-0.0060430471785366535,0.0009566007647663355,39.64020919799805,46.54249572753906,48.4023323059082,56.97300338745117,43.66425323486328,57.32453155517578,1768378492,407299168,X6-tool2,-0.15492375367471073,2.956466028437791,44.71024397765136,0.00837984365653414,0.020369687166010553,0.03752943722652455,0.06100527569651604
2026-01-14 16:14:52.509237,1768378492,489204513,1,159835,0,1768378492,492567029,2,154545,0,1768378492,495882752,3,161494,0,1768378492,499235558,4,156907,0,1768378492,502553991,5,159593,0,1768378492,505886786,6,140894,0,-0.0012348444433882833,2.8861756324768066,45.001930236816406,0.004469976294785738,-0.0060430471785366535,0.0009566007647663355,39.64020919799805,46.54249572753906,48.4023323059082,56.97300338745117,43.66425323486328,57.32453155517578,1768378492,506568671,X6-tool2,-0.16198982479864008,2.957131993268699,44.69648627819289,0.008475223811213718,0.02014906003089423,0.03773984937347639,0.060250598937273026
2026-01-14 16:14:52.544884,1768378492,529212316,1,159835,0,1768378492,532541410,2,154545,0,1768378492,535938417,3,161499,0,1768378492,539333033,4,156907,0,1768378492,542761351,5,159593,0,1768378492,525886042,6,140894,0,-0.0012348444433882833,2.8861756324768066,45.001930236816406,0.004469976294785738,-0.0060430471785366535,0.0009566007647663355,39.64020919799805,46.54249572753906,48.39733123779297,56.97300338745117,43.66425323486328,57.32453155517578,1768378492,506568671,X6-tool2,-0.16198982479864008,2.957131993268699,44.69648627819289,0.008475223811213718,0.02014906003089423,0.03773984937347639,0.060250598937273026
2026-01-14 16:14:52.580321,1768378492,569369974,1,159835,0,1768378492,572700708,2,154545,0,1768378492,575905738,3,161499,0,1768378492,579237322,4,156907,0,1768378492,562576981,5,159593,0,1768378492,566006909,6,140894,0,-0.0012348444433882833,2.8861756324768066,45.001930236816406,0.004469976294785738,-0.0060430471785366535,0.0009566007647663355,39.64020919799805,46.54249572753906,48.39733123779297,56.97300338745117,43.66425323486328,57.32453155517578,1768378492,506568671,X6-tool2,-0.16198982479864008,2.957131993268699,44.69648627819289,0.008475223811213718,0.02014906003089423,0.03773984937347639,0.060250598937273026
2026-01-14 16:14:52.615628,1768378492,609209880,1,159835,0,1768378492,612542235,2,154545,0,1768378492,595992707,3,161499,0,1768378492,599243209,4,156907,0,1768378492,602640165,5,159593,0,1768378492,605890446,6,140894,0,-0.0012348444433882833,2.8861756324768066,45.001930236816406,0.004469976294785738,-0.0060430471785366535,0.0009566007647663355,39.64020919799805,46.54249572753906,48.39733123779297,56.97300338745117,43.66425323486328,57.32453155517578,1768378492,606308322,X6-tool2,-0.14891513322154365,2.9724851287556007,44.7511731509051,0.008915528096295646,0.020016442175787342,0.03779248205492949,0.06283537298440933
2026-01-14 16:14:52.651123,1768378492,649242414,1,159829,0,1768378492,632569482,2,154545,0,1768378492,635877885,3,161499,0,1768378492,639242541,4,156907,0,1768378492,642572735,5,159593,0,1768378492,645915100,6,140894,0,-0.0012348444433882833,2.8861756324768066,45.001930236816406,0.004469976294785738,-0.0060430471785366535,0.0009566007647663355,39.64020919799805,46.54249572753906,48.39733123779297,56.97300338745117,43.66425323486328,57.32453155517578,1768378492,606308322,X6-tool2,-0.14891513322154365,2.9724851287556007,44.7511731509051,0.008915528096295646,0.020016442175787342,0.03779248205492949,0.06283537298440933
2026-01-14 16:14:52.687198,1768378492,669235510,1,159829,0,1768378492,672545273,2,154545,0,1768378492,675904129,3,161499,0,1768378492,679268084,4,156907,0,1768378492,682573018,5,159593,0,1768378492,685885991,6,140894,0,-0.0012348444433882833,2.8861756324768066,45.001930236816406,0.004469976294785738,-0.0060430471785366535,0.0009566007647663355,39.646209716796875,46.54249572753906,48.39733123779297,56.97300338745117,43.66425323486328,57.32453155517578,1768378492,606308322,X6-tool2,-0.14891513322154365,2.9724851287556007,44.7511731509051,0.008915528096295646,0.020016442175787342,0.03779248205492949,0.06283537298440933
2026-01-14 16:14:52.722383,1768378492,709235352,1,159829,0,1768378492,712569597,2,154545,0,1768378492,715900951,3,161499,0,1768378492,719236906,4,156907,0,1768378492,702639496,5,159593,0,1768378492,705889937,6,140894,0,-0.0012348444433882833,2.8861756324768066,45.001930236816406,0.004469976294785738,-0.0060430471785366535,0.0009566007647663355,39.646209716796875,46.54249572753906,48.39733123779297,56.97300338745117,43.66425323486328,57.32453155517578,1768378492,705487602,X6-tool2,-0.1452044546585584,2.938168875025557,44.70588625306319,0.007745200677164917,0.020019525688512143,0.037837829482963846,0.06160926818847656
2026-01-14 16:14:52.758271,1768378492,749236465,1,159829,0,1768378492,752546308,2,154545,0,1768378492,755967406,3,161499,0,1768378492,739310834,4,156907,0,1768378492,742681810,5,159593,0,1768378492,745895710,6,140894,0,-0.0012348444433882833,2.8861756324768066,45.001930236816406,0.004469976294785738,-0.0060430471785366535,0.0009566007647663355,39.646209716796875,46.54249572753906,48.39733123779297,56.97300338745117,43.66425323486328,57.32453155517578,1768378492,705487602,X6-tool2,-0.1452044546585584,2.938168875025557,44.70588625306319,0.007745200677164917,0.020019525688512143,0.037837829482963846,0.06160926818847656
2026-01-14 16:14:52.793953,1768378492,789237147,1,159829,0,1768378492,792543100,2,154545,0,1768378492,775966162,3,161499,0,1768378492,779266125,4,156907,0,1768378492,782543597,5,159593,0,1768378492,785887922,6,140894,0,-0.0012348444433882833,2.8861756324768066,45.001930236816406,0.004469976294785738,-0.0060430471785366535,0.0009566007647663355,39.646209716796875,46.54249572753906,48.39733123779297,56.97300338745117,43.66425323486328,57.32453155517578,1768378492,705487602,X6-tool2,-0.1452044546585584,2.938168875025557,44.70588625306319,0.007745200677164917,0.020019525688512143,0.037837829482963846,0.06160926818847656
2026-01-14 16:14:52.828977,1768378492,809235283,1,159829,0,1768378492,812580848,2,154545,0,1768378492,815967104,3,161499,0,1768378492,819238966,4,156907,0,1768378492,822573190,5,159593,0,1768378492,825888644,6,140894,0,-0.0012348444433882833,2.8861756324768066,45.001930236816406,0.004469976294785738,-0.0060430471785366535,0.0009566007647663355,39.646209716796875,46.54249572753906,48.39733123779297,56.97300338745117,43.66425323486328,57.32453155517578,1768378492,805054917,X6-tool2,-0.16854492896440326,2.9876064452985682,44.748009239164894,0.009063732062368891,0.02032053477271665,0.03775156245893804,0.06409136205911636
2026-01-14 16:14:52.864706,1768378492,849302528,1,159829,0,1768378492,852570160,2,154545,0,1768378492,855878613,3,161499,0,1768378492,859239318,4,156907,0,1768378492,862572313,5,159593,0,1768378492,845945973,6,140894,0,-0.0012348444433882833,2.8861756324768066,45.001930236816406,0.004469976294785738,-0.0060430471785366535,0.0009566007647663355,39.646209716796875,46.54249572753906,48.39733123779297,56.97300338745117,43.66425323486328,57.32453155517578,1768378492,805054917,X6-tool2,-0.16854492896440326,2.9876064452985682,44.748009239164894,0.009063732062368891,0.02032053477271665,0.03775156245893804,0.06409136205911636
2026-01-14 16:14:52.900618,1768378492,889236468,1,159829,0,1768378492,892567362,2,154545,0,1768378492,895902626,3,161499,0,1768378492,899237630,4,156907,0,1768378492,882571289,5,159593,0,1768378492,885886973,6,140894,0,-0.0012348444433882833,2.8861756324768066,45.001930236816406,0.004469976294785738,-0.0060430471785366535,0.0009566007647663355,39.646209716796875,46.54249572753906,48.39733123779297,56.97300338745117,43.66425323486328,57.32453155517578,1768378492,805054917,X6-tool2,-0.16854492896440326,2.9876064452985682,44.748009239164894,0.009063732062368891,0.02032053477271665,0.03775156245893804,0.06409136205911636
2026-01-14 16:14:52.935642,1768378492,929233600,1,159829,0,1768378492,932578095,2,154545,0,1768378492,915903632,3,161499,0,1768378492,919239967,4,156907,0,1768378492,922570871,5,159593,0,1768378492,925888075,6,140894,0,-0.0012348444433882833,2.8861756324768066,45.001930236816406,0.004469976294785738,-0.0060430471785366535,0.0009566007647663355,39.646209716796875,46.54249572753906,48.39733123779297,56.97300338745117,43.66425323486328,57.32453155517578,1768378492,904599121,X6-tool2,-0.16731656811305257,2.9393631484193503,44.73802808019164,0.0081163279161943,0.02031484813810446,0.03796091586131006,0.06242656707763672
2026-01-14 16:14:52.971492,1768378492,969238882,1,159829,0,1768378492,952581201,2,154545,0,1768378492,955903335,3,161499,0,1768378492,959371374,4,156907,0,1768378492,962716449,5,159593,0,1768378492,966017582,6,140894,0,-0.0012348444433882833,2.8861756324768066,45.001930236816406,0.004469976294785738,-0.0060430471785366535,0.0009566007647663355,39.646209716796875,46.54249572753906,48.39733123779297,56.97300338745117,43.66425323486328,57.32453155517578,1768378492,904599121,X6-tool2,-0.16731656811305257,2.9393631484193503,44.73802808019164,0.0081163279161943,0.02031484813810446,0.03796091586131006,0.06242656707763672
2026-01-14 16:14:53.008474,1768378492,989236898,1,159829,0,1768378492,992606614,2,154545,0,1768378492,995877546,3,161499,0,1768378492,999239401,4,156907,0,1768378493,2570776,5,159593,0,1768378493,5886450,6,140894,0,-0.0012348444433882833,2.8861756324768066,45.001930236816406,0.004469976294785738,-0.0060430471785366535,0.0009566007647663355,39.646209716796875,46.54249572753906,48.39733123779297,56.97300338745117,43.66425323486328,57.32453155517578,1768378493,4568040,X6-tool2,-0.15692411364551198,2.968219736085376,44.66505486721141,0.008416769910223222,0.019786102768834926,0.03784738286457526,0.06487337499856949
2026-01-14 16:14:53.043872,1768378493,29234201,1,159829,0,1768378493,32594456,2,154545,0,1768378493,35880439,3,161499,0,1768378493,39241354,4,156907,0,1768378493,42636881,5,159593,0,1768378493,25885786,6,140894,0,-0.0012348444433882833,2.8861756324768066,45.001930236816406,0.004469976294785738,-0.0060430471785366535,0.0009566007647663355,39.646209716796875,46.54249572753906,48.39733123779297,56.97300338745117,43.66425323486328,57.32453155517578,1768378493,4568040,X6-tool2,-0.15692411364551198,2.968219736085376,44.66505486721141,0.008416769910223222,0.019786102768834926,0.03784738286457526,0.06487337499856949
2026-01-14 16:14:53.079324,1768378493,69212292,1,159829,0,1768378493,72572777,2,154545,0,1768378493,75970794,3,161499,0,1768378493,59240950,4,156907,0,1768378493,62573904,5,159593,0,1768378493,65887098,6,140894,0,-0.0012348444433882833,2.8861756324768066,45.001930236816406,0.004469976294785738,-0.0060430471785366535,0.0009566007647663355,39.646209716796875,46.54249572753906,48.39733123779297,56.97300338745117,43.66425323486328,57.32453155517578,1768378493,4568040,X6-tool2,-0.15692411364551198,2.968219736085376,44.66505486721141,0.008416769910223222,0.019786102768834926,0.03784738286457526,0.06487337499856949
2026-01-14 16:14:53.114490,1768378493,109242135,1,159829,0,1768378493,112606021,2,154545,0,1768378493,95904147,3,161499,0,1768378493,99238952,4,156907,0,1768378493,102640909,5,159593,0,1768378493,105890440,6,140894,0,-0.0012348444433882833,2.8861756324768066,45.001930236816406,0.004469976294785738,-0.0060430471785366535,0.0009566007647663355,39.646209716796875,46.54249572753906,48.39733123779297,56.97300338745117,43.66425323486328,57.32453155517578,1768378493,104757878,X6-tool2,-0.15519137332299426,2.9701940291600923,44.72248476646803,0.008606782683762491,0.020029683551710562,0.037897993912137704,0.06490198522806168
2026-01-14 16:14:53.149843,1768378493,149236337,1,159829,0,1768378493,132545065,2,154545,0,1768378493,135881339,3,161499,0,1768378493,139242735,4,156907,0,1768378493,142545298,5,159593,0,1768378493,145867322,6,140894,0,-0.0012348444433882833,2.8861756324768066,45.001930236816406,0.004469976294785738,-0.0060430471785366535,0.0009566007647663355,39.646209716796875,46.54249572753906,48.39733123779297,56.97300338745117,43.66425323486328,57.32453155517578,1768378493,104757878,X6-tool2,-0.15519137332299426,2.9701940291600923,44.72248476646803,0.008606782683762491,0.020029683551710562,0.037897993912137704,0.06490198522806168
2026-01-14 16:14:53.185368,1768378493,169280875,1,159829,0,1768378493,172557017,2,154545,0,1768378493,175908192,3,161499,0,1768378493,179216656,4,156907,0,1768378493,182559810,5,159593,0,1768378493,165885708,6,140894,0,-0.0012348444433882833,2.8861756324768066,45.001930236816406,0.004469976294785738,-0.0060430471785366535,0.0009566007647663355,39.646209716796875,46.54249572753906,48.39733123779297,56.97300338745117,43.66425323486328,57.32453155517578,1768378493,104757878,X6-tool2,-0.15519137332299426,2.9701940291600923,44.72248476646803,0.008606782683762491,0.020029683551710562,0.037897993912137704,0.06490198522806168
2026-01-14 16:14:53.221301,1768378493,209223345,1,159829,0,1768378493,212595741,2,154545,0,1768378493,215863363,3,161505,0,1768378493,219308271,4,156907,0,1768378493,202566477,5,159593,0,1768378493,205890431,6,140894,0,-0.0012348444433882833,2.8861756324768066,45.001930236816406,0.004469976294785738,-0.0060430471785366535,0.0009566007647663355,39.646209716796875,46.54249572753906,48.39733123779297,56.97300338745117,43.66425323486328,57.32453155517578,1768378493,204584452,X6-tool2,-0.15284134378520964,2.9884312418601295,44.73601706680257,0.008926679913018164,0.019892906210410528,0.03791033872281658,0.058284442871809006
2026-01-14 16:14:53.256441,1768378493,249214247,1,159829,0,1768378493,252572522,2,154545,0,1768378493,255889856,3,161505,0,1768378493,239242855,4,156907,0,1768378493,242549308,5,159593,0,1768378493,245919364,6,140894,0,-0.0012348444433882833,2.8861756324768066,45.001930236816406,-0.0014405397232621908,-0.001590996515005827,0.002707056235522032,39.646209716796875,46.54249572753906,48.39133071899414,56.97300338745117,43.66425323486328,57.32453155517578,1768378493,204584452,X6-tool2,-0.15284134378520964,2.9884312418601295,44.73601706680257,0.008926679913018164,0.019892906210410528,0.03791033872281658,0.058284442871809006
2026-01-14 16:14:53.291736,1768378493,289219789,1,159829,0,1768378493,272500205,2,154545,0,1768378493,275933994,3,161505,0,1768378493,279272128,4,156907,0,1768378493,282554901,5,159593,0,1768378493,285879105,6,140900,0,-2.2484626242658123e-05,2.8855140209198,45.0013542175293,-0.0014405397232621908,-0.001590996515005827,0.002707056235522032,39.646209716796875,46.54249572753906,48.39133071899414,56.97300338745117,43.66425323486328,57.31853103637695,1768378493,204584452,X6-tool2,-0.15284134378520964,2.9884312418601295,44.73601706680257,0.008926679913018164,0.019892906210410528,0.03791033872281658,0.058284442871809006
2026-01-14 16:14:53.327791,1768378493,309333959,1,159829,0,1768378493,312672404,2,154545,0,1768378493,316006598,3,161505,0,1768378493,319288661,4,156907,0,1768378493,322670917,5,159593,0,1768378493,326001501,6,140900,0,-2.2484626242658123e-05,2.8855140209198,45.0013542175293,-0.0014405397232621908,-0.001590996515005827,0.002707056235522032,39.646209716796875,46.54249572753906,48.39133071899414,56.97300338745117,43.66425323486328,57.31853103637695,1768378493,304449427,X6-tool2,-0.14036498569316228,2.9792443303934766,44.71920804466162,0.008744026665105467,0.01959439039041645,0.037814237777150365,0.06191476061940193
2026-01-14 16:14:53.363339,1768378493,349339692,1,159829,0,1768378493,352667936,2,154545,0,1768378493,355999450,3,161505,0,1768378493,359336274,4,156907,0,1768378493,362685950,5,159593,0,1768378493,346003808,6,140900,0,-2.2484626242658123e-05,2.8855140209198,45.0013542175293,-0.0014405397232621908,-0.001590996515005827,0.002707056235522032,39.646209716796875,46.54249572753906,48.39133071899414,56.97300338745117,43.66425323486328,57.31853103637695,1768378493,304449427,X6-tool2,-0.14036498569316228,2.9792443303934766,44.71920804466162,0.008744026665105467,0.01959439039041645,0.037814237777150365,0.06191476061940193
2026-01-14 16:14:53.399126,1768378493,389210439,1,159829,0,1768378493,392528553,2,154545,0,1768378493,395880098,3,161505,0,1768378493,379337121,4,156907,0,1768378493,382672135,5,159593,0,1768378493,385860534,6,140900,0,-2.2484626242658123e-05,2.8855140209198,45.0013542175293,-0.0014405397232621908,-0.001590996515005827,0.002707056235522032,39.646209716796875,46.54249572753906,48.39133071899414,56.97300338745117,43.66425323486328,57.31853103637695,1768378493,304449427,X6-tool2,-0.14036498569316228,2.9792443303934766,44.71920804466162,0.008744026665105467,0.01959439039041645,0.037814237777150365,0.06191476061940193
2026-01-14 16:14:53.434658,1768378493,429230522,1,159829,0,1768378493,432557006,2,154545,0,1768378493,415895435,3,161505,0,1768378493,419268471,4,156907,0,1768378493,422562333,5,159593,0,1768378493,425931989,6,140900,0,-2.2484626242658123e-05,2.8855140209198,45.0013542175293,-0.0014405397232621908,-0.001590996515005827,0.002707056235522032,39.646209716796875,46.54249572753906,48.39133071899414,56.97300338745117,43.66425323486328,57.31853103637695,1768378493,404973007,X6-tool2,-0.14791450092440184,2.966368302234036,44.72926455219573,0.008478137041330993,0.01978427893991967,0.03792405214622571,0.06252638250589371
2026-01-14 16:14:53.470546,1768378493,469264256,1,159829,0,1768378493,452543352,2,154545,0,1768378493,455932128,3,161505,0,1768378493,459307364,4,156907,0,1768378493,462679610,5,159593,0,1768378493,465888020,6,140900,0,-2.2484626242658123e-05,2.8855140209198,45.0013542175293,-0.0014405397232621908,-0.001590996515005827,0.002707056235522032,39.646209716796875,46.54249572753906,48.39133071899414,56.97300338745117,43.66425323486328,57.31853103637695,1768378493,404973007,X6-tool2,-0.14791450092440184,2.966368302234036,44.72926455219573,0.008478137041330993,0.01978427893991967,0.03792405214622571,0.06252638250589371
2026-01-14 16:14:53.506061,1768378493,489221520,1,159829,0,1768378493,492551484,2,154545,0,1768378493,495916200,3,161505,0,1768378493,499137650,4,156907,0,1768378493,502530576,5,159593,0,1768378493,485867455,6,140900,0,-2.2484626242658123e-05,2.8855140209198,45.0013542175293,-0.0014405397232621908,-0.001590996515005827,0.002707056235522032,39.646209716796875,46.54249572753906,48.39133071899414,56.97300338745117,43.66425323486328,57.31853103637695,1768378493,504562932,X6-tool2,-0.15893567777885714,2.948511475739327,44.75912478347472,0.008209879277662207,0.02025314876474421,0.0379096926039214,0.06116676330566406
2026-01-14 16:14:53.542207,1768378493,529242373,1,159829,0,1768378493,532575087,2,154545,0,1768378493,535890791,3,161505,0,1768378493,539235546,4,156907,0,1768378493,522529702,5,159593,0,1768378493,526020473,6,140900,0,-2.2484626242658123e-05,2.8855140209198,45.0013542175293,-0.0014405397232621908,-0.001590996515005827,0.002707056235522032,39.646209716796875,46.54249572753906,48.39133071899414,56.97300338745117,43.66425323486328,57.31853103637695,1768378493,504562932,X6-tool2,-0.15893567777885714,2.948511475739327,44.75912478347472,0.008209879277662207,0.02025314876474421,0.0379096926039214,0.06116676330566406
2026-01-14 16:14:53.578359,1768378493,569247975,1,159829,0,1768378493,572556939,2,154545,0,1768378493,575926545,3,161505,0,1768378493,559223182,4,156907,0,1768378493,562491943,5,159593,0,1768378493,565888100,6,140900,0,-2.2484626242658123e-05,2.8855140209198,45.0013542175293,-0.0014405397232621908,-0.001590996515005827,0.002707056235522032,39.646209716796875,46.54249572753906,48.39133071899414,56.97300338745117,43.66425323486328,57.31853103637695,1768378493,504562932,X6-tool2,-0.15893567777885714,2.948511475739327,44.75912478347472,0.008209879277662207,0.02025314876474421,0.0379096926039214,0.06116676330566406
2026-01-14 16:14:53.614416,1768378493,609226887,1,159829,0,1768378493,612575241,2,154545,0,1768378493,595890459,3,161505,0,1768378493,599249795,4,156907,0,1768378493,602585459,5,159593,0,1768378493,605903223,6,140900,5,-2.2484626242658123e-05,2.8855140209198,45.0013542175293,-0.0014405397232621908,-0.001590996515005827,0.002707056235522032,39.646209716796875,46.54249572753906,48.39133071899414,56.97300338745117,43.66425323486328,57.31853103637695,1768378493,604800302,X6-tool2,-0.16319588562314388,2.971608781176779,44.723648516662024,0.008572370726150398,0.020005831801187802,0.03783047082626469,0.059985797852277756
2026-01-14 16:14:53.649417,1768378493,629183501,1,159829,0,1768378493,632562137,2,154545,0,1768378493,635866881,3,161505,0,1768378493,639212295,4,156907,0,1768378493,642561880,5,159593,0,1768378493,645915965,6,140900,0,-2.2484626242658123e-05,2.8855140209198,45.0013542175293,-0.0014405397232621908,-0.001590996515005827,0.002707056235522032,39.646209716796875,46.54249572753906,48.39133071899414,56.97300338745117,43.66425323486328,57.31853103637695,1768378493,604800302,X6-tool2,-0.16319588562314388,2.971608781176779,44.723648516662024,0.008572370726150398,0.020005831801187802,0.03783047082626469,0.059985797852277756
2026-01-14 16:14:53.685151,1768378493,669248916,1,159829,0,1768378493,672580810,2,154545,0,1768378493,675892364,3,161505,0,1768378493,679248789,4,156907,0,1768378493,682556752,5,159593,0,1768378493,665896291,6,140900,0,-2.2484626242658123e-05,2.8855140209198,45.0013542175293,-0.0014405397232621908,-0.001590996515005827,0.002707056235522032,39.646209716796875,46.54249572753906,48.39133071899414,56.97300338745117,43.66425323486328,57.31853103637695,1768378493,604800302,X6-tool2,-0.16319588562314388,2.971608781176779,44.723648516662024,0.008572370726150398,0.020005831801187802,0.03783047082626469,0.059985797852277756
2026-01-14 16:14:53.720994,1768378493,709220177,1,159829,0,1768378493,712561462,2,154545,0,1768378493,715886566,3,161505,0,1768378493,719246051,4,156907,0,1768378493,702558438,5,159593,0,1768378493,705921044,6,140900,0,-2.2484626242658123e-05,2.8855140209198,45.0013542175293,-0.0014405397232621908,-0.001590996515005827,0.002707056235522032,39.646209716796875,46.54249572753906,48.39133071899414,56.97300338745117,43.66425323486328,57.31853103637695,1768378493,704582324,X6-tool2,-0.13216549740747605,2.9813989556611977,44.695435181445355,0.008722999666862434,0.019271094891046208,0.03786370342850057,0.06156985089182854
2026-01-14 16:14:53.755973,1768378493,749250890,1,159829,0,1768378493,752688739,2,154545,0,1768378493,735886482,3,161505,0,1768378493,739225166,4,156907,0,1768378493,742549730,5,159593,0,1768378493,745893265,6,140900,0,-2.2484626242658123e-05,2.8855140209198,45.0013542175293,-0.0014405397232621908,-0.001590996515005827,0.002707056235522032,39.646209716796875,46.54249572753906,48.39133071899414,56.97300338745117,43.66425323486328,57.31853103637695,1768378493,704582324,X6-tool2,-0.13216549740747605,2.9813989556611977,44.695435181445355,0.008722999666862434,0.019271094891046208,0.03786370342850057,0.06156985089182854
2026-01-14 16:14:53.791839,1768378493,789223862,1,159829,0,1768378493,772565500,2,154545,0,1768378493,775875153,3,161505,0,1768378493,779227699,4,156907,0,1768378493,782554933,5,159593,0,1768378493,785881647,6,140900,0,-2.2484626242658123e-05,2.8855140209198,45.0013542175293,-0.0014405397232621908,-0.001590996515005827,0.002707056235522032,39.646209716796875,46.54249572753906,48.39133071899414,56.97300338745117,43.66425323486328,57.31853103637695,1768378493,704582324,X6-tool2,-0.13216549740747605,2.9813989556611977,44.695435181445355,0.008722999666862434,0.019271094891046208,0.03786370342850057,0.06156985089182854
2026-01-14 16:14:53.828139,1768378493,809242568,1,159829,0,1768378493,812576182,2,154545,0,1768378493,815916367,3,161505,0,1768378493,819247851,4,156907,0,1768378493,822576975,5,159593,0,1768378493,825911370,6,140900,0,-2.2484626242658123e-05,2.8855140209198,45.0013542175293,-0.0014405397232621908,-0.001590996515005827,0.002707056235522032,39.646209716796875,46.54249572753906,48.39133071899414,56.97300338745117,43.66425323486328,57.31853103637695,1768378493,804941238,X6-tool2,-0.16609979372541625,2.953982184922295,44.72549365457777,0.008262500950278806,0.020090835879684278,0.03790195197318465,0.06404495239257812
2026-01-14 16:14:53.863190,1768378493,849243450,1,159829,0,1768378493,852554234,2,154545,0,1768378493,855905789,3,161505,0,1768378493,859239953,4,156907,0,1768378493,862577988,5,159587,0,1768378493,845911516,6,140900,0,-2.2484626242658123e-05,2.8855140209198,45.0013542175293,-0.0014405397232621908,-0.001590996515005827,0.002707056235522032,39.646209716796875,46.54249572753906,48.39133071899414,56.97300338745117,43.66425323486328,57.31853103637695,1768378493,804941238,X6-tool2,-0.16609979372541625,2.953982184922295,44.72549365457777,0.008262500950278806,0.020090835879684278,0.03790195197318465,0.06404495239257812
2026-01-14 16:14:53.898747,1768378493,889219042,1,159829,0,1768378493,892562046,2,154550,0,1768378493,895893011,3,161505,0,1768378493,879243829,4,156907,0,1768378493,882558173,5,159587,0,1768378493,885911818,6,140900,0,1.555748349346686e-05,2.886932611465454,45.000587463378906,0.00042312167352065444,0.003101924667134881,-0.0037861396558582783,39.646209716796875,46.53749465942383,48.39133071899414,56.97300338745117,43.67025375366211,57.31853103637695,1768378493,804941238,X6-tool2,-0.16609979372541625,2.953982184922295,44.72549365457777,0.008262500950278806,0.020090835879684278,0.03790195197318465,0.06404495239257812
2026-01-14 16:14:53.935129,1768378493,929236114,1,159829,0,1768378493,932556828,2,154550,0,1768378493,915895857,3,161505,0,1768378493,919277273,4,156907,0,1768378493,922561626,5,159587,0,1768378493,925897740,6,140900,0,1.555748349346686e-05,2.886932611465454,45.000587463378906,0.00042312167352065444,0.003101924667134881,-0.0037861396558582783,39.646209716796875,46.53749465942383,48.39133071899414,56.97300338745117,43.67025375366211,57.31853103637695,1768378493,904650528,X6-tool2,-0.16831785163344354,2.9666388656562566,44.717983294854506,0.008448093920939148,0.02006988414517925,0.03802088452435016,0.06262079626321793
2026-01-14 16:14:53.971243,1768378493,969227586,1,159829,0,1768378493,952557254,2,154550,0,1768378493,955910920,3,161505,0,1768378493,959223843,4,156907,0,1768378493,962554977,5,159587,0,1768378493,965889042,6,140900,0,1.555748349346686e-05,2.886932611465454,45.000587463378906,0.00042312167352065444,0.003101924667134881,-0.0037861396558582783,39.646209716796875,46.53749465942383,48.39133071899414,56.97300338745117,43.67025375366211,57.31853103637695,1768378493,904650528,X6-tool2,-0.16831785163344354,2.9666388656562566,44.717983294854506,0.008448093920939148,0.02006988414517925,0.03802088452435016,0.06262079626321793
2026-01-14 16:14:54.007719,1768378493,989226783,1,159829,0,1768378493,992567357,2,154550,0,1768378493,995896041,3,161505,0,1768378493,999256646,4,156907,0,1768378494,2559200,5,159587,0,1768378494,6172804,6,140900,0,1.555748349346686e-05,2.886932611465454,45.000587463378906,0.00042312167352065444,0.003101924667134881,-0.0037861396558582783,39.646209716796875,46.53749465942383,48.39133071899414,56.97300338745117,43.67025375366211,57.31853103637695,1768378494,4758202,X6-tool2,-0.14738033023235905,2.9628026561369025,44.72297402997691,0.008549274968506207,0.01967042436450256,0.03798808167665821,0.06215604022145271
2026-01-14 16:14:54.043505,1768378494,29224415,1,159829,0,1768378494,32550759,2,154550,0,1768378494,35890953,3,161505,0,1768378494,39332161,4,156907,0,1768378494,42584503,5,159587,0,1768378494,25894130,6,140900,0,1.555748349346686e-05,2.886932611465454,45.000587463378906,0.00042312167352065444,0.003101924667134881,-0.0037861396558582783,39.646209716796875,46.53749465942383,48.39133071899414,56.97300338745117,43.67025375366211,57.31853103637695,1768378494,4758202,X6-tool2,-0.14738033023235905,2.9628026561369025,44.72297402997691,0.008549274968506207,0.01967042436450256,0.03798808167665821,0.06215604022145271
2026-01-14 16:14:54.078961,1768378494,69212566,1,159829,0,1768378494,72558671,2,154550,0,1768378494,75908576,3,161505,0,1768378494,59229523,4,156907,0,1768378494,62563348,5,159587,0,1768378494,65909813,6,140900,0,1.555748349346686e-05,2.886932611465454,45.000587463378906,0.00042312167352065444,0.003101924667134881,-0.0037861396558582783,39.646209716796875,46.53749465942383,48.39133071899414,56.97300338745117,43.67025375366211,57.31853103637695,1768378494,4758202,X6-tool2,-0.14738033023235905,2.9628026561369025,44.72297402997691,0.008549274968506207,0.01967042436450256,0.03798808167665821,0.06215604022145271
2026-01-14 16:14:54.114351,1768378494,109245759,1,159829,0,1768378494,112559283,2,154550,0,1768378494,95891761,3,161505,0,1768378494,99225225,4,156907,0,1768378494,102562400,5,159587,0,1768378494,105889634,6,140900,0,1.555748349346686e-05,2.886932611465454,45.000587463378906,0.00042312167352065444,0.003101924667134881,-0.0037861396558582783,39.646209716796875,46.53749465942383,48.39133071899414,56.97300338745117,43.67025375366211,57.31853103637695,1768378494,104451811,X6-tool2,-0.17006307805471663,2.956748695787833,44.738306807137604,0.008294054825951788,0.020207576049951298,0.038081864359953255,0.05914878845214844
2026-01-14 16:14:54.149776,1768378494,149222830,1,159829,0,1768378494,132554849,2,154550,0,1768378494,135995947,3,161505,0,1768378494,139240888,4,156907,0,1768378494,142560982,5,159587,0,1768378494,145895527,6,140900,0,1.555748349346686e-05,2.886932611465454,45.000587463378906,0.00042312167352065444,0.003101924667134881,-0.0037861396558582783,39.646209716796875,46.53749465942383,48.39133071899414,56.97300338745117,43.67025375366211,57.31853103637695,1768378494,104451811,X6-tool2,-0.17006307805471663,2.956748695787833,44.738306807137604,0.008294054825951788,0.020207576049951298,0.038081864359953255,0.05914878845214844
2026-01-14 16:14:54.185347,1768378494,169222446,1,159829,0,1768378494,172552801,2,154550,0,1768378494,175885235,3,161505,0,1768378494,179238280,4,156907,0,1768378494,182548603,5,159587,0,1768378494,165888562,6,140900,0,1.555748349346686e-05,2.886932611465454,45.000587463378906,0.00042312167352065444,0.003101924667134881,-0.0037861396558582783,39.646209716796875,46.53749465942383,48.39133071899414,56.97300338745117,43.67025375366211,57.31853103637695,1768378494,104451811,X6-tool2,-0.17006307805471663,2.956748695787833,44.738306807137604,0.008294054825951788,0.020207576049951298,0.038081864359953255,0.05914878845214844
2026-01-14 16:14:54.220638,1768378494,209221409,1,159829,0,1768378494,212572423,2,154550,0,1768378494,215884567,3,161505,0,1768378494,219213191,4,156907,0,1768378494,202603481,5,159587,0,1768378494,205886874,6,140900,0,1.555748349346686e-05,2.886932611465454,45.000587463378906,0.00042312167352065444,0.003101924667134881,-0.0037861396558582783,39.646209716796875,46.53749465942383,48.39133071899414,56.97300338745117,43.67025375366211,57.31853103637695,1768378494,204692749,X6-tool2,-0.137079165894142,2.963669343562552,44.695227511317924,0.008319196227243987,0.019548983047058842,0.03786103616802382,0.06259600073099136
2026-01-14 16:14:54.255691,1768378494,249211290,1,159829,0,1768378494,252535434,2,154550,0,1768378494,235886653,3,161505,0,1768378494,239244678,4,156907,0,1768378494,242519760,5,159587,0,1768378494,245890876,6,140900,0,1.555748349346686e-05,2.886932611465454,45.000587463378906,0.00042312167352065444,0.003101924667134881,-0.0037861396558582783,39.646209716796875,46.53749465942383,48.39133071899414,56.97300338745117,43.67025375366211,57.31853103637695,1768378494,204692749,X6-tool2,-0.137079165894142,2.963669343562552,44.695227511317924,0.008319196227243987,0.019548983047058842,0.03786103616802382,0.06259600073099136
2026-01-14 16:14:54.291281,1768378494,289238563,1,159829,0,1768378494,272549220,2,154550,0,1768378494,275910826,3,161505,0,1768378494,279217449,4,156907,0,1768378494,282550773,5,159587,0,1768378494,285883668,6,140900,0,1.555748349346686e-05,2.886932611465454,45.000587463378906,0.00042312167352065444,0.003101924667134881,-0.0037861396558582783,39.646209716796875,46.53749465942383,48.39133071899414,56.97300338745117,43.67025375366211,57.31853103637695,1768378494,204692749,X6-tool2,-0.137079165894142,2.963669343562552,44.695227511317924,0.008319196227243987,0.019548983047058842,0.03786103616802382,0.06259600073099136
2026-01-14 16:14:54.327319,1768378494,309241969,1,159829,0,1768378494,312546092,2,154550,0,1768378494,315886147,3,161505,0,1768378494,319216492,4,156907,0,1768378494,322551676,5,159587,0,1768378494,325875429,6,140900,0,1.555748349346686e-05,2.886932611465454,45.000587463378906,0.00042312167352065444,0.003101924667134881,-0.0037861396558582783,39.646209716796875,46.53749465942383,48.39133071899414,56.97300338745117,43.67025375366211,57.31853103637695,1768378494,304682869,X6-tool2,-0.14239094679015377,2.9769973218682013,44.73474923741039,0.008641835017646671,0.01962307543157181,0.03788826051569146,0.059449512511491776
2026-01-14 16:14:54.362667,1768378494,349243181,1,159829,0,1768378494,352548325,2,154550,0,1768378494,356009093,3,161505,0,1768378494,359335608,4,156907,0,1768378494,342671026,5,159587,0,1768378494,345996180,6,140900,0,1.555748349346686e-05,2.886932611465454,45.000587463378906,0.00042312167352065444,0.003101924667134881,-0.0037861396558582783,39.646209716796875,46.53749465942383,48.39133071899414,56.97300338745117,43.67025375366211,57.31853103637695,1768378494,304682869,X6-tool2,-0.14239094679015377,2.9769973218682013,44.73474923741039,0.008641835017646671,0.01962307543157181,0.03788826051569146,0.059449512511491776
2026-01-14 16:14:54.398676,1768378494,389214962,1,159829,0,1768378494,392553867,2,154550,0,1768378494,395904382,3,161505,0,1768378494,379342974,4,156907,0,1768378494,382664348,5,159587,0,1768378494,385886168,6,140900,0,1.555748349346686e-05,2.886932611465454,45.000587463378906,0.00042312167352065444,0.003101924667134881,-0.0037861396558582783,39.646209716796875,46.53749465942383,48.39133071899414,56.97300338745117,43.67025375366211,57.31853103637695,1768378494,304682869,X6-tool2,-0.14239094679015377,2.9769973218682013,44.73474923741039,0.008641835017646671,0.01962307543157181,0.03788826051569146,0.059449512511491776
2026-01-14 16:14:54.434747,1768378494,429214514,1,159829,0,1768378494,432547059,2,154550,0,1768378494,415986181,3,161505,0,1768378494,419230702,4,156907,0,1768378494,422548876,5,159587,0,1768378494,425884530,6,140900,0,1.555748349346686e-05,2.886932611465454,45.000587463378906,0.00042312167352065444,0.003101924667134881,-0.0037861396558582783,39.646209716796875,46.53749465942383,48.39133071899414,56.97300338745117,43.67025375366211,57.31853103637695,1768378494,404712900,X6-tool2,-0.12951051766437913,2.9661400961936426,44.69231609178004,0.008317062890522177,0.019303013021715852,0.03804868789008172,0.06259600073099136
2026-01-14 16:14:54.470494,1768378494,469214686,1,159829,0,1768378494,452509793,2,154550,0,1768378494,455903990,3,161505,0,1768378494,459218783,4,156907,0,1768378494,462546278,5,159593,0,1768378494,465877412,6,140900,0,1.555748349346686e-05,2.886932611465454,45.000587463378906,0.00042312167352065444,0.003101924667134881,-0.0037861396558582783,39.646209716796875,46.53749465942383,48.39133071899414,56.97300338745117,43.66425323486328,57.31853103637695,1768378494,404712900,X6-tool2,-0.12951051766437913,2.9661400961936426,44.69231609178004,0.008317062890522177,0.019303013021715852,0.03804868789008172,0.06259600073099136
2026-01-14 16:14:54.506381,1768378494,489211382,1,159829,0,1768378494,492545096,2,154550,0,1768378494,495906972,3,161505,0,1768378494,499217205,4,156907,0,1768378494,502607892,5,159593,0,1768378494,505879494,6,140900,0,1.555748349346686e-05,2.886932611465454,45.000587463378906,0.00042312167352065444,0.003101924667134881,-0.0037861396558582783,39.646209716796875,46.53749465942383,48.39133071899414,56.97300338745117,43.66425323486328,57.31853103637695,1768378494,504647208,X6-tool2,-0.14749614451565216,2.965566666119372,44.71158999438031,0.008361074832608338,0.019623462039944434,0.037924133896535206,0.06784629821777344
2026-01-14 16:14:54.541616,1768378494,529266766,1,159829,0,1768378494,532562829,2,154550,0,1768378494,535878283,3,161505,0,1768378494,539403594,4,156907,0,1768378494,522544326,5,159593,0,1768378494,525866180,6,140900,0,1.555748349346686e-05,2.886932611465454,45.000587463378906,0.00042312167352065444,0.003101924667134881,-0.0037861396558582783,39.646209716796875,46.53749465942383,48.39133071899414,56.97300338745117,43.66425323486328,57.31853103637695,1768378494,504647208,X6-tool2,-0.14749614451565216,2.965566666119372,44.71158999438031,0.008361074832608338,0.019623462039944434,0.037924133896535206,0.06784629821777344
2026-01-14 16:14:54.577657,1768378494,569328490,1,159829,0,1768378494,572692906,2,154550,0,1768378494,575993869,3,161505,0,1768378494,559388840,4,156907,0,1768378494,562658081,5,159593,0,1768378494,566013647,6,140900,0,1.555748349346686e-05,2.886932611465454,45.000587463378906,0.00042312167352065444,0.003101924667134881,-0.0037861396558582783,39.646209716796875,46.53749465942383,48.39133071899414,56.97300338745117,43.66425323486328,57.31853103637695,1768378494,504647208,X6-tool2,-0.14749614451565216,2.965566666119372,44.71158999438031,0.008361074832608338,0.019623462039944434,0.037924133896535206,0.06784629821777344
2026-01-14 16:14:54.613252,1768378494,609212698,1,159829,0,1768378494,612531242,2,154506,-21,1768378494,595892562,3,161505,0,1768378494,599215045,4,156907,0,1768378494,602543899,5,159593,0,1768378494,605864983,6,140900,0,1.555748349346686e-05,2.886932611465454,45.000587463378906,0.00042312167352065444,0.003101924667134881,-0.0037861396558582783,39.646209716796875,46.53749465942383,48.39133071899414,56.97300338745117,43.66425323486328,57.31853103637695,1768378494,604959559,X6-tool2,-0.16506955961977818,2.961080714844266,44.724224435257604,0.008432665873341579,0.02009755884939849,0.03799663688327963,0.05965995788574219
2026-01-14 16:14:54.648365,1768378494,629210524,1,159824,0,1768378494,632528198,2,154468,-18,1768378494,635876203,3,161691,58,1768378494,639217417,4,157050,24,1768378494,642542721,5,159593,0,1768378494,645866065,6,140922,10,-0.01678597182035446,2.8617641925811768,44.99889373779297,-0.0027835089713335037,0.00040336811798624694,0.00562971830368042,39.65121078491211,46.58149719238281,48.315330505371094,56.89600372314453,43.66425323486328,57.30752944946289,1768378494,604959559,X6-tool2,-0.16506955961977818,2.961080714844266,44.724224435257604,0.008432665873341579,0.02009755884939849,0.03799663688327963,0.05965995788574219
2026-01-14 16:14:54.683967,1768378494,669212627,1,159807,-10,1768378494,672530760,2,154385,-17,1768378494,675879225,3,161895,49,1768378494,679243221,4,157231,42,1768378494,682541993,5,159593,0,1768378494,665864222,6,140955,14,-0.04437718540430069,2.813021183013916,44.992164611816406,-0.017788833007216454,0.03185863420367241,0.024022812023758888,39.668209075927734,46.65849685668945,48.1003303527832,56.74800491333008,43.66425323486328,57.26353073120117,1768378494,604959559,X6-tool2,-0.16506955961977818,2.961080714844266,44.724224435257604,0.008432665873341579,0.02009755884939849,0.03799663688327963,0.05965995788574219
2026-01-14 16:14:54.718993,1768378494,709320872,1,159791,-10,1768378494,712667747,2,154281,-27,1768378494,715988641,3,162136,74,1768378494,699314499,4,157341,55,1768378494,702651934,5,159593,0,1768378494,706003308,6,141015,14,-0.08357547968626022,2.7502973079681396,44.979469299316406,-0.027079835534095764,0.044175710529088974,0.024363353848457336,39.684207916259766,46.746498107910156,47.886329650878906,56.539005279541016,43.66425323486328,57.203529357910156,1768378494,704691219,X6-tool2,-0.2275368418743548,2.888529779364796,44.72936129300732,0.008725634572494818,0.019147181087735336,0.039880594548339095,0.06443945318460464
2026-01-14 16:14:54.754849,1768378494,749212770,1,159763,-5,1768378494,752528844,2,154149,-26,1768378494,736000467,3,162252,40,1768378494,739395934,4,157588,56,1768378494,742672316,5,159593,0,1768378494,745886266,6,141081,5,-0.10976177453994751,2.7071101665496826,44.97031021118164,-0.03244452551007271,0.044378895312547684,0.01609126478433609,39.701210021972656,46.806495666503906,47.76033020019531,56.39600372314453,43.66425323486328,57.15953063964844,1768378494,704691219,X6-tool2,-0.2275368418743548,2.888529779364796,44.72936129300732,0.008725634572494818,0.019147181087735336,0.039880594548339095,0.06443945318460464
2026-01-14 16:14:54.791106,1768378494,789213002,1,159747,-3,1768378494,772550071,2,154078,-36,1768378494,775880135,3,162477,57,1768378494,779240030,4,157852,66,1768378494,782547264,5,159598,0,1768378494,785882188,6,141152,20,-0.15797896683216095,2.6291744709014893,44.962135314941406,-0.03605971485376358,0.044386424124240875,0.027051815763115883,39.723209381103516,46.93849563598633,47.53533172607422,56.160003662109375,43.66425323486328,57.110530853271484,1768378494,704691219,X6-tool2,-0.2275368418743548,2.888529779364796,44.72936129300732,0.008725634572494818,0.019147181087735336,0.039880594548339095,0.06443945318460464
2026-01-14 16:14:54.826463,1768378494,809211278,1,159736,0,1768378494,812549523,2,153929,-29,1768378494,815906758,3,162713,45,1768378494,819245072,4,158088,61,1768378494,822554546,5,159593,0,1768378494,825946422,6,141191,12,-0.20362554490566254,2.542245388031006,44.95848846435547,-0.02795369178056717,0.05324088782072067,0.057170480489730835,39.73920822143555,47.10349655151367,47.28232955932617,55.93000411987305,43.66425323486328,57.0555305480957,1768378494,804779303,X6-tool2,-0.41193741858400074,2.758591017958658,44.71295993104434,0.010160921953201934,0.016047304715944215,0.04426572748038712,0.0611521415412426
2026-01-14 16:14:54.862086,1768378494,849217391,1,159714,-13,1768378494,852548205,2,153792,-40,1768378494,855904510,3,162922,57,1768378494,859238954,4,158324,41,1768378494,842550312,5,159598,0,1768378494,845885816,6,141257,36,-0.24789485335350037,2.4593021869659424,44.94101333618164,-0.020939012989401817,0.03834002837538719,0.039507944136857986,39.76121139526367,47.22349548339844,47.08433151245117,55.67100524902344,43.65925216674805,56.96153259277344,1768378494,804779303,X6-tool2,-0.41193741858400074,2.758591017958658,44.71295993104434,0.010160921953201934,0.016047304715944215,0.04426572748038712,0.0611521415412426
2026-01-14 16:14:54.897709,1768378494,889218482,1,159692,0,1768378494,892548297,2,153627,-59,1768378494,895905382,3,163163,57,1768378494,879240530,4,158472,91,1768378494,882550364,5,159593,0,1768378494,885884338,6,141334,24,-0.29666829109191895,2.371246576309204,44.92770767211914,-0.0138847129419446,0.03541021794080734,0.03835683688521385,39.78321075439453,47.36649703979492,46.85333251953125,55.40800476074219,43.66425323486328,56.88452911376953,1768378494,804779303,X6-tool2,-0.41193741858400074,2.758591017958658,44.71295993104434,0.010160921953201934,0.016047304715944215,0.04426572748038712,0.0611521415412426
2026-01-14 16:14:54.932712,1768378494,929214965,1,159670,0,1768378494,912550163,2,153528,-39,1768378494,915904308,3,163290,63,1768378494,919239532,4,158725,51,1768378494,922549916,5,159593,-7,1768378494,925883320,6,141427,15,-0.31939584016799927,2.3168017864227295,44.92086410522461,0.0017122705467045307,0.029320916160941124,0.03644917532801628,39.79420852661133,47.46049499511719,46.73332977294922,55.2650032043457,43.66425323486328,56.82453155517578,1768378494,904649998,X6-tool2,-0.5121329426103782,2.5809277614958583,44.69434614546812,0.01050425174302716,0.0134869516772248,0.04742014637244896,0.06607818603515625
2026-01-14 16:14:54.968428,1768378494,949217740,1,159659,-2,1768378494,952547925,2,153402,-22,1768378494,955911690,3,163504,51,1768378494,959239954,4,159005,75,1768378494,962605810,5,159593,0,1768378494,965882452,6,141509,21,-0.3602432608604431,2.226094961166382,44.914031982421875,0.011027639731764793,0.03306159749627113,0.05616353824734688,39.81620788574219,47.630496978759766,46.49633026123047,55.03400421142578,43.66425323486328,56.74753189086914,1768378494,904649998,X6-tool2,-0.5121329426103782,2.5809277614958583,44.69434614546812,0.01050425174302716,0.0134869516772248,0.04742014637244896,0.06607818603515625
2026-01-14 16:14:55.004345,1768378494,989216693,1,159620,-1,1768378494,992549877,2,153292,-29,1768378494,995904062,3,163729,53,1768378494,999252157,4,159340,48,1768378495,2550090,5,159582,0,1768378494,985880948,6,141531,7,-0.4417332112789154,2.1328234672546387,44.882686614990234,-0.006007881835103035,-0.014255921356379986,0.009740632027387619,39.85520935058594,47.7344970703125,46.28232955932617,54.65000534057617,43.67025375366211,56.687530517578125,1768378494,904649998,X6-tool2,-0.5121329426103782,2.5809277614958583,44.69434614546812,0.01050425174302716,0.0134869516772248,0.04742014637244896,0.06607818603515625
2026-01-14 16:14:55.040157,1768378495,29217055,1,159576,-13,1768378495,32549709,2,153155,-39,1768378495,35902674,3,163938,46,1768378495,39241809,4,159620,45,1768378495,22554916,5,159576,-3,1768378495,25882960,6,141581,17,-0.489441841840744,2.0580222606658936,44.869815826416016,-0.022891251370310783,-0.01170863676816225,0.007294686045497656,39.899208068847656,47.85549545288086,46.06233215332031,54.41300582885742,43.681251525878906,56.63753128051758,1768378495,4764772,X6-tool2,-0.6282485817051102,2.4617675250364344,44.6998074088651,0.011562308745718848,0.01280927115270427,0.048614928245788745,0.06697527319192886
2026-01-14 16:14:55.075325,1768378495,69216856,1,159527,-10,1768378495,72550391,2,152985,-38,1768378495,55905630,3,164031,48,1768378495,59239194,4,159747,71,1768378495,62550488,5,159565,-10,1768378495,65882502,6,141625,12,-0.5237053632736206,2.011929750442505,44.86274337768555,-0.031230663880705833,-0.028531650081276894,0.0018994543934240937,39.92620849609375,47.9324951171875,45.95833206176758,54.260005950927734,43.68625259399414,56.62153244018555,1768378495,4764772,X6-tool2,-0.6282485817051102,2.4617675250364344,44.6998074088651,0.011562308745718848,0.01280927115270427,0.048614928245788745,0.06697527319192886
2026-01-14 16:14:55.111627,1768378495,109218308,1,159489,-10,1768378495,92550446,2,152919,-26,1768378495,95904392,3,164284,71,1768378495,99239296,4,160032,37,1768378495,102605582,5,159527,-10,1768378495,105884994,6,141680,13,-0.5744767785072327,1.9191443920135498,44.852691650390625,-0.0216608215123415,-0.04158838093280792,0.0013512953883036971,39.9652099609375,48.10249710083008,45.749332427978516,54.00100326538086,43.703250885009766,56.56053161621094,1768378495,104587816,X6-tool2,-0.7171876688960174,2.2979844693674027,44.67376106371768,0.011557216081680807,0.01160365624354444,0.04901758233558809,0.06382433325052261
2026-01-14 16:14:55.147484,1768378495,129266496,1,159472,-10,1768378495,132527508,2,152798,-37,1768378495,135919414,3,164493,60,1768378495,139272599,4,160219,37,1768378495,142553251,5,159505,-4,1768378495,145880436,6,141773,21,-0.6223335266113281,1.840211033821106,44.837501525878906,-0.026738369837403297,-0.019820990040898323,-0.0072101023979485035,40.00320816040039,48.229496002197266,45.508331298828125,53.754005432128906,43.74125289916992,56.50053024291992,1768378495,104587816,X6-tool2,-0.7171876688960174,2.2979844693674027,44.67376106371768,0.011557216081680807,0.01160365624354444,0.04901758233558809,0.06382433325052261
2026-01-14 16:14:55.183125,1768378495,169267288,1,159439,-8,1768378495,172575182,2,152644,-42,1768378495,175968638,3,164767,54,1768378495,179269141,4,160428,49,1768378495,182550233,5,159483,-10,1768378495,165909082,6,141844,47,-0.6434529423713684,1.7598367929458618,44.82166290283203,-0.011066216975450516,0.015289981849491596,-0.014951919205486774,40.03620910644531,48.36149597167969,45.271331787109375,53.5570068359375,43.76325225830078,56.37453079223633,1768378495,104587816,X6-tool2,-0.7171876688960174,2.2979844693674027,44.67376106371768,0.011557216081680807,0.01160365624354444,0.04901758233558809,0.06382433325052261
2026-01-14 16:14:55.218423,1768378495,209234249,1,159390,-13,1768378495,212549272,2,152474,-34,1768378495,215968680,3,164949,43,1768378495,199240866,4,160532,54,1768378495,202550200,5,159472,-6,1768378495,205882134,6,141916,15,-0.679161548614502,1.6721689701080322,44.815425872802734,-0.0068277474492788315,0.032138749957084656,-0.00014309436664916575,40.085208892822266,48.536495208740234,45.03533172607422,53.34800338745117,43.78525161743164,56.30253219604492,1768378495,204751862,X6-tool2,-0.8386421530869868,2.066972855424746,44.6890266518851,0.010382540064140341,0.012013619880607366,0.048417092550674674,0.0645599365234375
2026-01-14 16:14:55.253928,1768378495,249217350,1,159340,-16,1768378495,252552124,2,152336,-33,1768378495,235904713,3,165059,60,1768378495,239309480,4,160746,49,1768378495,242673245,5,159445,-10,1768378495,246003210,6,141971,11,-0.7017518877983093,1.630571722984314,44.8102912902832,-0.000465198332676664,0.024987148120999336,-0.0013816503342241049,40.102210998535156,48.613494873046875,44.947330474853516,53.23200607299805,43.7962532043457,56.27553176879883,1768378495,204751862,X6-tool2,-0.8386421530869868,2.066972855424746,44.6890266518851,0.010382540064140341,0.012013619880607366,0.048417092550674674,0.0645599365234375
2026-01-14 16:14:55.289724,1768378495,289219902,1,159313,-5,1768378495,272551060,2,152271,-34,1768378495,275905525,3,165284,43,1768378495,279267821,4,161016,87,1768378495,282609665,5,159428,-3,1768378495,285905548,6,142004,5,-0.7473496794700623,1.5540354251861572,44.79930877685547,-0.024598488584160805,0.043609146028757095,0.00972987525165081,40.15721130371094,48.751495361328125,44.70033264160156,53.00700378417969,43.81825256347656,56.231529235839844,1768378495,204751862,X6-tool2,-0.8386421530869868,2.066972855424746,44.6890266518851,0.010382540064140341,0.012013619880607366,0.048417092550674674,0.0645599365234375
2026-01-14 16:14:55.325124,1768378495,309266809,1,159291,-10,1768378495,312580223,2,152095,-36,1768378495,315968190,3,165454,43,1768378495,319260752,4,161290,67,1768378495,322607617,5,159406,-8,1768378495,305877153,6,142031,15,-0.8022230863571167,1.4737964868545532,44.78260803222656,-0.018170882016420364,0.018575720489025116,-0.002199718961492181,40.184207916259766,48.88249588012695,44.530330657958984,52.74400329589844,43.84025192260742,56.187530517578125,1768378495,304637477,X6-tool2,-0.8900245967483408,1.9400327775578003,44.615143832946565,0.011243843705057079,0.010556264254724156,0.04733405636152133,0.0671224594116211
2026-01-14 16:14:55.361120,1768378495,349262481,1,159263,-10,1768378495,352549894,2,152001,-13,1768378495,355966791,3,165652,40,1768378495,359271474,4,161537,54,1768378495,342550391,5,159395,-7,1768378495,345910916,6,142086,10,-0.8548305630683899,1.381357192993164,44.7696418762207,-0.0010856562294065952,-0.007644976023584604,-0.0025573577731847763,40.21220779418945,49.053497314453125,44.34933090209961,52.480003356933594,43.86225128173828,56.132530212402344,1768378495,304637477,X6-tool2,-0.8900245967483408,1.9400327775578003,44.615143832946565,0.011243843705057079,0.010556264254724156,0.04733405636152133,0.0671224594116211
2026-01-14 16:14:55.396559,1768378495,389217662,1,159225,-5,1768378495,392550816,2,151864,-28,1768378495,395931672,3,165833,50,1768378495,379217898,4,161664,63,1768378495,382606805,5,159368,-6,1768378495,385888467,6,142152,10,-0.9049280881881714,1.3058675527572632,44.74606704711914,-0.004365745931863785,-0.015537670813500881,-0.028048915788531303,40.25020980834961,49.15749740600586,44.15633010864258,52.21600341796875,43.889251708984375,56.066532135009766,1768378495,304637477,X6-tool2,-0.8900245967483408,1.9400327775578003,44.615143832946565,0.011243843705057079,0.010556264254724156,0.04733405636152133,0.0671224594116211
2026-01-14 16:14:55.432050,1768378495,429258015,1,159181,-14,1768378495,412530651,2,151804,-28,1768378495,415902817,3,165948,62,1768378495,419269783,4,161878,54,1768378495,422608357,5,159335,-10,1768378495,425909100,6,142196,11,-0.9281180500984192,1.2695428133010864,44.74020004272461,-0.004365745931863785,-0.015537670813500881,-0.028048915788531303,40.27220916748047,49.22349548339844,44.063331604003906,52.10600662231445,43.906253814697266,56.049530029296875,1768378495,404727370,X6-tool2,-1.0374325316504056,1.6890265596236975,44.558071371825974,0.010593637062342958,0.01063392928892296,0.04660164207922168,0.0645284652709961
2026-01-14 16:14:55.468164,1768378495,449261051,1,159153,-9,1768378495,452530963,2,151672,-30,1768378495,455966941,3,166152,51,1768378495,459270394,4,162131,61,1768378495,462607799,5,159296,-15,1768378495,465886041,6,142234,10,-0.9723217487335205,1.1960558891296387,44.725311279296875,-0.0203713271766901,-0.001661605783738196,-0.03471854701638222,40.322208404541016,49.34949493408203,43.84933090209961,51.881004333496094,43.944252014160156,56.00053024291992,1768378495,404727370,X6-tool2,-1.0374325316504056,1.6890265596236975,44.558071371825974,0.010593637062342958,0.01063392928892296,0.04660164207922168,0.0645284652709961
2026-01-14 16:14:55.503959,1768378495,489209921,1,159109,-10,1768378495,492549455,2,151529,-37,1768378495,495903000,3,166366,52,1768378495,499232465,4,162389,60,1768378495,502553388,5,159258,-11,1768378495,485886437,6,142262,9,-1.0271838903427124,1.1141740083694458,44.70743942260742,-0.030241284519433975,0.001696016639471054,-0.03843427821993828,40.3662109375,49.48749542236328,43.623329162597656,51.61700439453125,43.983253479003906,55.9565315246582,1768378495,404727370,X6-tool2,-1.0374325316504056,1.6890265596236975,44.558071371825974,0.010593637062342958,0.01063392928892296,0.04660164207922168,0.0645284652709961
2026-01-14 16:14:55.539110,1768378495,529214043,1,159082,-10,1768378495,532551087,2,151370,-37,1768378495,535902232,3,166553,44,1768378495,519240571,4,162543,84,1768378495,522551764,5,159236,-7,1768378495,525863248,6,142317,13,-1.0834009647369385,1.0246771574020386,44.68800735473633,-0.012285970151424408,-0.019647983834147453,-0.04900749400258064,40.393211364746094,49.64049530029297,43.43733215332031,51.337005615234375,44.0212516784668,55.90153121948242,1768378495,504677398,X6-tool2,-1.1873984509133628,1.4300575146871033,44.51553885161478,0.008781860912849647,0.010035551208572656,0.046166353216469544,0.06119092181324959
2026-01-14 16:14:55.574834,1768378495,569216755,1,159044,-5,1768378495,572548369,2,151227,-32,1768378495,555902658,3,166652,53,1768378495,559238783,4,162751,64,1768378495,562549926,5,159197,0,1768378495,565883180,6,142361,11,-1.124328851699829,0.9514060616493225,44.67607879638672,-0.0061291721649467945,-0.009367022663354874,-0.0483429878950119,40.431209564208984,49.77849578857422,43.24433135986328,51.129005432128906,44.06025314331055,55.8575325012207,1768378495,504677398,X6-tool2,-1.1873984509133628,1.4300575146871033,44.51553885161478,0.008781860912849647,0.010035551208572656,0.046166353216469544,0.06119092181324959
2026-01-14 16:14:55.610746,1768378495,609216687,1,159011,-10,1768378495,592547975,2,151139,-47,1768378495,595902880,3,166866,54,1768378495,599240164,4,162988,43,1768378495,602551128,5,159153,-13,1768378495,605880472,6,142383,0,-1.150304913520813,0.9095186591148376,44.670166015625,-0.01106202695518732,-0.012383091263473034,-0.03411862626671791,40.44820785522461,49.860496520996094,43.13533020019531,51.00800323486328,44.07625198364258,55.841529846191406,1768378495,604741340,X6-tool2,-1.3049345830638677,1.2924691509251647,44.47501805082554,0.009602092513481797,0.009707558887085755,0.04571610159008212,0.06366506963968277
2026-01-14 16:14:55.646140,1768378495,629215453,1,158989,-13,1768378495,632551367,2,150969,-39,1768378495,636042197,3,167047,48,1768378495,639383632,4,163158,42,1768378495,642677555,5,159109,-13,1768378495,625880788,6,142405,10,-1.1937419176101685,0.8304361701011658,44.663917541503906,-0.0033844420686364174,-0.00808949489146471,-0.013993438333272934,40.486209869384766,50.030494689941406,42.94232940673828,50.80400466918945,44.1202507019043,55.81352996826172,1768378495,604741340,X6-tool2,-1.3049345830638677,1.2924691509251647,44.47501805082554,0.009602092513481797,0.009707558887085755,0.04571610159008212,0.06366506963968277
2026-01-14 16:14:55.681859,1768378495,669217054,1,158906,-23,1768378495,672527688,2,150798,-47,1768378495,675930595,3,167250,49,1768378495,679214107,4,163334,54,1768378495,662672461,5,159077,-21,1768378495,666003654,6,142438,9,-1.2260723114013672,0.7553016543388367,44.662593841552734,-0.017669837921857834,0.017661239951848984,-0.006069136317819357,40.569210052490234,50.20649719238281,42.745330810546875,50.6400032043457,44.18025207519531,55.7805290222168,1768378495,604741340,X6-tool2,-1.3049345830638677,1.2924691509251647,44.47501805082554,0.009602092513481797,0.009707558887085755,0.04571610159008212,0.06366506963968277
2026-01-14 16:14:55.717660,1768378495,709215286,1,158857,-18,1768378495,712548261,2,150606,-61,1768378495,715903676,3,167437,43,1768378495,699305216,4,163449,53,1768378495,702607650,5,159016,-12,1768378495,705885552,6,142476,9,-1.2683156728744507,0.6759138703346252,44.65334701538086,-0.015314692631363869,0.026902325451374054,0.002721936907619238,40.61820983886719,50.371498107910156,42.547332763671875,50.43100357055664,44.24125289916992,55.742530822753906,1768378495,704587934,X6-tool2,-1.4169040801119597,1.1400281531481415,44.457368917067264,0.009983726066117594,0.009122888043693014,0.04468977952747167,0.06396547704935074
2026-01-14 16:14:55.752781,1768378495,749256150,1,158807,-11,1768378495,732607359,2,150496,-54,1768378495,736041457,3,167536,54,1768378495,739385472,4,163685,55,1768378495,742677044,5,158961,-18,1768378495,746002778,6,142526,10,-1.2925249338150024,0.624738335609436,44.648406982421875,0.0004135505005251616,0.019856732338666916,0.000792866456322372,40.646209716796875,50.48149490356445,42.45933151245117,50.30500411987305,44.268253326416016,55.71453094482422,1768378495,704587934,X6-tool2,-1.4169040801119597,1.1400281531481415,44.457368917067264,0.009983726066117594,0.009122888043693014,0.04468977952747167,0.06396547704935074
2026-01-14 16:14:55.788209,1768378495,769258746,1,158780,-15,1768378495,772550228,2,150342,-31,1768378495,775903784,3,167772,39,1768378495,779238618,4,163938,63,1768378495,782551321,5,158906,-15,1768378495,785941568,6,142564,10,-1.3400267362594604,0.5320467948913574,44.63845443725586,0.01291978731751442,0.018825864419341087,0.013131564483046532,40.69520950317383,50.67949676513672,42.245330810546875,50.0680046081543,44.3232536315918,55.6705322265625,1768378495,704587934,X6-tool2,-1.4169040801119597,1.1400281531481415,44.457368917067264,0.009983726066117594,0.009122888043693014,0.04468977952747167,0.06396547704935074
2026-01-14 16:14:55.823446,1768378495,809341071,1,158708,-21,1768378495,812670425,2,150222,-46,1768378495,816044591,3,167926,48,1768378495,819377905,4,164207,82,1768378495,822677688,5,158835,-17,1768378495,806005826,6,142581,5,-1.3955738544464111,0.46082139015197754,44.615455627441406,-0.016121327877044678,0.020065421238541603,-0.016159363090991974,40.767208099365234,50.78949737548828,42.05833053588867,49.81000518798828,44.38425064086914,55.63753128051758,1768378495,804868774,X6-tool2,-1.5013191452496983,0.9242932554282164,44.40856648751935,0.009642817287923563,0.007925059134144796,0.04423637433490766,0.06402619928121567
2026-01-14 16:14:55.858991,1768378495,849340483,1,158648,-9,1768378495,852667457,2,150029,-58,1768378495,856048333,3,168124,62,1768378495,839385161,4,164333,65,1768378495,842677044,5,158796,-19,1768378495,846003608,6,142608,0,-1.4534815549850464,0.37402236461639404,44.599395751953125,-0.011937042698264122,0.00932670384645462,-0.03129284456372261,40.82720947265625,50.959495544433594,41.8773307800293,49.54700469970703,44.46125030517578,55.610530853271484,1768378495,804868774,X6-tool2,-1.5013191452496983,0.9242932554282164,44.40856648751935,0.009642817287923563,0.007925059134144796,0.04423637433490766,0.06402619928121567
2026-01-14 16:14:55.894872,1768378495,889220580,1,158604,-10,1768378495,892550004,2,149859,-38,1768378495,875905543,3,168223,32,1768378495,879240078,4,164586,61,1768378495,882550941,5,158730,-14,1768378495,885881415,6,142641,4,-1.4831328392028809,0.325661301612854,44.5916748046875,-0.004800714086741209,0.0034118194598704576,-0.0266416072845459,40.84920883178711,51.058494567871094,41.77233123779297,49.40900421142578,44.4942512512207,55.59353256225586,1768378495,804868774,X6-tool2,-1.5013191452496983,0.9242932554282164,44.40856648751935,0.009642817287923563,0.007925059134144796,0.04423637433490766,0.06402619928121567
2026-01-14 16:14:55.930844,1768378495,929216742,1,158555,-16,1768378495,912548700,2,149799,-27,1768378495,915969717,3,168354,34,1768378495,919306732,4,164773,43,1768378495,922553093,5,158659,-20,1768378495,925881297,6,142679,12,-1.5291399955749512,0.24493971467018127,44.580047607421875,0.008846458978950977,-0.0014682563487440348,-0.02346007525920868,40.893211364746094,51.22849655151367,41.60232925415039,49.18900680541992,44.55925369262695,55.56153106689453,1768378495,904388866,X6-tool2,-1.6586380612539533,0.7847037594525332,44.36242793969614,0.010833774989569923,0.007665474438278796,0.04320830497783003,0.0640249252319336
2026-01-14 16:14:55.966589,1768378495,949244329,1,158522,-18,1768378495,952545532,2,149617,-45,1768378495,955939488,3,168530,39,1768378495,959303714,4,164998,59,1768378495,962577326,5,158582,-14,1768378495,965937561,6,142723,10,-1.5639249086380005,0.17364345490932465,44.56871032714844,0.02026810497045517,0.006914148572832346,-0.04370436817407608,40.953208923339844,51.376495361328125,41.45933151245117,49.00300598144531,44.64225387573242,55.51753234863281,1768378495,904388866,X6-tool2,-1.6586380612539533,0.7847037594525332,44.36242793969614,0.010833774989569923,0.007665474438278796,0.04320830497783003,0.0640249252319336
2026-01-14 16:14:56.001698,1768378495,989219890,1,158434,-21,1768378495,992550324,2,149436,-32,1768378495,995905049,3,168717,34,1768378495,999239934,4,165245,60,1768378495,982578312,5,158544,-17,1768378495,985882755,6,142745,10,-1.6161998510360718,0.08023235201835632,44.5527229309082,0.010143419727683067,-0.0019098740303888917,-0.05688900128006935,41.04121017456055,51.569496154785156,41.261329650878906,48.7450065612793,44.713253021240234,55.47352981567383,1768378495,904388866,X6-tool2,-1.6586380612539533,0.7847037594525332,44.36242793969614,0.010833774989569923,0.007665474438278796,0.04320830497783003,0.0640249252319336
2026-01-14 16:14:56.037128,1768378496,29208301,1,158351,-18,1768378496,32547156,2,149288,-37,1768378496,35881290,3,168898,52,1768378496,19240919,4,165355,55,1768378496,22551243,5,158483,-17,1768378496,25885397,6,142784,5,-1.6604100465774536,0.0035549099557101727,44.53713607788086,-0.004527072887867689,-0.011972290463745594,-0.07871389389038086,41.124210357666016,51.722496032714844,41.10232925415039,48.52500534057617,44.774253845214844,55.434532165527344,1768378496,4745279,X6-tool2,-1.722984519682649,0.5674957514066646,44.34363484810519,0.010225306877731514,0.006811701789132131,0.042217083899617605,0.06299146264791489
2026-01-14 16:14:56.072286,1768378496,69198182,1,158275,-19,1768378496,52546411,2,149205,-50,1768378496,55877146,3,168986,45,1768378496,59235721,4,165586,50,1768378496,62616397,5,158395,-22,1768378496,65880599,6,142817,5,-1.6873306035995483,-0.03841226547956467,44.5259895324707,-0.018239114433526993,-0.01311437226831913,-0.08963152766227722,41.168209075927734,51.799495697021484,40.998329162597656,48.39300537109375,44.8072509765625,55.41252899169922,1768378496,4745279,X6-tool2,-1.722984519682649,0.5674957514066646,44.34363484810519,0.010225306877731514,0.006811701789132131,0.042217083899617605,0.06299146264791489
2026-01-14 16:14:56.107878,1768378496,89195428,1,158253,-9,1768378496,92545923,2,149008,-46,1768378496,95907058,3,169200,59,1768378496,99237012,4,165784,49,1768378496,102534675,5,158335,-10,1768378496,105879880,6,142844,10,-1.7284049987792969,-0.11728454381227493,44.51938247680664,-0.010822484269738197,0.008798982948064804,-0.07383592426776886,41.22220993041992,51.98649597167969,40.80533218383789,48.20100402832031,44.90025329589844,55.39052963256836,1768378496,4745279,X6-tool2,-1.722984519682649,0.5674957514066646,44.34363484810519,0.010225306877731514,0.006811701789132131,0.042217083899617605,0.06299146264791489
2026-01-14 16:14:56.143408,1768378496,129196700,1,158203,-12,1768378496,132547685,2,148848,-41,1768378496,135905180,3,169409,57,1768378496,139301157,4,166009,37,1768378496,142557388,5,158236,-20,1768378496,125937618,6,142850,9,-1.7764294147491455,-0.1972581446170807,44.5072135925293,-0.016536308452486992,0.021716831251978874,-0.052065253257751465,41.27220916748047,52.16249465942383,40.591331481933594,47.98100662231445,44.97125244140625,55.3685302734375,1768378496,112919423,X6-tool2,-1.863190240842904,0.34980617932856045,44.27750012085582,0.00925317384190303,0.006528065210801797,0.04123510827975884,0.0631774291396141
2026-01-14 16:14:56.178851,1768378496,169200722,1,158159,-13,1768378496,172525526,2,148683,-37,1768378496,175904812,3,169596,49,1768378496,159223950,4,166108,48,1768378496,162611216,5,158198,-18,1768378496,165858517,6,142861,0,-1.8244768381118774,-0.26971250772476196,44.49531173706055,-0.01973162218928337,0.042632296681404114,-0.03571323677897453,41.31620788574219,52.321495056152344,40.38833236694336,47.772003173828125,45.05925369262695,55.3575325012207,1768378496,112919423,X6-tool2,-1.863190240842904,0.34980617932856045,44.27750012085582,0.00925317384190303,0.006528065210801797,0.04123510827975884,0.0631774291396141
2026-01-14 16:14:56.214754,1768378496,209244535,1,158099,-19,1768378496,212549358,2,148497,-49,1768378496,195878457,3,169695,51,1768378496,199253562,4,166306,49,1768378496,202614087,5,158126,-10,1768378496,205907951,6,142883,0,-1.8442752361297607,-0.30575814843177795,44.490699768066406,-0.020228637382388115,0.04900584742426872,-0.029801443219184875,41.34320831298828,52.40449523925781,40.300331115722656,47.67900466918945,45.09825134277344,55.34653091430664,1768378496,212771837,X6-tool2,-2.024629845761422,0.1688755457018729,44.280921593958475,0.008710015699429845,0.006853140308911618,0.04183459675158287,0.07115936279296875
