TCliu030506/rrc_ws/src/x6_pkg/x6_control_python/record/record_20260113_164832.csv
timestamp,x6position_pose_rp[0],x6position_pose_rp[1],x6position_pose_rp[2],x6position_pose_rp[3],x6position_pose_rp[4],x6position_pose_rp[5],x6position_joints[0],x6position_joints[1],x6position_joints[2],x6position_joints[3],x6position_joints[4],x6position_joints[5],aimooe_coord_header.stamp.sec,aimooe_coord_header.stamp.nanosec,aimooe_coord_header.frame_id,aimooe_coord_position.x,aimooe_coord_position.y,aimooe_coord_position.z,aimooe_coord_orientation.x,aimooe_coord_orientation.y,aimooe_coord_orientation.z,aimooe_coord_mean_error
2026-01-13 16:48:00.999085,-0.00022644597629550844,-0.00040881699533201754,45.00144958496094,0.002741703763604164,9.995834350585938,-9.001509666442871,53.678001403808594,53.03900146484375,42.03799819946289,53.0369987487793,66.33899688720703,53.03799819946289,1768294080,930928652,X6-tool2,-0.4528525023540731,0.5232989154465169,44.791340597109674,-0.17881379324631694,-0.04777572708859914,-0.12600019420150865,0.048514366149902344
2026-01-13 16:48:01.034016,-0.00022644597629550844,-0.00040881699533201754,45.00144958496094,0.002741703763604164,9.995834350585938,-9.001509666442871,53.678001403808594,53.03900146484375,42.03799819946289,53.0369987487793,66.33899688720703,53.03799819946289,1768294081,30695936,X6-tool2,-0.4533508725940651,0.49834263743070795,44.83884356088521,-0.17927664894656536,-0.047650221764116575,-0.1256705386446468,0.046667736023664474
2026-01-13 16:48:01.068655,-0.00022644597629550844,-0.00040881699533201754,45.00144958496094,0.002741703763604164,9.995834350585938,-9.001509666442871,53.678001403808594,53.03900146484375,42.03799819946289,53.0369987487793,66.33899688720703,53.03799819946289,1768294081,30695936,X6-tool2,-0.4533508725940651,0.49834263743070795,44.83884356088521,-0.17927664894656536,-0.047650221764116575,-0.1256705386446468,0.046667736023664474
2026-01-13 16:48:01.103157,-0.00022644597629550844,-0.00040881699533201754,45.00144958496094,0.002741703763604164,9.995834350585938,-9.001509666442871,53.678001403808594,53.03900146484375,42.03799819946289,53.0369987487793,66.33899688720703,53.03799819946289,1768294081,30695936,X6-tool2,-0.4533508725940651,0.49834263743070795,44.83884356088521,-0.17927664894656536,-0.047650221764116575,-0.1256705386446468,0.046667736023664474
2026-01-13 16:48:01.137701,-0.00022644597629550844,-0.00040881699533201754,45.00144958496094,0.002741703763604164,9.995834350585938,-9.001509666442871,53.678001403808594,53.03900146484375,42.03799819946289,53.0369987487793,66.33899688720703,53.03799819946289,1768294081,130176079,X6-tool2,-0.4799669122462956,0.5403298666346597,44.890093716316244,-0.17856266092011036,-0.04677294078000139,-0.12605668785234492,0.04910596087574959
2026-01-13 16:48:01.172219,-0.00022644597629550844,-0.00040881699533201754,45.00144958496094,0.002741703763604164,9.995834350585938,-9.001509666442871,53.678001403808594,53.03900146484375,42.03799819946289,53.0369987487793,66.33899688720703,53.03799819946289,1768294081,130176079,X6-tool2,-0.4799669122462956,0.5403298666346597,44.890093716316244,-0.17856266092011036,-0.04677294078000139,-0.12605668785234492,0.04910596087574959
2026-01-13 16:48:01.206730,-0.00022644597629550844,-0.00040881699533201754,45.00144958496094,0.002741703763604164,9.995834350585938,-9.001509666442871,53.678001403808594,53.03900146484375,42.03799819946289,53.0369987487793,66.33899688720703,53.03799819946289,1768294081,130176079,X6-tool2,-0.4799669122462956,0.5403298666346597,44.890093716316244,-0.17856266092011036,-0.04677294078000139,-0.12605668785234492,0.04910596087574959
2026-01-13 16:48:01.241221,-0.00022644597629550844,-0.00040881699533201754,45.00144958496094,0.002741703763604164,9.995834350585938,-9.001509666442871,53.678001403808594,53.03900146484375,42.03799819946289,53.0369987487793,66.33899688720703,53.03799819946289,1768294081,229741035,X6-tool2,-0.48383677703995476,0.5063523356363938,44.829725268423864,-0.17916795839480526,-0.04714667578360081,-0.1260715956616113,0.049755096435546875
2026-01-13 16:48:01.275672,-0.00022644597629550844,-0.00040881699533201754,45.00144958496094,0.002741703763604164,9.995834350585938,-9.001509666442871,53.678001403808594,53.03900146484375,42.03799819946289,53.0369987487793,66.33899688720703,53.03799819946289,1768294081,229741035,X6-tool2,-0.48383677703995476,0.5063523356363938,44.829725268423864,-0.17916795839480526,-0.04714667578360081,-0.1260715956616113,0.049755096435546875
2026-01-13 16:48:01.310184,-0.00022644597629550844,-0.00040881699533201754,45.00144958496094,0.002741703763604164,9.995834350585938,-9.001509666442871,53.678001403808594,53.03900146484375,42.03799819946289,53.0369987487793,66.33899688720703,53.03799819946289,1768294081,229741035,X6-tool2,-0.48383677703995476,0.5063523356363938,44.829725268423864,-0.17916795839480526,-0.04714667578360081,-0.1260715956616113,0.049755096435546875
2026-01-13 16:48:01.344803,-0.00022644597629550844,-0.00040881699533201754,45.00144958496094,0.002741703763604164,9.995834350585938,-9.001509666442871,53.678001403808594,53.03900146484375,42.03799819946289,53.0369987487793,66.33899688720703,53.03799819946289,1768294081,328998699,X6-tool2,-0.4626554571823861,0.5308198044055281,44.829489623282775,-0.17848398965276135,-0.04763058110152069,-0.1259235328135545,0.05056794360280037
2026-01-13 16:48:01.379322,-0.00022644597629550844,-0.00040881699533201754,45.00144958496094,0.002741703763604164,9.995834350585938,-9.001509666442871,53.678001403808594,53.03900146484375,42.03799819946289,53.0369987487793,66.33899688720703,53.03799819946289,1768294081,328998699,X6-tool2,-0.4626554571823861,0.5308198044055281,44.829489623282775,-0.17848398965276135,-0.04763058110152069,-0.1259235328135545,0.05056794360280037
2026-01-13 16:48:01.413819,-0.00022644597629550844,-0.00040881699533201754,45.00144958496094,0.002741703763604164,9.995834350585938,-9.001509666442871,53.678001403808594,53.03900146484375,42.03799819946289,53.0369987487793,66.33899688720703,53.03799819946289,1768294081,328998699,X6-tool2,-0.4626554571823861,0.5308198044055281,44.829489623282775,-0.17848398965276135,-0.04763058110152069,-0.1259235328135545,0.05056794360280037
2026-01-13 16:48:01.448336,-0.00022644597629550844,-0.00040881699533201754,45.00144958496094,0.002741703763604164,9.995834350585938,-9.001509666442871,53.678001403808594,53.03900146484375,42.03799819946289,53.0369987487793,66.33899688720703,53.03799819946289,1768294081,428630188,X6-tool2,-0.5049833839471568,0.5339275609782018,44.869021137702795,-0.17862400465002387,-0.046408779762978046,-0.1263076662222508,0.051431018859148026
2026-01-13 16:48:01.482838,-0.00022644597629550844,-0.00040881699533201754,45.00144958496094,0.002741703763604164,9.995834350585938,-9.001509666442871,53.678001403808594,53.03900146484375,42.03799819946289,53.0369987487793,66.33899688720703,53.03799819946289,1768294081,428630188,X6-tool2,-0.5049833839471568,0.5339275609782018,44.869021137702795,-0.17862400465002387,-0.046408779762978046,-0.1263076662222508,0.051431018859148026
2026-01-13 16:48:01.517341,-0.00022644597629550844,-0.00040881699533201754,45.00144958496094,0.002741703763604164,9.995834350585938,-9.001509666442871,53.678001403808594,53.03900146484375,42.03799819946289,53.0369987487793,66.33899688720703,53.03799819946289,1768294081,428630188,X6-tool2,-0.5049833839471568,0.5339275609782018,44.869021137702795,-0.17862400465002387,-0.046408779762978046,-0.1263076662222508,0.051431018859148026
2026-01-13 16:48:01.551843,0.0061664581298828125,0.008071484044194221,45.002723693847656,0.035961318761110306,9.981261253356934,-9.009214401245117,53.638999938964844,53.02199935913086,42.0880012512207,53.064998626708984,66.33899688720703,53.03799819946289,1768294081,528018167,X6-tool2,-0.46068169592202696,0.5667578990490908,44.86772867912481,-0.17770208081998193,-0.04736618488750079,-0.12622915899131015,0.0521036796271801
2026-01-13 16:48:01.586297,0.007863958366215229,0.05980590358376503,45.007041931152344,0.10041029006242752,9.852898597717285,-8.925267219543457,53.35900115966797,52.90700149536133,42.19200134277344,53.14699935913086,66.02100372314453,53.10900115966797,1768294081,528018167,X6-tool2,-0.46068169592202696,0.5667578990490908,44.86772867912481,-0.17770208081998193,-0.04736618488750079,-0.12622915899131015,0.0521036796271801
2026-01-13 16:48:01.620947,0.001223085098899901,0.1636950820684433,45.0136833190918,0.19881464540958405,9.517325401306152,-8.74252986907959,52.792999267578125,52.67100143432617,42.433998107910156,53.28499984741211,65.18599700927734,53.26900100708008,1768294081,528018167,X6-tool2,-0.46068169592202696,0.5667578990490908,44.86772867912481,-0.17770208081998193,-0.04736618488750079,-0.12622915899131015,0.0521036796271801
2026-01-13 16:48:01.655449,-0.008720655925571918,0.26509150862693787,45.027130126953125,0.2867192327976227,9.158122062683105,-8.510035514831543,52.20000076293945,52.46200180053711,42.66400146484375,53.43299865722656,64.31800079345703,53.45500183105469,1768294081,627681447,X6-tool2,-0.36600317475332406,0.6710057781150554,44.85875278680128,-0.17577128974495956,-0.043514193505409214,-0.11610935297737282,0.06626860052347183
2026-01-13 16:48:01.689952,-0.02631944790482521,0.3709881007671356,45.030738830566406,0.3764966130256653,8.783306121826172,-8.318645477294922,51.61800003051758,52.21500015258789,42.933998107910156,53.542999267578125,63.45500183105469,53.637001037597656,1768294081,627681447,X6-tool2,-0.36600317475332406,0.6710057781150554,44.85875278680128,-0.17577128974495956,-0.043514193505409214,-0.11610935297737282,0.06626860052347183
2026-01-13 16:48:01.724462,-0.034311361610889435,0.42587658762931824,45.03097152709961,0.41391170024871826,8.6010160446167,-8.206856727600098,51.316001892089844,52.08300018310547,43.05400085449219,53.597999572753906,63.0099983215332,53.724998474121094,1768294081,627681447,X6-tool2,-0.36600317475332406,0.6710057781150554,44.85875278680128,-0.17577128974495956,-0.043514193505409214,-0.11610935297737282,0.06626860052347183
2026-01-13 16:48:01.758959,-0.05773695558309555,0.5353701710700989,45.02705001831055,0.4857655167579651,8.223958015441895,-8.040019035339355,50.76599884033203,51.80799865722656,43.34600067138672,53.68000030517578,62.16400146484375,53.90599822998047,1768294081,726853128,X6-tool2,-0.3666813103064853,0.9711192222374617,45.07912710168044,-0.1609080579913795,-0.034607354372882364,-0.10620093380663004,0.06280867010354996
2026-01-13 16:48:01.793433,-0.08469175547361374,0.6467555165290833,45.02454376220703,0.525733470916748,7.846206188201904,-7.821801662445068,50.20100021362305,51.534000396728516,43.597999572753906,53.762001037597656,61.275001525878906,54.104000091552734,1768294081,726853128,X6-tool2,-0.3666813103064853,0.9711192222374617,45.07912710168044,-0.1609080579913795,-0.034607354372882364,-0.10620093380663004,0.06280867010354996
2026-01-13 16:48:01.827921,-0.10328522324562073,0.7602744102478027,45.02438735961914,0.580253541469574,7.475646018981934,-7.580228805541992,49.612998962402344,51.263999938964844,43.85599899291992,53.87200164794922,60.4119987487793,54.29600143432617,1768294081,826227147,X6-tool2,-0.2673531899322087,1.0116598670754076,44.92029736555799,-0.1477118212198686,-0.02928840189390726,-0.09668871462338935,0.05928293988108635
2026-01-13 16:48:01.862418,-0.11172573268413544,0.8142053484916687,45.02487564086914,0.6039648652076721,7.2857985496521,-7.450270175933838,49.321998596191406,51.13800048828125,43.983001708984375,53.926998138427734,59.972999572753906,54.388999938964844,1768294081,826227147,X6-tool2,-0.2673531899322087,1.0116598670754076,44.92029736555799,-0.1477118212198686,-0.02928840189390726,-0.09668871462338935,0.05928293988108635
2026-01-13 16:48:01.896951,-0.12447363883256912,0.9128484725952148,45.03289794921875,0.6536100506782532,6.898874282836914,-7.151644229888916,48.73400115966797,50.92900085449219,44.2239990234375,54.05400085449219,59.09400177001953,54.57600021362305,1768294081,826227147,X6-tool2,-0.2673531899322087,1.0116598670754076,44.92029736555799,-0.1477118212198686,-0.02928840189390726,-0.09668871462338935,0.05928293988108635
2026-01-13 16:48:01.931454,-0.13473758101463318,1.0114386081695557,45.03468322753906,0.6856640577316284,6.501963138580322,-6.877364635467529,48.189998626708984,50.70399856567383,44.49399948120117,54.16899871826172,58.198001861572266,54.74100112915039,1768294081,925640007,X6-tool2,-0.44364433761793454,1.30093894446157,44.971546153948964,-0.13099961947974675,-0.01949368441378795,-0.08801678012127982,0.0640573501586914
2026-01-13 16:48:01.965932,-0.1364416927099228,1.064955234527588,45.03573226928711,0.7060084342956543,6.319808483123779,-6.73001766204834,47.904998779296875,50.58300018310547,44.619998931884766,54.2400016784668,57.77000045776367,54.823001861572266,1768294081,925640007,X6-tool2,-0.44364433761793454,1.30093894446157,44.971546153948964,-0.13099961947974675,-0.01949368441378795,-0.08801678012127982,0.0640573501586914
2026-01-13 16:48:02.000389,-0.1405840516090393,1.1698278188705444,45.04167556762695,0.722758412361145,5.9470295906066895,-6.411399841308594,47.35499954223633,50.358001708984375,44.86199951171875,54.388999938964844,56.88600158691406,54.999000549316406,1768294081,925640007,X6-tool2,-0.44364433761793454,1.30093894446157,44.971546153948964,-0.13099961947974675,-0.01949368441378795,-0.08801678012127982,0.0640573501586914
2026-01-13 16:48:02.034883,-0.13705644011497498,1.2842572927474976,45.040687561035156,0.7496673464775085,5.587480068206787,-6.06840705871582,46.75600051879883,50.09400177001953,45.09199905395508,54.54800033569336,55.9900016784668,55.15299987792969,1768294082,25280106,X6-tool2,-0.34105866730483175,1.5529605554414703,45.05677741805362,-0.11575287861922451,-0.01668979234143253,-0.07683342974921994,0.06254545599222183
2026-01-13 16:48:02.069336,-0.12536397576332092,1.3945056200027466,45.041378021240234,0.7677197456359863,5.230103015899658,-5.715725421905518,46.185001373291016,49.84700012207031,45.323001861572266,54.7239990234375,55.095001220703125,55.290000915527344,1768294082,25280106,X6-tool2,-0.34105866730483175,1.5529605554414703,45.05677741805362,-0.11575287861922451,-0.01668979234143253,-0.07683342974921994,0.06254545599222183
2026-01-13 16:48:02.103833,-0.11894562840461731,1.4562206268310547,45.03978729248047,0.7671117186546326,5.063756465911865,-5.551915645599365,45.91600036621094,49.70399856567383,45.444000244140625,54.81700134277344,54.66600036621094,55.36199951171875,1768294082,25280106,X6-tool2,-0.34105866730483175,1.5529605554414703,45.05677741805362,-0.11575287861922451,-0.01668979234143253,-0.07683342974921994,0.06254545599222183
2026-01-13 16:48:02.138347,-0.1153828427195549,1.5650146007537842,45.04465866088867,0.7685990333557129,4.679218769073486,-5.171090602874756,45.349998474121094,49.4739990234375,45.68600082397461,54.98699951171875,53.7599983215332,55.53200149536133,1768294082,125018599,X6-tool2,-0.41394109257224637,1.6470903157923966,44.97259040925215,-0.1032599922091327,-0.010462159265966112,-0.06504568932276525,0.05828062817454338
2026-01-13 16:48:02.172872,-0.11166463792324066,1.6807427406311035,45.04012680053711,0.7719687819480896,4.289910793304443,-4.8245368003845215,44.79499816894531,49.20399856567383,45.97100067138672,55.14099884033203,52.88100051879883,55.68600082397461,1768294082,125018599,X6-tool2,-0.41394109257224637,1.6470903157923966,44.97259040925215,-0.1032599922091327,-0.010462159265966112,-0.06504568932276525,0.05828062817454338
2026-01-13 16:48:02.207372,-0.10976401716470718,1.8022772073745728,45.03202438354492,0.7750365734100342,3.8881707191467285,-4.448657035827637,44.20199966430664,48.91299819946289,46.25699996948242,55.290000915527344,51.97999954223633,55.845001220703125,1768294082,125018599,X6-tool2,-0.41394109257224637,1.6470903157923966,44.97259040925215,-0.1032599922091327,-0.010462159265966112,-0.06504568932276525,0.05828062817454338
2026-01-13 16:48:02.241868,-0.10974930971860886,1.8664628267288208,45.029518127441406,0.7606284022331238,3.69338059425354,-4.254758834838867,43.922000885009766,48.76499938964844,46.39400100708008,55.37200164794922,51.53499984741211,55.9379997253418,1768294082,224247713,X6-tool2,-0.4197546426302113,2.106857605855586,45.02824643036683,-0.0820006166651182,-0.006123047044371268,-0.051827427130918424,0.06434472650289536
2026-01-13 16:48:02.276374,-0.10730814188718796,1.985105276107788,45.02369689941406,0.7316932678222656,3.2888240814208984,-3.839972496032715,43.35599899291992,48.4900016784668,46.652000427246094,55.5260009765625,50.62300109863281,56.10300064086914,1768294082,224247713,X6-tool2,-0.4197546426302113,2.106857605855586,45.02824643036683,-0.0820006166651182,-0.006123047044371268,-0.051827427130918424,0.06434472650289536
2026-01-13 16:48:02.310879,-0.10563470423221588,2.093479871749878,45.023250579833984,0.7055483460426331,2.890183210372925,-3.4070796966552734,42.80699920654297,48.25400161743164,46.89400100708008,55.68000030517578,49.75,56.27299880981445,1768294082,224247713,X6-tool2,-0.4197546426302113,2.106857605855586,45.02824643036683,-0.0820006166651182,-0.006123047044371268,-0.051827427130918424,0.06434472650289536
2026-01-13 16:48:02.345352,-0.10520565509796143,2.1499218940734863,45.02566146850586,0.6772306561470032,2.6842269897460938,-3.1693150997161865,42.53799819946289,48.138999938964844,47.00899887084961,55.766998291015625,49.29399871826172,56.37200164794922,1768294082,324153262,X6-tool2,-0.3403304010478944,2.233505472793015,44.957530236539235,-0.06650943732954877,-0.005227964758255352,-0.03544387754036377,0.06634172052145004
2026-01-13 16:48:02.379840,-0.11011790484189987,2.251530170440674,45.0313720703125,0.6543766260147095,2.256179094314575,-2.6612601280212402,41.95000076293945,47.93600082397461,47.23500061035156,55.91600036621094,48.393001556396484,56.56999969482422,1768294082,324153262,X6-tool2,-0.3403304010478944,2.233505472793015,44.957530236539235,-0.06650943732954877,-0.005227964758255352,-0.03544387754036377,0.06634172052145004
2026-01-13 16:48:02.414356,-0.10738199949264526,2.3616082668304443,45.03042221069336,0.6124666929244995,1.8143306970596313,-2.1636927127838135,41.38999938964844,47.69900131225586,47.49800109863281,56.07500076293945,47.48099899291992,56.74599838256836,1768294082,324153262,X6-tool2,-0.3403304010478944,2.233505472793015,44.957530236539235,-0.06650943732954877,-0.005227964758255352,-0.03544387754036377,0.06634172052145004
2026-01-13 16:48:02.448913,-0.1067361980676651,2.4759714603424072,45.02467727661133,0.5794529914855957,1.389632225036621,-1.6550612449645996,40.80699920654297,47.441001892089844,47.74599838256836,56.222999572753906,46.608001708984375,56.922000885009766,1768294082,424125074,X6-tool2,-0.34869780733847777,2.5804791789435484,45.01502357955784,-0.04557640680701973,-0.002210956689259808,-0.013053370470070456,0.05920187756419182
2026-01-13 16:48:02.483422,-0.10916169732809067,2.534785509109497,45.02006912231445,0.5370128154754639,1.1564528942108154,-1.394065499305725,40.53799819946289,47.30400085449219,47.87699890136719,56.28900146484375,46.145999908447266,57.01499938964844,1768294082,424125074,X6-tool2,-0.34869780733847777,2.5804791789435484,45.01502357955784,-0.04557640680701973,-0.002210956689259808,-0.013053370470070456,0.05920187756419182
2026-01-13 16:48:02.517947,-0.10726341605186462,2.655407667160034,45.01185989379883,0.44747990369796753,0.7116941809654236,-0.856900691986084,40.01100158691406,47.02899932861328,48.11399841308594,56.44300079345703,45.250999450683594,57.19599914550781,1768294082,424125074,X6-tool2,-0.34869780733847777,2.5804791789435484,45.01502357955784,-0.04557640680701973,-0.002210956689259808,-0.013053370470070456,0.05920187756419182
2026-01-13 16:48:02.552379,-0.09694821387529373,2.7669837474823,44.99378967285156,0.27141016721725464,0.24365562200546265,-0.38771191239356995,39.659000396728516,46.749000549316406,48.35499954223633,56.57500076293945,44.361000061035156,57.3120002746582,1768294082,524227682,X6-tool2,-0.34795130661886425,2.8435332340873125,44.97161897204928,-0.026237249645029055,-0.0010601154795409126,0.008510910419881943,0.07076040655374527
2026-01-13 16:48:02.586872,-0.06982551515102386,2.838249921798706,44.97578430175781,0.01409741397947073,-0.06337226182222366,-0.09703902155160904,39.637001037597656,46.55699920654297,48.39899826049805,56.685001373291016,43.71799850463867,57.31700134277344,1768294082,524227682,X6-tool2,-0.34795130661886425,2.8435332340873125,44.97161897204928,-0.026237249645029055,-0.0010601154795409126,0.008510910419881943,0.07076040655374527
2026-01-13 16:48:02.621332,-0.05636148154735565,2.849583387374878,44.97941207885742,-0.0013234686339274049,-0.06983929872512817,-0.06324905902147293,39.637001037597656,46.54600143432617,48.39899826049805,56.7400016784668,43.67399978637695,57.31700134277344,1768294082,524227682,X6-tool2,-0.34795130661886425,2.8435332340873125,44.97161897204928,-0.026237249645029055,-0.0010601154795409126,0.008510910419881943,0.07076040655374527
2026-01-13 16:48:02.655816,-0.024223359301686287,2.8709919452667236,44.991172790527344,-0.0014486524742096663,-0.03739719092845917,-0.022596415132284164,39.637001037597656,46.540000915527344,48.39899826049805,56.87200164794922,43.65800094604492,57.31700134277344,1768294082,624092599,X6-tool2,-0.27929117529510006,2.944360554323258,45.009150627617345,-0.017848645876741856,-0.005679665724008016,0.016501956255295467,0.0773162841796875
2026-01-13 16:48:02.690352,-0.0016372583340853453,2.8848605155944824,45.00006103515625,0.0037516059819608927,-0.008916907012462616,0.0015714874025434256,39.637001037597656,46.540000915527344,48.39899826049805,56.96500015258789,43.65800094604492,57.31700134277344,1768294082,624092599,X6-tool2,-0.27929117529510006,2.944360554323258,45.009150627617345,-0.017848645876741856,-0.005679665724008016,0.016501956255295467,0.0773162841796875
2026-01-13 16:48:02.724872,-0.00042356207268312573,2.885605573654175,45.00053787231445,0.0037516059819608927,-0.008916907012462616,0.0015714874025434256,39.637001037597656,46.540000915527344,48.39899826049805,56.970001220703125,43.65800094604492,57.31700134277344,1768294082,624092599,X6-tool2,-0.27929117529510006,2.944360554323258,45.009150627617345,-0.017848645876741856,-0.005679665724008016,0.016501956255295467,0.0773162841796875
2026-01-13 16:48:02.759747,-0.00042356207268312573,2.885605573654175,45.00053787231445,0.0037516059819608927,-0.008916907012462616,0.0015714874025434256,39.637001037597656,46.540000915527344,48.39899826049805,56.970001220703125,43.65800094604492,57.31700134277344,1768294082,724425556,X6-tool2,-0.2727941844243747,2.97948840636181,44.89986725785016,-0.017947570443399057,-0.0064653998448597596,0.01725056226979222,0.07617124170064926
2026-01-13 16:48:02.794244,-0.00042356207268312573,2.885605573654175,45.00053787231445,0.0037516059819608927,-0.008916907012462616,0.0015714874025434256,39.637001037597656,46.540000915527344,48.39899826049805,56.970001220703125,43.65800094604492,57.31700134277344,1768294082,724425556,X6-tool2,-0.2727941844243747,2.97948840636181,44.89986725785016,-0.017947570443399057,-0.0064653998448597596,0.01725056226979222,0.07617124170064926
2026-01-13 16:48:02.828774,-0.00042356207268312573,2.885605573654175,45.00053787231445,0.0037516059819608927,-0.008916907012462616,0.0015714874025434256,39.637001037597656,46.540000915527344,48.39899826049805,56.970001220703125,43.66400146484375,57.31700134277344,1768294082,824102106,X6-tool2,-0.2862905108723503,3.066545667624699,44.983980708483266,-0.016068067215681478,-0.006290435254873722,0.017360509907674508,0.07921123504638672
2026-01-13 16:48:02.863311,0.0010327911004424095,2.8864998817443848,45.0011100769043,0.006333665922284126,-0.002178829861804843,0.0014111001510173082,39.637001037597656,46.540000915527344,48.39899826049805,56.97600173950195,43.66400146484375,57.31700134277344,1768294082,824102106,X6-tool2,-0.2862905108723503,3.066545667624699,44.983980708483266,-0.016068067215681478,-0.006290435254873722,0.017360509907674508,0.07921123504638672
2026-01-13 16:48:02.897801,-0.00017951855261344463,2.8871614933013916,45.001686096191406,0.006333665922284126,-0.002178829861804843,0.0014111001510173082,39.637001037597656,46.540000915527344,48.39899826049805,56.97600173950195,43.66400146484375,57.323001861572266,1768294082,824102106,X6-tool2,-0.2862905108723503,3.066545667624699,44.983980708483266,-0.016068067215681478,-0.006290435254873722,0.017360509907674508,0.07921123504638672
2026-01-13 16:48:02.932296,-0.00017951855261344463,2.8871614933013916,45.001686096191406,0.006333665922284126,-0.002178829861804843,0.0014111001510173082,39.637001037597656,46.540000915527344,48.39899826049805,56.97600173950195,43.66400146484375,57.323001861572266,1768294082,924102020,X6-tool2,-0.2590738378867119,3.0406574052293505,44.96934384003391,-0.016787181853890606,-0.006764149114311454,0.017547484719821246,0.07492860406637192
2026-01-13 16:48:02.966803,-0.00017951855261344463,2.8871614933013916,45.001686096191406,0.006333665922284126,-0.002178829861804843,0.0014111001510173082,39.637001037597656,46.540000915527344,48.39899826049805,56.97600173950195,43.66400146484375,57.323001861572266,1768294082,924102020,X6-tool2,-0.2590738378867119,3.0406574052293505,44.96934384003391,-0.016787181853890606,-0.006764149114311454,0.017547484719821246,0.07492860406637192
2026-01-13 16:48:03.001276,-0.00017951855261344463,2.8871614933013916,45.001686096191406,0.006333665922284126,-0.002178829861804843,0.0014111001510173082,39.637001037597656,46.540000915527344,48.39899826049805,56.97600173950195,43.66400146484375,57.323001861572266,1768294082,924102020,X6-tool2,-0.2590738378867119,3.0406574052293505,44.96934384003391,-0.016787181853890606,-0.006764149114311454,0.017547484719821246,0.07492860406637192
2026-01-13 16:48:03.035763,-0.00017951855261344463,2.8871614933013916,45.001686096191406,0.006333665922284126,-0.002178829861804843,0.0014111001510173082,39.643001556396484,46.540000915527344,48.39899826049805,56.97600173950195,43.66400146484375,57.323001861572266,1768294083,24090322,X6-tool2,-0.24484030323484934,3.0354181357766716,44.940790049883496,-0.01730943311412287,-0.007111711592624929,0.017503381319300532,0.07676474004983902
2026-01-13 16:48:03.070243,-0.00017951855261344463,2.8871614933013916,45.001686096191406,0.006333665922284126,-0.002178829861804843,0.0014111001510173082,39.643001556396484,46.540000915527344,48.39899826049805,56.97600173950195,43.66400146484375,57.323001861572266,1768294083,24090322,X6-tool2,-0.24484030323484934,3.0354181357766716,44.940790049883496,-0.01730943311412287,-0.007111711592624929,0.017503381319300532,0.07676474004983902
2026-01-13 16:48:03.104798,-0.00017951855261344463,2.8871614933013916,45.001686096191406,0.006333665922284126,-0.002178829861804843,0.0014111001510173082,39.643001556396484,46.540000915527344,48.39899826049805,56.97600173950195,43.66400146484375,57.323001861572266,1768294083,24090322,X6-tool2,-0.24484030323484934,3.0354181357766716,44.940790049883496,-0.01730943311412287,-0.007111711592624929,0.017503381319300532,0.07676474004983902
2026-01-13 16:48:03.139272,-0.00017951855261344463,2.8871614933013916,45.001686096191406,0.006333665922284126,-0.002178829861804843,0.0014111001510173082,39.643001556396484,46.540000915527344,48.39899826049805,56.97600173950195,43.66400146484375,57.323001861572266,1768294083,124116377,X6-tool2,-0.24460576692067001,3.080371874528254,44.93732300246836,-0.01636486275610979,-0.007072659502425474,0.01738398216886352,0.07300058752298355
2026-01-13 16:48:03.173742,-0.00017951855261344463,2.8871614933013916,45.001686096191406,0.006333665922284126,-0.002178829861804843,0.0014111001510173082,39.643001556396484,46.540000915527344,48.39899826049805,56.97600173950195,43.66400146484375,57.323001861572266,1768294083,124116377,X6-tool2,-0.24460576692067001,3.080371874528254,44.93732300246836,-0.01636486275610979,-0.007072659502425474,0.01738398216886352,0.07300058752298355
2026-01-13 16:48:03.208218,-0.00017951855261344463,2.8871614933013916,45.001686096191406,0.006333665922284126,-0.002178829861804843,0.0014111001510173082,39.643001556396484,46.540000915527344,48.39899826049805,56.97600173950195,43.66400146484375,57.323001861572266,1768294083,124116377,X6-tool2,-0.24460576692067001,3.080371874528254,44.93732300246836,-0.01636486275610979,-0.007072659502425474,0.01738398216886352,0.07300058752298355
2026-01-13 16:48:03.242723,-0.00017951855261344463,2.8871614933013916,45.001686096191406,0.006333665922284126,-0.002178829861804843,0.0014111001510173082,39.643001556396484,46.540000915527344,48.39899826049805,56.97600173950195,43.66400146484375,57.323001861572266,1768294083,224109049,X6-tool2,-0.28510484990121626,3.0760663533130623,45.005978838565014,-0.016154684672586368,-0.006268208448487124,0.017383153482371263,0.07777150720357895
2026-01-13 16:48:03.277319,-0.00017951855261344463,2.8871614933013916,45.001686096191406,0.006333665922284126,-0.002178829861804843,0.0014111001510173082,39.643001556396484,46.540000915527344,48.39899826049805,56.97600173950195,43.66400146484375,57.323001861572266,1768294083,224109049,X6-tool2,-0.28510484990121626,3.0760663533130623,45.005978838565014,-0.016154684672586368,-0.006268208448487124,0.017383153482371263,0.07777150720357895
2026-01-13 16:48:03.311815,-0.00017951855261344463,2.8871614933013916,45.001686096191406,0.00041931637679226696,-0.001154955243691802,0.0028054164722561836,39.643001556396484,46.540000915527344,48.39400100708008,56.97600173950195,43.66400146484375,57.323001861572266,1768294083,224109049,X6-tool2,-0.28510484990121626,3.0760663533130623,45.005978838565014,-0.016154684672586368,-0.006268208448487124,0.017383153482371263,0.07777150720357895
2026-01-13 16:48:03.346305,-0.00017951855261344463,2.8871614933013916,45.001686096191406,0.00041931637679226696,-0.001154955243691802,0.0028054164722561836,39.643001556396484,46.540000915527344,48.39400100708008,56.97600173950195,43.66400146484375,57.323001861572266,1768294083,324090332,X6-tool2,-0.2638684659531741,3.028225818972968,44.92840602136956,-0.01725577066142597,-0.006782599896307346,0.017502447050849974,0.07331434637308121
2026-01-13 16:48:03.380851,-0.00017951855261344463,2.8871614933013916,45.001686096191406,0.00041931637679226696,-0.001154955243691802,0.0028054164722561836,39.643001556396484,46.540000915527344,48.39400100708008,56.97600173950195,43.66400146484375,57.323001861572266,1768294083,324090332,X6-tool2,-0.2638684659531741,3.028225818972968,44.92840602136956,-0.01725577066142597,-0.006782599896307346,0.017502447050849974,0.07331434637308121
2026-01-13 16:48:03.415329,-0.00017951855261344463,2.8871614933013916,45.001686096191406,0.00041931637679226696,-0.001154955243691802,0.0028054164722561836,39.643001556396484,46.540000915527344,48.39400100708008,56.97600173950195,43.66400146484375,57.323001861572266,1768294083,324090332,X6-tool2,-0.2638684659531741,3.028225818972968,44.92840602136956,-0.01725577066142597,-0.006782599896307346,0.017502447050849974,0.07331434637308121
2026-01-13 16:48:03.449825,-0.00017951855261344463,2.8871614933013916,45.001686096191406,0.00041931637679226696,-0.001154955243691802,0.0028054164722561836,39.643001556396484,46.540000915527344,48.39400100708008,56.97600173950195,43.66400146484375,57.323001861572266,1768294083,424118596,X6-tool2,-0.2718306505930861,3.078917536844554,44.99060570144512,-0.01603671600483311,-0.00662617631365179,0.01760540612306649,0.0736754760146141
2026-01-13 16:48:03.484305,-0.00017951855261344463,2.8871614933013916,45.001686096191406,0.00041931637679226696,-0.001154955243691802,0.0028054164722561836,39.643001556396484,46.540000915527344,48.39400100708008,56.97600173950195,43.66400146484375,57.323001861572266,1768294083,424118596,X6-tool2,-0.2718306505930861,3.078917536844554,44.99060570144512,-0.01603671600483311,-0.00662617631365179,0.01760540612306649,0.0736754760146141
2026-01-13 16:48:03.518824,-0.00017951855261344463,2.8871614933013916,45.001686096191406,0.00041931637679226696,-0.001154955243691802,0.0028054164722561836,39.643001556396484,46.540000915527344,48.39400100708008,56.97600173950195,43.66400146484375,57.323001861572266,1768294083,424118596,X6-tool2,-0.2718306505930861,3.078917536844554,44.99060570144512,-0.01603671600483311,-0.00662617631365179,0.01760540612306649,0.0736754760146141
2026-01-13 16:48:03.553310,-0.00017951855261344463,2.8871614933013916,45.001686096191406,0.00041931637679226696,-0.001154955243691802,0.0028054164722561836,39.643001556396484,46.540000915527344,48.39400100708008,56.97600173950195,43.66400146484375,57.323001861572266,1768294083,524145440,X6-tool2,-0.282016514187984,3.0660693431080475,45.008104947676436,-0.016384036169972433,-0.006227692434921153,0.01748409834973956,0.0773213729262352
2026-01-13 16:48:03.587807,-0.00017951855261344463,2.8871614933013916,45.001686096191406,0.00041931637679226696,-0.001154955243691802,0.0028054164722561836,39.643001556396484,46.540000915527344,48.39400100708008,56.97600173950195,43.66400146484375,57.323001861572266,1768294083,524145440,X6-tool2,-0.282016514187984,3.0660693431080475,45.008104947676436,-0.016384036169972433,-0.006227692434921153,0.01748409834973956,0.0773213729262352
2026-01-13 16:48:03.622296,-0.00017951855261344463,2.8871614933013916,45.001686096191406,0.00041931637679226696,-0.001154955243691802,0.0028054164722561836,39.643001556396484,46.540000915527344,48.39400100708008,56.97600173950195,43.66400146484375,57.323001861572266,1768294083,524145440,X6-tool2,-0.282016514187984,3.0660693431080475,45.008104947676436,-0.016384036169972433,-0.006227692434921153,0.01748409834973956,0.0773213729262352
2026-01-13 16:48:03.656955,-0.00017951855261344463,2.8871614933013916,45.001686096191406,0.00041931637679226696,-0.001154955243691802,0.0028054164722561836,39.643001556396484,46.540000915527344,48.39400100708008,56.97600173950195,43.66400146484375,57.323001861572266,1768294083,624158854,X6-tool2,-0.2707484123207707,3.0105219656556264,45.01005456957967,-0.017500441876816798,-0.006504481825066281,0.01749634984201346,0.07313696295022964
2026-01-13 16:48:03.691453,-0.00017951855261344463,2.8871614933013916,45.001686096191406,0.00041931637679226696,-0.001154955243691802,0.0028054164722561836,39.643001556396484,46.540000915527344,48.39400100708008,56.97600173950195,43.66400146484375,57.323001861572266,1768294083,624158854,X6-tool2,-0.2707484123207707,3.0105219656556264,45.01005456957967,-0.017500441876816798,-0.006504481825066281,0.01749634984201346,0.07313696295022964
2026-01-13 16:48:03.725937,-0.00017951855261344463,2.8871614933013916,45.001686096191406,0.00041931637679226696,-0.001154955243691802,0.0028054164722561836,39.643001556396484,46.540000915527344,48.39400100708008,56.97600173950195,43.66400146484375,57.323001861572266,1768294083,724205939,X6-tool2,-0.28258184092801003,3.0316395573049046,44.95349099464426,-0.01697511227891618,-0.006650296769827984,0.017493354304853295,0.07680702209472656
2026-01-13 16:48:03.760446,-0.00017951855261344463,2.8871614933013916,45.001686096191406,0.00041931637679226696,-0.001154955243691802,0.0028054164722561836,39.643001556396484,46.540000915527344,48.39400100708008,56.97600173950195,43.66400146484375,57.323001861572266,1768294083,724205939,X6-tool2,-0.28258184092801003,3.0316395573049046,44.95349099464426,-0.01697511227891618,-0.006650296769827984,0.017493354304853295,0.07680702209472656
2026-01-13 16:48:03.794939,-0.00017951855261344463,2.8871614933013916,45.001686096191406,0.00041931637679226696,-0.001154955243691802,0.0028054164722561836,39.643001556396484,46.540000915527344,48.39400100708008,56.97600173950195,43.66400146484375,57.323001861572266,1768294083,724205939,X6-tool2,-0.28258184092801003,3.0316395573049046,44.95349099464426,-0.01697511227891618,-0.006650296769827984,0.017493354304853295,0.07680702209472656
2026-01-13 16:48:03.829407,-0.00017951855261344463,2.8871614933013916,45.001686096191406,0.00041931637679226696,-0.001154955243691802,0.0028054164722561836,39.643001556396484,46.540000915527344,48.39400100708008,56.97600173950195,43.66400146484375,57.323001861572266,1768294083,824109918,X6-tool2,-0.2758116229371909,2.9977342379123906,44.88081691205792,-0.0181646412007273,-0.006816727280352402,0.01760671601315741,0.07207933813333511
2026-01-13 16:48:03.863911,-0.00017951855261344463,2.8871614933013916,45.001686096191406,0.00041931637679226696,-0.001154955243691802,0.0028054164722561836,39.643001556396484,46.540000915527344,48.39400100708008,56.97600173950195,43.66400146484375,57.323001861572266,1768294083,824109918,X6-tool2,-0.2758116229371909,2.9977342379123906,44.88081691205792,-0.0181646412007273,-0.006816727280352402,0.01760671601315741,0.07207933813333511
2026-01-13 16:48:03.898232,-0.00017951855261344463,2.8871614933013916,45.001686096191406,0.00041931637679226696,-0.001154955243691802,0.0028054164722561836,39.643001556396484,46.540000915527344,48.39400100708008,56.97600173950195,43.66400146484375,57.323001861572266,1768294083,824109918,X6-tool2,-0.2758116229371909,2.9977342379123906,44.88081691205792,-0.0181646412007273,-0.006816727280352402,0.01760671601315741,0.07207933813333511
2026-01-13 16:48:03.932765,-0.00017951855261344463,2.8871614933013916,45.001686096191406,0.00041931637679226696,-0.001154955243691802,0.0028054164722561836,39.643001556396484,46.540000915527344,48.39400100708008,56.97600173950195,43.66400146484375,57.323001861572266,1768294083,924282048,X6-tool2,-0.2869762025066862,3.0078423364002163,44.94268050412821,-0.01739957533245988,-0.006588699342536176,0.017823867889605993,0.07497438043355942
2026-01-13 16:48:03.967073,-0.00017951855261344463,2.8871614933013916,45.001686096191406,0.00041931637679226696,-0.001154955243691802,0.0028054164722561836,39.643001556396484,46.540000915527344,48.39400100708008,56.97600173950195,43.66400146484375,57.323001861572266,1768294083,924282048,X6-tool2,-0.2869762025066862,3.0078423364002163,44.94268050412821,-0.01739957533245988,-0.006588699342536176,0.017823867889605993,0.07497438043355942
2026-01-13 16:48:04.001505,-0.00017951855261344463,2.8871614933013916,45.001686096191406,0.00041931637679226696,-0.001154955243691802,0.0028054164722561836,39.643001556396484,46.540000915527344,48.39400100708008,56.97600173950195,43.66400146484375,57.323001861572266,1768294083,924282048,X6-tool2,-0.2869762025066862,3.0078423364002163,44.94268050412821,-0.01739957533245988,-0.006588699342536176,0.017823867889605993,0.07497438043355942
2026-01-13 16:48:04.036352,-0.00017951855261344463,2.8871614933013916,45.001686096191406,0.00041931637679226696,-0.001154955243691802,0.0028054164722561836,39.643001556396484,46.540000915527344,48.39400100708008,56.97600173950195,43.66400146484375,57.323001861572266,1768294084,24181997,X6-tool2,-0.2711104069196146,3.05974301468085,44.95344604232664,-0.01662374619093995,-0.006762083583623488,0.017336738334564502,0.07334486395120621
2026-01-13 16:48:04.070651,-0.00017951855261344463,2.8871614933013916,45.001686096191406,0.00041931637679226696,-0.001154955243691802,0.0028054164722561836,39.643001556396484,46.540000915527344,48.39400100708008,56.97600173950195,43.66400146484375,57.323001861572266,1768294084,24181997,X6-tool2,-0.2711104069196146,3.05974301468085,44.95344604232664,-0.01662374619093995,-0.006762083583623488,0.017336738334564502,0.07334486395120621
2026-01-13 16:48:04.105169,-0.00017951855261344463,2.8871614933013916,45.001686096191406,0.00041931637679226696,-0.001154955243691802,0.0028054164722561836,39.643001556396484,46.540000915527344,48.39400100708008,56.97600173950195,43.66400146484375,57.323001861572266,1768294084,24181997,X6-tool2,-0.2711104069196146,3.05974301468085,44.95344604232664,-0.01662374619093995,-0.006762083583623488,0.017336738334564502,0.07334486395120621
2026-01-13 16:48:04.139685,-0.00017951855261344463,2.8871614933013916,45.001686096191406,0.00041931637679226696,-0.001154955243691802,0.0028054164722561836,39.643001556396484,46.540000915527344,48.39400100708008,56.97600173950195,43.66400146484375,57.323001861572266,1768294084,124096657,X6-tool2,-0.26744554563926176,3.08478380157089,44.984608562539854,-0.016043305197156237,-0.006820788252350405,0.017494424192315658,0.0747976303100586
2026-01-13 16:48:04.174411,-0.00017951855261344463,2.8871614933013916,45.001686096191406,0.00041931637679226696,-0.001154955243691802,0.0028054164722561836,39.643001556396484,46.540000915527344,48.39400100708008,56.97600173950195,43.66400146484375,57.323001861572266,1768294084,124096657,X6-tool2,-0.26744554563926176,3.08478380157089,44.984608562539854,-0.016043305197156237,-0.006820788252350405,0.017494424192315658,0.0747976303100586
2026-01-13 16:48:04.209049,-0.00017951855261344463,2.8871614933013916,45.001686096191406,0.00041931637679226696,-0.001154955243691802,0.0028054164722561836,39.643001556396484,46.540000915527344,48.39400100708008,56.97600173950195,43.66400146484375,57.323001861572266,1768294084,124096657,X6-tool2,-0.26744554563926176,3.08478380157089,44.984608562539854,-0.016043305197156237,-0.006820788252350405,0.017494424192315658,0.0747976303100586
2026-01-13 16:48:04.243505,-0.00017951855261344463,2.8871614933013916,45.001686096191406,0.00041931637679226696,-0.001154955243691802,0.0028054164722561836,39.643001556396484,46.540000915527344,48.39400100708008,56.97600173950195,43.66400146484375,57.323001861572266,1768294084,224226355,X6-tool2,-0.24774080413823366,3.0754296771684806,44.91232436013074,-0.01600555183561812,-0.007510545537417761,0.017670831039190125,0.07381661981344223
2026-01-13 16:48:04.277837,-0.00017951855261344463,2.8871614933013916,45.001686096191406,0.00041931637679226696,-0.001154955243691802,0.0028054164722561836,39.643001556396484,46.540000915527344,48.39400100708008,56.97600173950195,43.66400146484375,57.323001861572266,1768294084,224226355,X6-tool2,-0.24774080413823366,3.0754296771684806,44.91232436013074,-0.01600555183561812,-0.007510545537417761,0.017670831039190125,0.07381661981344223
2026-01-13 16:48:04.312286,-0.00017951855261344463,2.8871614933013916,45.001686096191406,0.00041931637679226696,-0.001154955243691802,0.0028054164722561836,39.643001556396484,46.540000915527344,48.39400100708008,56.97600173950195,43.66400146484375,57.323001861572266,1768294084,224226355,X6-tool2,-0.24774080413823366,3.0754296771684806,44.91232436013074,-0.01600555183561812,-0.007510545537417761,0.017670831039190125,0.07381661981344223
2026-01-13 16:48:04.346675,0.0010327911004424095,2.8864998817443848,45.0011100769043,0.00041931637679226696,-0.001154955243691802,0.0028054164722561836,39.643001556396484,46.540000915527344,48.39400100708008,56.97600173950195,43.66400146484375,57.31700134277344,1768294084,324412156,X6-tool2,-0.2756615898834371,3.052177447823515,44.98517321216872,-0.01684769221957554,-0.006444514951613097,0.01751163133887418,0.07626565545797348
2026-01-13 16:48:04.381199,0.0010327911004424095,2.8864998817443848,45.0011100769043,0.00041931637679226696,-0.001154955243691802,0.0028054164722561836,39.643001556396484,46.540000915527344,48.39400100708008,56.97600173950195,43.66400146484375,57.31700134277344,1768294084,324412156,X6-tool2,-0.2756615898834371,3.052177447823515,44.98517321216872,-0.01684769221957554,-0.006444514951613097,0.01751163133887418,0.07626565545797348
2026-01-13 16:48:04.416163,0.0010327911004424095,2.8864998817443848,45.0011100769043,0.00041931637679226696,-0.001154955243691802,0.0028054164722561836,39.643001556396484,46.540000915527344,48.39400100708008,56.97600173950195,43.66400146484375,57.31700134277344,1768294084,324412156,X6-tool2,-0.2756615898834371,3.052177447823515,44.98517321216872,-0.01684769221957554,-0.006444514951613097,0.01751163133887418,0.07626565545797348
2026-01-13 16:48:04.450460,0.0010327911004424095,2.8864998817443848,45.0011100769043,0.00041931637679226696,-0.001154955243691802,0.0028054164722561836,39.643001556396484,46.540000915527344,48.39400100708008,56.97600173950195,43.66400146484375,57.31700134277344,1768294084,423930300,X6-tool2,-0.2478326810096531,3.0425321754994794,44.94598357527568,-0.016649235372436032,-0.007539702035202887,0.017732274407189937,0.07419967651367188
2026-01-13 16:48:04.485010,0.0010327911004424095,2.8864998817443848,45.0011100769043,0.00041931637679226696,-0.001154955243691802,0.0028054164722561836,39.643001556396484,46.540000915527344,48.39400100708008,56.97600173950195,43.66400146484375,57.31700134277344,1768294084,423930300,X6-tool2,-0.2478326810096531,3.0425321754994794,44.94598357527568,-0.016649235372436032,-0.007539702035202887,0.017732274407189937,0.07419967651367188
2026-01-13 16:48:04.519300,0.0010327911004424095,2.8864998817443848,45.0011100769043,0.00041931637679226696,-0.001154955243691802,0.0028054164722561836,39.643001556396484,46.540000915527344,48.39400100708008,56.97600173950195,43.66400146484375,57.31700134277344,1768294084,423930300,X6-tool2,-0.2478326810096531,3.0425321754994794,44.94598357527568,-0.016649235372436032,-0.007539702035202887,0.017732274407189937,0.07419967651367188
2026-01-13 16:48:04.553696,0.0010327911004424095,2.8864998817443848,45.0011100769043,0.00041931637679226696,-0.001154955243691802,0.0028054164722561836,39.643001556396484,46.540000915527344,48.39400100708008,56.97600173950195,43.66400146484375,57.31700134277344,1768294084,524393741,X6-tool2,-0.28341009878134643,3.0581053349418648,45.03556344171019,-0.016396200177104588,-0.006363226101163058,0.017763475577397762,0.072967529296875
2026-01-13 16:48:04.588179,0.0010327911004424095,2.8864998817443848,45.0011100769043,0.00041931637679226696,-0.001154955243691802,0.0028054164722561836,39.643001556396484,46.540000915527344,48.39400100708008,56.97600173950195,43.66400146484375,57.31700134277344,1768294084,524393741,X6-tool2,-0.28341009878134643,3.0581053349418648,45.03556344171019,-0.016396200177104588,-0.006363226101163058,0.017763475577397762,0.072967529296875
2026-01-13 16:48:04.622517,0.0010327911004424095,2.8864998817443848,45.0011100769043,0.00041931637679226696,-0.001154955243691802,0.0028054164722561836,39.643001556396484,46.540000915527344,48.39400100708008,56.97600173950195,43.66400146484375,57.31700134277344,1768294084,524393741,X6-tool2,-0.28341009878134643,3.0581053349418648,45.03556344171019,-0.016396200177104588,-0.006363226101163058,0.017763475577397762,0.072967529296875
2026-01-13 16:48:04.657444,0.0010327911004424095,2.8864998817443848,45.0011100769043,0.00041931637679226696,-0.001154955243691802,0.0028054164722561836,39.643001556396484,46.540000915527344,48.39400100708008,56.97600173950195,43.66400146484375,57.31700134277344,1768294084,623923016,X6-tool2,-0.26733996913606967,3.0585938754967685,45.029677159604056,-0.01633765885372227,-0.006742027121621733,0.01781059981377312,0.07240263372659683
2026-01-13 16:48:04.691951,0.0010327911004424095,2.8864998817443848,45.0011100769043,0.00041931637679226696,-0.001154955243691802,0.0028054164722561836,39.643001556396484,46.540000915527344,48.39400100708008,56.97600173950195,43.66899871826172,57.31700134277344,1768294084,623923016,X6-tool2,-0.26733996913606967,3.0585938754967685,45.029677159604056,-0.01633765885372227,-0.006742027121621733,0.01781059981377312,0.07240263372659683
2026-01-13 16:48:04.726277,0.0010327911004424095,2.8864998817443848,45.0011100769043,0.00041931637679226696,-0.001154955243691802,0.0028054164722561836,39.643001556396484,46.540000915527344,48.39400100708008,56.97600173950195,43.66899871826172,57.31700134277344,1768294084,724480231,X6-tool2,-0.2905923922076533,3.0519088755919883,44.988559434652856,-0.01687761679148945,-0.0062383980448729864,0.01750032579640939,0.0768686905503273
2026-01-13 16:48:04.760837,0.0010327911004424095,2.8864998817443848,45.0011100769043,0.00041931637679226696,-0.001154955243691802,0.0028054164722561836,39.643001556396484,46.540000915527344,48.39400100708008,56.97600173950195,43.66899871826172,57.31700134277344,1768294084,724480231,X6-tool2,-0.2905923922076533,3.0519088755919883,44.988559434652856,-0.01687761679148945,-0.0062383980448729864,0.01750032579640939,0.0768686905503273
2026-01-13 16:48:04.795312,0.0010327911004424095,2.8864998817443848,45.0011100769043,0.00041931637679226696,-0.001154955243691802,0.0028054164722561836,39.643001556396484,46.540000915527344,48.39400100708008,56.97600173950195,43.66899871826172,57.31700134277344,1768294084,724480231,X6-tool2,-0.2905923922076533,3.0519088755919883,44.988559434652856,-0.01687761679148945,-0.0062383980448729864,0.01750032579640939,0.0768686905503273
2026-01-13 16:48:04.829850,0.0010327911004424095,2.8864998817443848,45.0011100769043,0.00041931637679226696,-0.001154955243691802,0.0028054164722561836,39.643001556396484,46.540000915527344,48.39400100708008,56.97600173950195,43.66899871826172,57.31700134277344,1768294084,823916362,X6-tool2,-0.255524532537532,3.0677802494920394,44.927283379884635,-0.01638109818320507,-0.00718438003726642,0.017609276254200258,0.07607904821634293
2026-01-13 16:48:04.864311,0.0010327911004424095,2.8864998817443848,45.0011100769043,0.00041931637679226696,-0.001154955243691802,0.0028054164722561836,39.643001556396484,46.540000915527344,48.39400100708008,56.97600173950195,43.66899871826172,57.31700134277344,1768294084,823916362,X6-tool2,-0.255524532537532,3.0677802494920394,44.927283379884635,-0.01638109818320507,-0.00718438003726642,0.017609276254200258,0.07607904821634293
2026-01-13 16:48:04.898812,0.0010327911004424095,2.8864998817443848,45.0011100769043,0.00041931637679226696,-0.001154955243691802,0.0028054164722561836,39.643001556396484,46.540000915527344,48.39400100708008,56.97600173950195,43.66899871826172,57.31700134277344,1768294084,823916362,X6-tool2,-0.255524532537532,3.0677802494920394,44.927283379884635,-0.01638109818320507,-0.00718438003726642,0.017609276254200258,0.07607904821634293
2026-01-13 16:48:04.933301,0.0010327911004424095,2.8864998817443848,45.0011100769043,0.00041931637679226696,-0.001154955243691802,0.0028054164722561836,39.643001556396484,46.540000915527344,48.39400100708008,56.97600173950195,43.66899871826172,57.31700134277344,1768294084,924059781,X6-tool2,-0.32327017294413973,3.101825434939179,44.995285682058096,-0.016024042083634043,-0.005574740271300279,0.017350902065999266,0.07594553381204605
2026-01-13 16:48:04.967843,0.0010327911004424095,2.8864998817443848,45.0011100769043,0.00041931637679226696,-0.001154955243691802,0.0028054164722561836,39.643001556396484,46.540000915527344,48.39400100708008,56.97600173950195,43.66899871826172,57.31700134277344,1768294084,924059781,X6-tool2,-0.32327017294413973,3.101825434939179,44.995285682058096,-0.016024042083634043,-0.005574740271300279,0.017350902065999266,0.07594553381204605
2026-01-13 16:48:05.002372,0.001070841564796865,2.88791823387146,45.00034713745117,0.00041931637679226696,-0.001154955243691802,0.0028054164722561836,39.643001556396484,46.53499984741211,48.39400100708008,56.97600173950195,43.66899871826172,57.31700134277344,1768294084,924059781,X6-tool2,-0.32327017294413973,3.101825434939179,44.995285682058096,-0.016024042083634043,-0.005574740271300279,0.017350902065999266,0.07594553381204605
2026-01-13 16:48:05.037270,-0.0003855546237900853,2.887024164199829,44.99977493286133,0.0016182950930669904,0.001139479805715382,-0.004746004939079285,39.643001556396484,46.53499984741211,48.39400100708008,56.970001220703125,43.66899871826172,57.31700134277344,1768294085,24099726,X6-tool2,-0.268291348265173,3.0278300958769115,44.98420177912766,-0.01740411815763887,-0.00657829489296814,0.017621285542414003,0.07902208715677261
2026-01-13 16:48:05.071772,-0.038360074162483215,2.8474624156951904,44.99049758911133,-0.020946988835930824,0.009119078516960144,0.008422871120274067,39.64799880981445,46.58399963378906,48.222999572753906,56.805999755859375,43.66400146484375,57.305999755859375,1768294085,24099726,X6-tool2,-0.268291348265173,3.0278300958769115,44.98420177912766,-0.01740411815763887,-0.00657829489296814,0.017621285542414003,0.07902208715677261
2026-01-13 16:48:05.106469,-0.07645955681800842,2.81368350982666,44.977787017822266,-0.046125322580337524,0.01348591037094593,0.006853350438177586,39.65399932861328,46.61199951171875,48.07500076293945,56.64099884033203,43.66400146484375,57.29499816894531,1768294085,24099726,X6-tool2,-0.268291348265173,3.0278300958769115,44.98420177912766,-0.01740411815763887,-0.00657829489296814,0.017621285542414003,0.07902208715677261
2026-01-13 16:48:05.141350,-0.11963184922933578,2.761028528213501,44.96488571166992,-0.061581216752529144,0.0224315095692873,0.011889290064573288,39.659000396728516,46.678001403808594,47.87699890136719,56.4379997253418,43.66400146484375,57.262001037597656,1768294085,123889210,X6-tool2,-0.3556672476499021,2.9982989657401333,44.95180315924063,-0.017256115240189475,-0.007778154947443782,0.01983545010279808,0.07276153564453125
2026-01-13 16:48:05.176585,-0.15868909657001495,2.6780858039855957,44.9442253112793,-0.04850750043988228,0.03561261296272278,-0.0036709264386445284,39.665000915527344,46.7869987487793,47.630001068115234,56.17900085449219,43.66400146484375,57.14099884033203,1768294085,123889210,X6-tool2,-0.3556672476499021,2.9982989657401333,44.95180315924063,-0.017256115240189475,-0.007778154947443782,0.01983545010279808,0.07276153564453125
2026-01-13 16:48:05.211058,-0.214809849858284,2.587080240249634,44.94050598144531,-0.03768005594611168,0.019704176113009453,0.017225882038474083,39.680999755859375,46.95800018310547,47.40999984741211,55.92100143432617,43.66400146484375,57.10300064086914,1768294085,123889210,X6-tool2,-0.3556672476499021,2.9982989657401333,44.95180315924063,-0.017256115240189475,-0.007778154947443782,0.01983545010279808,0.07276153564453125
2026-01-13 16:48:05.245575,-0.23436719179153442,2.544827938079834,44.93335723876953,-0.03768005594611168,0.019704176113009453,0.017225882038474083,39.6870002746582,47.02399826049805,47.29499816894531,55.79999923706055,43.65800094604492,57.053001403808594,1768294085,223926115,X6-tool2,-0.5199917484292883,2.9227608106128566,44.89652537817333,-0.016936059146597647,-0.008212151689245774,0.02245133638821354,0.06437873840332031
2026-01-13 16:48:05.280062,-0.2901548445224762,2.4634647369384766,44.92201614379883,-0.05040920153260231,0.029333509504795074,0.03802107274532318,39.7140007019043,47.15599822998047,47.02000045776367,55.5369987487793,43.65800094604492,57.00899887084961,1768294085,223926115,X6-tool2,-0.5199917484292883,2.9227608106128566,44.89652537817333,-0.016936059146597647,-0.008212151689245774,0.02245133638821354,0.06437873840332031
2026-01-13 16:48:05.314402,-0.3251757323741913,2.389606237411499,44.9047737121582,-0.06159793213009834,0.04503852128982544,0.02604116126894951,39.75299835205078,47.2599983215332,46.784000396728516,55.3120002746582,43.65800094604492,56.9109992980957,1768294085,223926115,X6-tool2,-0.5199917484292883,2.9227608106128566,44.89652537817333,-0.016936059146597647,-0.008212151689245774,0.02245133638821354,0.06437873840332031
2026-01-13 16:48:05.348940,-0.37236645817756653,2.2650201320648193,44.908145904541016,0.0014429005095735192,0.007391031831502914,0.0459020771086216,39.775001525878906,47.52899932861328,46.59199905395508,55.04800033569336,43.66400146484375,56.823001861572266,1768294085,323889066,X6-tool2,-0.5372785418030468,2.7841749603432473,44.874948342224066,-0.017469650292347236,-0.011573870445285109,0.02379222279299754,0.0656026229262352
2026-01-13 16:48:05.383466,-0.42101752758026123,2.1970279216766357,44.895172119140625,0.000655168027151376,0.006248318590223789,0.053670309484004974,39.7859992980957,47.632999420166016,46.388999938964844,54.81700134277344,43.66400146484375,56.784000396728516,1768294085,323889066,X6-tool2,-0.5372785418030468,2.7841749603432473,44.874948342224066,-0.017469650292347236,-0.011573870445285109,0.02379222279299754,0.0656026229262352
2026-01-13 16:48:05.417991,-0.440075546503067,2.1547811031341553,44.88909912109375,-0.0009487995412200689,-0.006538570858538151,0.047884732484817505,39.80799865722656,47.70500183105469,46.30099868774414,54.70199966430664,43.66400146484375,56.7400016784668,1768294085,323889066,X6-tool2,-0.5372785418030468,2.7841749603432473,44.874948342224066,-0.017469650292347236,-0.011573870445285109,0.02379222279299754,0.0656026229262352
2026-01-13 16:48:05.452510,-0.496367484331131,2.060206651687622,44.877017974853516,0.012750684283673763,-0.023642895743250847,0.05815165862441063,39.82400131225586,47.869998931884766,46.07600021362305,54.422000885009766,43.66899871826172,56.68000030517578,1768294085,424053096,X6-tool2,-0.6129595411762222,2.566839786605739,44.86862264568588,-0.017113154388227123,-0.013987046960755287,0.02324518986825476,0.08023706823587418
2026-01-13 16:48:05.487027,-0.5500871539115906,1.9613850116729736,44.86658477783203,0.017907988280057907,-0.03770942613482475,0.06801407784223557,39.862998962402344,48.05099868774414,45.8390007019043,54.14699935913086,43.67399978637695,56.61399841308594,1768294085,424053096,X6-tool2,-0.6129595411762222,2.566839786605739,44.86862264568588,-0.017113154388227123,-0.013987046960755287,0.02324518986825476,0.08023706823587418
2026-01-13 16:48:05.521542,-0.5817685127258301,1.9214917421340942,44.85606002807617,0.008639666251838207,-0.05097659304738045,0.06225096434354782,39.87900161743164,48.10599899291992,45.73500061035156,53.999000549316406,43.67399978637695,56.59199905395508,1768294085,424053096,X6-tool2,-0.6129595411762222,2.566839786605739,44.86862264568588,-0.017113154388227123,-0.013987046960755287,0.02324518986825476,0.08023706823587418
2026-01-13 16:48:05.556035,-0.6446270942687988,1.8350601196289062,44.83327102661133,-0.029017074033617973,-0.05481517314910889,0.04997911676764488,39.93899917602539,48.22700119018555,45.465999603271484,53.691001892089844,43.68000030517578,56.53200149536133,1768294085,532052282,X6-tool2,-0.7801666375904339,2.4708153092157366,44.81430553780827,-0.016573889655304153,-0.01470979594542486,0.023593097370208902,0.07670179754495621
2026-01-13 16:48:05.590556,-0.6723994016647339,1.764097809791565,44.8250617980957,-0.05476498603820801,-0.033624302595853806,0.04865249991416931,40.01599884033203,48.35900115966797,45.24599838256836,53.51499938964844,43.691001892089844,56.459999084472656,1768294085,532052282,X6-tool2,-0.7801666375904339,2.4708153092157366,44.81430553780827,-0.016573889655304153,-0.01470979594542486,0.023593097370208902,0.07670179754495621
2026-01-13 16:48:05.625082,-0.6946975588798523,1.7285969257354736,44.81892776489258,-0.0798167809844017,-0.021971045061945915,0.051882367581129074,40.05500030517578,48.41899871826172,45.11399841308594,53.404998779296875,43.69599914550781,56.4379997253418,1768294085,532052282,X6-tool2,-0.7801666375904339,2.4708153092157366,44.81430553780827,-0.016573889655304153,-0.01470979594542486,0.023593097370208902,0.07670179754495621
2026-01-13 16:48:05.659585,-0.7448128461837769,1.6483639478683472,44.80520248413086,-0.10342421382665634,-0.033882252871990204,0.023294486105442047,40.137001037597656,48.555999755859375,44.928001403808594,53.15800094604492,43.7239990234375,56.388999938964844,1768294085,631412320,X6-tool2,-0.8937799559208874,2.2910619873903317,44.827271584563285,-0.017756359747184435,-0.016676472273130724,0.024027966430428378,0.06371530145406723
2026-01-13 16:48:05.694108,-0.7827077507972717,1.5798444747924805,44.79261016845703,-0.11351021379232407,-0.013675146736204624,0.011811947450041771,40.1870002746582,48.672000885009766,44.71900177001953,52.95500183105469,43.762001037597656,56.33399963378906,1768294085,631412320,X6-tool2,-0.8937799559208874,2.2910619873903317,44.827271584563285,-0.017756359747184435,-0.016676472273130724,0.024027966430428378,0.06371530145406723
2026-01-13 16:48:05.728594,-0.826483428478241,1.5008424520492554,44.77314758300781,-0.10131664574146271,-0.006752067245543003,-0.003694072598591447,40.20899963378906,48.792999267578125,44.520999908447266,52.70800018310547,43.79499816894531,56.25699996948242,1768294085,631412320,X6-tool2,-0.8937799559208874,2.2910619873903317,44.827271584563285,-0.017756359747184435,-0.016676472273130724,0.024027966430428378,0.06371530145406723
2026-01-13 16:48:05.762900,-0.8530169129371643,1.457148790359497,44.761558532714844,-0.0984201431274414,-0.020820828154683113,-0.008699607104063034,40.220001220703125,48.858001708984375,44.422000885009766,52.564998626708984,43.79499816894531,56.21799850463867,1768294085,730862292,X6-tool2,-1.0212020695690003,2.1384086621342466,44.827087144138346,-0.01752014588266677,-0.01841828233848171,0.023609904176278347,0.06793403625488281
2026-01-13 16:48:05.797393,-0.9037103652954102,1.3605964183807373,44.74501419067383,-0.0707986131310463,-0.01321982592344284,-0.01292379479855299,40.242000579833984,49.02899932861328,44.191001892089844,52.290000915527344,43.845001220703125,56.141998291015625,1768294085,730862292,X6-tool2,-1.0212020695690003,2.1384086621342466,44.827087144138346,-0.01752014588266677,-0.01841828233848171,0.023609904176278347,0.06793403625488281
2026-01-13 16:48:05.832576,-0.9562453627586365,1.2628037929534912,44.730342864990234,-0.04637647792696953,-0.027532264590263367,-0.004855097737163305,40.263999938964844,49.209999084472656,43.97700119018555,52.01599884033203,43.87200164794922,56.07600021362305,1768294085,830592665,X6-tool2,-1.0371217813154567,1.9369356727599814,44.775820026544665,-0.017700542196031652,-0.020540968862071546,0.02354984822879436,0.0713043212890625
2026-01-13 16:48:05.867078,-0.9718984961509705,1.227015733718872,44.724666595458984,-0.037087954580783844,-0.009396562352776527,-0.015480724163353443,40.28499984741211,49.2760009765625,43.88399887084961,51.922000885009766,43.9109992980957,56.042999267578125,1768294085,830592665,X6-tool2,-1.0371217813154567,1.9369356727599814,44.775820026544665,-0.017700542196031652,-0.020540968862071546,0.02354984822879436,0.0713043212890625
2026-01-13 16:48:05.901924,-1.017128586769104,1.1364346742630005,44.71875762939453,-0.01806550845503807,-0.02103828452527523,-4.809343226952478e-05,40.32400131225586,49.46799850463867,43.696998596191406,51.696998596191406,43.944000244140625,55.999000549316406,1768294085,830592665,X6-tool2,-1.0371217813154567,1.9369356727599814,44.775820026544665,-0.017700542196031652,-0.020540968862071546,0.02354984822879436,0.0713043212890625
2026-01-13 16:48:05.936441,-1.0664926767349243,1.0493850708007812,44.70741653442383,-0.01806550845503807,-0.02103828452527523,-4.809343226952478e-05,40.37900161743164,49.63800048828125,43.49399948120117,51.45500183105469,43.987998962402344,55.95500183105469,1768294085,929785716,X6-tool2,-1.2162671390859405,1.650348178738601,44.731528742764084,-0.01983899070251693,-0.019664602097120277,0.02179410460422533,0.06934865564107895
2026-01-13 16:48:05.970979,-1.123557448387146,0.9708013534545898,44.689170837402344,-0.0174175426363945,-0.042982812970876694,-0.01375974714756012,40.41699981689453,49.77000045776367,43.31800079345703,51.19200134277344,44.0260009765625,55.922000885009766,1768294085,929785716,X6-tool2,-1.2162671390859405,1.650348178738601,44.731528742764084,-0.01983899070251693,-0.019664602097120277,0.02179410460422533,0.06934865564107895
2026-01-13 16:48:06.005462,-1.149694800376892,0.9299675822257996,44.6806640625,-0.01642792858183384,-0.052695803344249725,-0.01907883770763874,40.43899917602539,49.84199905395508,43.22999954223633,51.064998626708984,44.042999267578125,55.900001525878906,1768294085,929785716,X6-tool2,-1.2162671390859405,1.650348178738601,44.731528742764084,-0.01983899070251693,-0.019664602097120277,0.02179410460422533,0.06934865564107895
2026-01-13 16:48:06.039954,-1.1959795951843262,0.8392119407653809,44.67036437988281,0.003609331091865897,-0.05095688998699188,-0.010510792024433613,40.47800064086914,50.02799987792969,43.027000427246094,50.82899856567383,44.09700012207031,55.849998474121094,1768294086,29358063,X6-tool2,-1.3285937051927537,1.5567857779181513,44.592544107974526,-0.018148379666488107,-0.021249285719725296,0.020593222956676323,0.06505648046731949
2026-01-13 16:48:06.074458,-1.2371309995651245,0.7573105692863464,44.65777587890625,-0.0035411876160651445,-0.034436605870723724,-0.01502503827214241,40.54399871826172,50.1879997253418,42.8129997253418,50.60900115966797,44.152000427246094,55.79499816894531,1768294086,29358063,X6-tool2,-1.3285937051927537,1.5567857779181513,44.592544107974526,-0.018148379666488107,-0.021249285719725296,0.020593222956676323,0.06505648046731949
2026-01-13 16:48:06.109004,-1.2698959112167358,0.6868752837181091,44.650177001953125,-0.026949670165777206,0.018692221492528915,0.00873545277863741,40.604000091552734,50.33599853515625,42.55500030517578,50.433998107910156,44.207000732421875,55.75199890136719,1768294086,29358063,X6-tool2,-1.3285937051927537,1.5567857779181513,44.592544107974526,-0.018148379666488107,-0.021249285719725296,0.020593222956676323,0.06505648046731949
2026-01-13 16:48:06.143493,-1.2876510620117188,0.6440793871879578,44.64855194091797,-0.02132192626595497,0.025570956990122795,0.025276310741901398,40.625999450683594,50.435001373291016,42.45000076293945,50.34000015258789,44.229000091552734,55.72999954223633,1768294086,129083955,X6-tool2,-1.3383940012298878,1.4374536231257553,44.646232522286205,-0.017455635515859415,-0.02388810419318332,0.020295748072409737,0.07589689642190933
2026-01-13 16:48:06.177991,-1.3306949138641357,0.5569494366645813,44.64140319824219,-0.0011830030707642436,0.020057132467627525,0.04288798198103905,40.665000915527344,50.62699890136719,42.26900100708008,50.125999450683594,44.27899932861328,55.691001892089844,1768294086,129083955,X6-tool2,-1.3383940012298878,1.4374536231257553,44.646232522286205,-0.017455635515859415,-0.02388810419318332,0.020295748072409737,0.07589689642190933
2026-01-13 16:48:06.212489,-1.3970942497253418,0.4646441638469696,44.61573791503906,0.00616208091378212,0.006942369509488344,0.021784331649541855,40.70800018310547,50.78099822998047,42.060001373291016,49.8129997253418,44.349998474121094,55.64699935913086,1768294086,129083955,X6-tool2,-1.3383940012298878,1.4374536231257553,44.646232522286205,-0.017455635515859415,-0.02388810419318332,0.020295748072409737,0.07589689642190933
2026-01-13 16:48:06.247211,-1.4443292617797852,0.37108156085014343,44.60758972167969,0.03261430934071541,-0.0144167710095644,0.021838190034031868,40.76300048828125,50.9900016784668,41.90599822998047,49.582000732421875,44.41600036621094,55.60900115966797,1768294086,228296387,X6-tool2,-1.4638331842580137,1.13601042582166,44.631013933303464,-0.01973121585984751,-0.02482360740333267,0.020110046808606258,0.07076549530029297
2026-01-13 16:48:06.281630,-1.4753639698028564,0.3305771052837372,44.595176696777344,0.027165433391928673,-0.029111040756106377,0.0040872711688280106,40.79600143432617,51.055999755859375,41.82400131225586,49.43899917602539,44.444000244140625,55.59199905395508,1768294086,228296387,X6-tool2,-1.4638331842580137,1.13601042582166,44.631013933303464,-0.01973121585984751,-0.02482360740333267,0.020110046808606258,0.07076549530029297
2026-01-13 16:48:06.316126,-1.523794412612915,0.25809648633003235,44.5775260925293,0.016493886709213257,-0.025550199672579765,-0.005985287483781576,40.85100173950195,51.1879997253418,41.637001037597656,49.20899963378906,44.50400161743164,55.558998107910156,1768294086,228296387,X6-tool2,-1.4638331842580137,1.13601042582166,44.631013933303464,-0.01973121585984751,-0.02482360740333267,0.020110046808606258,0.07076549530029297
2026-01-13 16:48:06.350432,-1.5749568939208984,0.19018703699111938,44.56293487548828,0.01623339019715786,-0.03304652124643326,-0.014329761266708374,40.89500045776367,51.319000244140625,41.483001708984375,48.98899841308594,44.56999969482422,55.54800033569336,1768294086,327748908,X6-tool2,-1.7741570339763402,1.001413190530241,44.56527233065877,-0.017987567033146502,-0.02207769707916989,0.01819030405742847,0.06687036901712418
2026-01-13 16:48:06.384960,-1.592546820640564,0.15656951069831848,44.558204650878906,0.01623339019715786,-0.03304652124643326,-0.014329761266708374,40.91699981689453,51.39099884033203,41.4010009765625,48.9010009765625,44.59700012207031,55.53200149536133,1768294086,327748908,X6-tool2,-1.7741570339763402,1.001413190530241,44.56527233065877,-0.017987567033146502,-0.02207769707916989,0.01819030405742847,0.06687036901712418
2026-01-13 16:48:06.419818,-1.6381701231002808,0.08192212134599686,44.5468635559082,0.003955745603889227,-0.024073021486401558,0.005863487720489502,40.97200012207031,51.54999923706055,41.202999114990234,48.69200134277344,44.64699935913086,55.5099983215332,1768294086,327748908,X6-tool2,-1.7741570339763402,1.001413190530241,44.56527233065877,-0.017987567033146502,-0.02207769707916989,0.01819030405742847,0.06687036901712418
2026-01-13 16:48:06.454283,-1.6931034326553345,-0.0009884651517495513,44.5312614440918,-0.02539406344294548,-0.0248215664178133,6.500269955722615e-05,41.060001373291016,51.720001220703125,40.99399948120117,48.44499969482422,44.7130012512207,55.487998962402344,1768294086,427308054,X6-tool2,-1.7305892838358765,0.8591210520509339,44.46950668299425,-0.017629336637975206,-0.026760389356742978,0.018124737899150704,0.08536402136087418
2026-01-13 16:48:06.488725,-1.7384299039840698,-0.08281364291906357,44.51664352416992,-0.012940964661538601,-0.020580187439918518,-0.007803015410900116,41.1150016784668,51.89099884033203,40.819000244140625,48.220001220703125,44.80099868774414,55.44900131225586,1768294086,427308054,X6-tool2,-1.7305892838358765,0.8591210520509339,44.46950668299425,-0.017629336637975206,-0.026760389356742978,0.018124737899150704,0.08536402136087418
2026-01-13 16:48:06.523221,-1.76248037815094,-0.12866096198558807,44.50932693481445,-0.0015640623169019818,-0.023892603814601898,-0.0092860022559762,41.141998291015625,51.9900016784668,40.73099899291992,48.0989990234375,44.845001220703125,55.426998138427734,1768294086,427308054,X6-tool2,-1.7305892838358765,0.8591210520509339,44.46950668299425,-0.017629336637975206,-0.026760389356742978,0.018124737899150704,0.08536402136087418
2026-01-13 16:48:06.557766,-1.7996294498443604,-0.21480302512645721,44.49915313720703,0.009027671068906784,-0.005833806935697794,-0.005424031056463718,41.20800018310547,52.1870002746582,40.53900146484375,47.895999908447266,44.9379997253418,55.37799835205078,1768294086,526733055,X6-tool2,-1.8594616923293088,0.5953582333116059,44.499945098451036,-0.019119254544620014,-0.02768369257272148,0.017618431097002077,0.0727294310927391
2026-01-13 16:48:06.592242,-1.8459101915359497,-0.31309744715690613,44.494117736816406,0.0204332135617733,-0.01625828444957733,0.019528334960341454,41.279998779296875,52.433998107910156,40.35200119018555,47.67599868774414,45.01499938964844,55.35100173950195,1768294086,526733055,X6-tool2,-1.8594616923293088,0.5953582333116059,44.499945098451036,-0.019119254544620014,-0.02768369257272148,0.017618431097002077,0.0727294310927391
2026-01-13 16:48:06.626582,-1.862817406654358,-0.3572838306427002,44.49139404296875,0.03574996069073677,-0.01616922952234745,0.032632190734148026,41.301998138427734,52.54399871826172,40.26900100708008,47.58300018310547,45.053001403808594,55.32899856567383,1768294086,526733055,X6-tool2,-1.8594616923293088,0.5953582333116059,44.499945098451036,-0.019119254544620014,-0.02768369257272148,0.017618431097002077,0.0727294310927391
2026-01-13 16:48:06.661938,-1.9025509357452393,-0.4305016100406647,44.48213195800781,0.017839636653661728,-0.0050708940252661705,0.05173708498477936,41.36800003051758,52.71500015258789,40.07699966430664,47.395999908447266,45.11399841308594,55.30699920654297,1768294086,626285241,X6-tool2,-2.0502417370656745,0.4781792627336539,44.37608424565504,-0.01722645590173182,-0.027321319780650267,0.016090208675574078,0.06996854394674301
2026-01-13 16:48:06.696441,-1.9502251148223877,-0.50807785987854,44.465694427490234,0.002869201824069023,-0.008693985641002655,0.03648350387811661,41.45000076293945,52.87900161743164,39.90700149536133,47.17100143432617,45.19599914550781,55.27899932861328,1768294086,626285241,X6-tool2,-2.0502417370656745,0.4781792627336539,44.37608424565504,-0.01722645590173182,-0.027321319780650267,0.016090208675574078,0.06996854394674301
2026-01-13 16:48:06.730884,-2.0046887397766113,-0.5992665886878967,44.451148986816406,0.01101886760443449,-0.02422378398478031,0.027245400473475456,41.527000427246094,53.0880012512207,39.742000579833984,46.92300033569336,45.29999923706055,55.25699996948242,1768294086,725996912,X6-tool2,-2.120501419018917,0.28881090277575083,44.397975165861816,-0.01756302030641294,-0.029418940425398308,0.01545318320684875,0.08533700555562973
2026-01-13 16:48:06.765402,-2.030987501144409,-0.641548752784729,44.44308853149414,0.007355038542300463,-0.010083131492137909,0.025324273854494095,41.564998626708984,53.18199920654297,39.63199996948242,46.803001403808594,45.36600112915039,55.24599838256836,1768294086,725996912,X6-tool2,-2.120501419018917,0.28881090277575083,44.397975165861816,-0.01756302030641294,-0.029418940425398308,0.01545318320684875,0.08533700555562973
2026-01-13 16:48:06.799909,-2.085761785507202,-0.7198918461799622,44.422237396240234,-0.022614002227783203,0.0019894323777407408,-0.009564158506691456,41.66999816894531,53.340999603271484,39.439998626708984,46.55500030517578,45.48699951171875,55.2239990234375,1768294086,725996912,X6-tool2,-2.120501419018917,0.28881090277575083,44.397975165861816,-0.01756302030641294,-0.029418940425398308,0.01545318320684875,0.08533700555562973
2026-01-13 16:48:06.834413,-2.137019157409668,-0.8113313317298889,44.40937805175781,4.032065407955088e-05,-0.02437683567404747,-0.004683002829551697,41.72999954223633,53.56100082397461,39.29199981689453,46.319000244140625,45.58100128173828,55.20199966430664,1768294086,825311139,X6-tool2,-2.3101584537241675,0.05856459167268815,44.40461688820664,-0.018179426864797798,-0.02932734381455089,0.014235250214542366,0.0748198851943016
2026-01-13 16:48:06.869037,-2.187194347381592,-0.8878156542778015,44.39082336425781,-0.009784886613488197,-0.013137801550328732,-0.008018800057470798,41.79600143432617,53.724998474121094,39.0989990234375,46.0890007019043,45.685001373291016,55.18000030517578,1768294086,825311139,X6-tool2,-2.3101584537241675,0.05856459167268815,44.40461688820664,-0.018179426864797798,-0.02932734381455089,0.014235250214542366,0.0748198851943016
2026-01-13 16:48:06.903508,-2.2015888690948486,-0.9200088381767273,44.387935638427734,-0.004960284568369389,-0.006570122670382261,-0.011508655734360218,41.82899856567383,53.80799865722656,39.03900146484375,46.016998291015625,45.7400016784668,55.16899871826172,1768294086,825311139,X6-tool2,-2.3101584537241675,0.05856459167268815,44.40461688820664,-0.018179426864797798,-0.02932734381455089,0.014235250214542366,0.0748198851943016
2026-01-13 16:48:06.937958,-2.2445099353790283,-1.004164695739746,44.38215637207031,0.017728524282574654,-0.014029094018042088,-0.009177440777420998,41.900001525878906,54.03300094604492,38.90700149536133,45.82500076293945,45.86600112915039,55.15800094604492,1768294086,924851104,X6-tool2,-2.400747988808166,-0.10127337510939197,44.28783988950309,-0.017617115929898765,-0.03093366784717059,0.013043547290338535,0.07374604791402817
2026-01-13 16:48:06.972437,-2.2947497367858887,-1.0796763896942139,44.36854553222656,0.014313781633973122,-0.036375585943460464,0.006817702669650316,41.95500183105469,54.2140007019043,38.75299835205078,45.611000061035156,45.93199920654297,55.15299987792969,1768294086,924851104,X6-tool2,-2.400747988808166,-0.10127337510939197,44.28783988950309,-0.017617115929898765,-0.03093366784717059,0.013043547290338535,0.07374604791402817
2026-01-13 16:48:07.006743,-2.3382773399353027,-1.1514883041381836,44.35662078857422,0.011536750942468643,-0.030664052814245224,0.011994365602731705,42.020999908447266,54.38999938964844,38.58300018310547,45.417999267578125,46.0369987487793,55.141998291015625,1768294086,924851104,X6-tool2,-2.400747988808166,-0.10127337510939197,44.28783988950309,-0.017617115929898765,-0.03093366784717059,0.013043547290338535,0.07374604791402817
2026-01-13 16:48:07.041299,-2.3589329719543457,-1.189526081085205,44.3521614074707,-0.0029695320408791304,-0.030783727765083313,-0.0019313894445076585,42.082000732421875,54.48899841308594,38.52299880981445,45.32500076293945,46.09700012207031,55.13600158691406,1768294087,24094147,X6-tool2,-2.5708975080259284,-0.36855892495641046,44.23854040875265,-0.01946684449709859,-0.030576895784988574,0.01283937394484622,0.07938321679830551
2026-01-13 16:48:07.075708,-2.4114878177642822,-1.2755340337753296,44.33777618408203,0.005146368872374296,-0.05435224249958992,0.0007828582893125713,42.15299987792969,54.702999114990234,38.374000549316406,45.09400177001953,46.20100021362305,55.125,1768294087,24094147,X6-tool2,-2.5708975080259284,-0.36855892495641046,44.23854040875265,-0.01946684449709859,-0.030576895784988574,0.01283937394484622,0.07938321679830551
2026-01-13 16:48:07.110200,-2.4597795009613037,-1.358769416809082,44.325531005859375,-0.0024353836197406054,-0.04331640154123306,0.001403409638442099,42.24100112915039,54.91699981689453,38.19300079345703,44.880001068115234,46.3390007019043,55.11399841308594,1768294087,24094147,X6-tool2,-2.5708975080259284,-0.36855892495641046,44.23854040875265,-0.01946684449709859,-0.030576895784988574,0.01283937394484622,0.07938321679830551
2026-01-13 16:48:07.144531,-2.4874260425567627,-1.4043290615081787,44.318016052246094,-0.015275202691555023,-0.0444202646613121,0.007803263608366251,42.290000915527344,55.03300094604492,38.0890007019043,44.75899887084961,46.39400100708008,55.10900115966797,1768294087,123932664,X6-tool2,-2.5719291434249403,-0.5604435877579628,44.181391904384576,-0.01862544996326731,-0.03445505435450964,0.012686647642352111,0.07844098657369614
2026-01-13 16:48:07.179059,-2.463662624359131,-1.4451982975006104,44.317623138427734,-0.02754989266395569,0.01039030123502016,0.03630160912871361,42.33399963378906,55.143001556396484,37.96200180053711,44.74800109863281,46.40999984741211,55.0099983215332,1768294087,123932664,X6-tool2,-2.5719291434249403,-0.5604435877579628,44.181391904384576,-0.01862544996326731,-0.03445505435450964,0.012686647642352111,0.07844098657369614
2026-01-13 16:48:07.213542,-2.386749029159546,-1.4573410749435425,44.30626678466797,0.004004428628832102,0.036508332937955856,0.011724456213414669,42.33399963378906,55.12099838256836,37.979000091552734,44.83100128173828,46.31700134277344,54.790000915527344,1768294087,123932664,X6-tool2,-2.5719291434249403,-0.5604435877579628,44.181391904384576,-0.01862544996326731,-0.03445505435450964,0.012686647642352111,0.07844098657369614
2026-01-13 16:48:07.248048,-2.302016496658325,-1.4695004224777222,44.29532241821289,0.013353656977415085,0.03652643412351608,0.0189222265034914,42.32899856567383,55.0989990234375,37.9900016784668,44.92900085449219,46.124000549316406,54.55400085449219,1768294087,223963028,X6-tool2,-2.66862588492532,-0.6474484853637433,44.11483927503725,-0.01722393822953181,-0.031221168217740045,0.013256948734459047,0.08271089941263199
2026-01-13 16:48:07.282506,-2.2524054050445557,-1.4622604846954346,44.29371643066406,0.0007749696378596127,0.04292822256684303,0.026290055364370346,42.32899856567383,55.060001373291016,38.00600051879883,45.016998291015625,46.00400161743164,54.444000244140625,1768294087,223963028,X6-tool2,-2.66862588492532,-0.6474484853637433,44.11483927503725,-0.01722393822953181,-0.031221168217740045,0.013256948734459047,0.08271089941263199
2026-01-13 16:48:07.317053,-2.164719820022583,-1.4685564041137695,44.28440475463867,-0.0017057707300409675,0.047756377607584,0.03710241615772247,42.32899856567383,55.027000427246094,38.016998291015625,45.132999420166016,45.79999923706055,54.2130012512207,1768294087,223963028,X6-tool2,-2.66862588492532,-0.6474484853637433,44.11483927503725,-0.01722393822953181,-0.031221168217740045,0.013256948734459047,0.08271089941263199
2026-01-13 16:48:07.351554,-2.0666654109954834,-1.4658633470535278,44.26591873168945,-0.009865527041256428,0.046013329178094864,0.023127956315875053,42.32899856567383,54.93899917602539,38.04999923706055,45.25400161743164,45.558998107910156,53.944000244140625,1768294087,324073235,X6-tool2,-2.5336892054936224,-0.8548099157832123,44.14345632444925,-0.0172559011572485,-0.02992863268470102,0.016434243967380288,0.06918207556009293
2026-01-13 16:48:07.385928,-2.017171621322632,-1.4645286798477173,44.26011276245117,-0.009002703242003918,0.05906921252608299,0.020013362169265747,42.32899856567383,54.90599822998047,38.06100082397461,45.32500076293945,45.46500015258789,53.81800079345703,1768294087,324073235,X6-tool2,-2.5336892054936224,-0.8548099157832123,44.14345632444925,-0.0172559011572485,-0.02992863268470102,0.016434243967380288,0.06918207556009293
2026-01-13 16:48:07.420423,-1.9136667251586914,-1.463596224784851,44.25044250488281,0.0006780981202609837,0.06146109476685524,0.02878664992749691,42.31800079345703,54.85100173950195,38.10499954223633,45.479000091552734,45.23500061035156,53.560001373291016,1768294087,324073235,X6-tool2,-2.5336892054936224,-0.8548099157832123,44.14345632444925,-0.0172559011572485,-0.02992863268470102,0.016434243967380288,0.06918207556009293
2026-01-13 16:48:07.454938,-1.826965570449829,-1.4594138860702515,44.235198974609375,-0.004543262999504805,0.05146199092268944,0.01948677934706211,42.31800079345703,54.775001525878906,38.14899826049805,45.59400177001953,45.01499938964844,53.32899856567383,1768294087,424134301,X6-tool2,-2.218928910432306,-0.9371654102166077,44.075411624667666,-0.016704159244517888,-0.02862507801801079,0.01903508684484945,0.07929865270853043
2026-01-13 16:48:07.489505,-1.7290904521942139,-1.453716516494751,44.21196365356445,0.0011554865632206202,0.06883690506219864,-0.015633292496204376,42.31800079345703,54.66999816894531,38.1870002746582,45.709999084472656,44.823001861572266,53.05400085449219,1768294087,424134301,X6-tool2,-2.218928910432306,-0.9371654102166077,44.075411624667666,-0.016704159244517888,-0.02862507801801079,0.01903508684484945,0.07929865270853043
2026-01-13 16:48:07.524029,-1.6799834966659546,-1.4534631967544556,44.20789337158203,4.115044430363923e-05,0.06454251706600189,-0.007089009042829275,42.31800079345703,54.64799880981445,38.20899963378906,45.7859992980957,44.70199966430664,52.933998107910156,1768294087,424134301,X6-tool2,-2.218928910432306,-0.9371654102166077,44.075411624667666,-0.016704159244517888,-0.02862507801801079,0.01903508684484945,0.07929865270853043
2026-01-13 16:48:07.558612,-1.5819624662399292,-1.455295443534851,44.19720458984375,0.006755261216312647,0.0668659657239914,0.00039804744301363826,42.31800079345703,54.604000091552734,38.24800109863281,45.92900085449219,44.48699951171875,52.68600082397461,1768294087,523933596,X6-tool2,-2.0722900823982955,-1.0353382606180592,44.131415319503056,-0.016257823885884023,-0.02406274497987384,0.02109938271149164,0.07087421417236328
2026-01-13 16:48:07.593208,-1.497801423072815,-1.459320068359375,44.17585372924805,0.03138080611824989,0.00553222605958581,-0.03453584760427475,42.31800079345703,54.53799819946289,38.358001708984375,46.016998291015625,44.250999450683594,52.43899917602539,1768294087,523933596,X6-tool2,-2.0722900823982955,-1.0353382606180592,44.131415319503056,-0.016257823885884023,-0.02406274497987384,0.02109938271149164,0.07087421417236328
2026-01-13 16:48:07.627501,-1.403937578201294,-1.464904546737671,44.16055679321289,0.04044153168797493,-0.0034396625123918056,-0.04208606481552124,42.323001861572266,54.49399948120117,38.40700149536133,46.13800048828125,44.042999267578125,52.18600082397461,1768294087,624106336,X6-tool2,-1.8864703651429147,-1.045771190037161,44.137727354055464,-0.014613017027617308,-0.01981567183693689,0.022190998234727116,0.06981182098388672
2026-01-13 16:48:07.661972,-1.3500049114227295,-1.4527837038040161,44.15966033935547,0.03326467052102089,0.015520801767706871,-0.027694376185536385,42.323001861572266,54.45000076293945,38.42399978637695,46.24800109863281,43.93299865722656,52.07699966430664,1768294087,624106336,X6-tool2,-1.8864703651429147,-1.045771190037161,44.137727354055464,-0.014613017027617308,-0.01981567183693689,0.022190998234727116,0.06981182098388672
2026-01-13 16:48:07.696480,-1.27308189868927,-1.4541798830032349,44.15097427368164,0.026567939668893814,-0.010706529952585697,-0.004225257784128189,42.323001861572266,54.417999267578125,38.46200180053711,46.362998962402344,43.707000732421875,51.88399887084961,1768294087,624106336,X6-tool2,-1.8864703651429147,-1.045771190037161,44.137727354055464,-0.014613017027617308,-0.01981567183693689,0.022190998234727116,0.06981182098388672
2026-01-13 16:48:07.730923,-1.1814625263214111,-1.4528414011001587,44.14109420776367,0.018004270270466805,-0.03503528982400894,0.016092121601104736,42.32899856567383,54.374000549316406,38.512001037597656,46.50600051879883,43.45500183105469,51.659000396728516,1768294087,723921581,X6-tool2,-1.6916499685884034,-1.0549945298413141,44.08066282862313,-0.013449141560351853,-0.017783199201845134,0.022561207346298833,0.07302983850240707
2026-01-13 16:48:07.765424,-1.135169506072998,-1.4525729417800903,44.13564682006836,0.024314353242516518,-0.032044894993305206,0.018940024077892303,42.32899856567383,54.35200119018555,38.534000396728516,46.57699966430664,43.361000061035156,51.54399871826172,1768294087,723921581,X6-tool2,-1.6916499685884034,-1.0549945298413141,44.08066282862313,-0.013449141560351853,-0.017783199201845134,0.022561207346298833,0.07302983850240707
2026-01-13 16:48:07.799908,-1.0270881652832031,-1.4498975276947021,44.11943817138672,0.03898446261882782,-0.007171796169131994,0.011047164909541607,42.33399963378906,54.2859992980957,38.57699966430664,46.73699951171875,43.16899871826172,51.26900100708008,1768294087,723921581,X6-tool2,-1.6916499685884034,-1.0549945298413141,44.08066282862313,-0.013449141560351853,-0.017783199201845134,0.022561207346298833,0.07302983850240707
2026-01-13 16:48:07.834195,-0.9307494759559631,-1.442568302154541,44.110469818115234,0.026918888092041016,0.013695495203137398,0.02421346679329872,42.35100173950195,54.23099899291992,38.60499954223633,46.902000427246094,42.97100067138672,51.04399871826172,1768294087,823877023,X6-tool2,-1.4246786357577603,-1.0922938011808532,44.04309413833456,-0.013961143070685992,-0.016319121916732907,0.022657262265144126,0.06526056677103043
2026-01-13 16:48:07.868749,-0.8245068192481995,-1.4446965456008911,44.09791564941406,0.04148948937654495,0.048232629895210266,0.017656628042459488,42.37300109863281,54.19200134277344,38.643001556396484,47.066001892089844,42.80699920654297,50.779998779296875,1768294087,823877023,X6-tool2,-1.4246786357577603,-1.0922938011808532,44.04309413833456,-0.013961143070685992,-0.016319121916732907,0.022657262265144126,0.06526056677103043
2026-01-13 16:48:07.903263,-0.771695077419281,-1.442175269126892,44.092220306396484,0.04755360260605812,0.0687665194272995,0.019089318811893463,42.37799835205078,54.165000915527344,38.65999984741211,47.15399932861328,42.7239990234375,50.65399932861328,1768294087,823877023,X6-tool2,-1.4246786357577603,-1.0922938011808532,44.04309413833456,-0.013961143070685992,-0.016319121916732907,0.022657262265144126,0.06526056677103043
2026-01-13 16:48:07.937783,-0.6781047582626343,-1.440488576889038,44.08225631713867,0.03554011136293411,0.0721001997590065,0.03144511952996254,42.40599822998047,54.125999450683594,38.698001861572266,47.30799865722656,42.51499938964844,50.42900085449219,1768294087,924163567,X6-tool2,-1.1340395994373922,-1.137042633607912,44.0105049112552,-0.015112090074027147,-0.015583881193962139,0.022247085781233068,0.06335607916116714
2026-01-13 16:48:07.972308,-0.5791451334953308,-1.4362616539001465,44.07088088989258,0.029761774465441704,0.09107153117656708,0.03058219887316227,42.43899917602539,54.07699966430664,38.742000579833984,47.472999572753906,42.32899856567383,50.19200134277344,1768294087,924163567,X6-tool2,-1.1340395994373922,-1.137042633607912,44.0105049112552,-0.015112090074027147,-0.015583881193962139,0.022247085781233068,0.06335607916116714
2026-01-13 16:48:08.006813,-0.5302659273147583,-1.4402964115142822,44.06393051147461,0.03797823563218117,0.08339573442935944,0.030930371955037117,42.45000076293945,54.066001892089844,38.775001525878906,47.54399871826172,42.2239990234375,50.066001892089844,1768294087,924163567,X6-tool2,-1.1340395994373922,-1.137042633607912,44.0105049112552,-0.015112090074027147,-0.015583881193962139,0.022247085781233068,0.06335607916116714
2026-01-13 16:48:08.041363,-0.440669983625412,-1.4412368535995483,44.04866409301758,0.017331236973404884,0.04951753839850426,0.0194183811545372,42.505001068115234,54.02199935913086,38.84700012207031,47.67599868774414,41.987998962402344,49.834999084472656,1768294088,23901940,X6-tool2,-0.9013131078528195,-1.1173857901512774,43.94569384456821,-0.014269241497445679,-0.015353613064767176,0.022523076968222644,0.06745147705078125
2026-01-13 16:48:08.075781,-0.34810906648635864,-1.4509432315826416,44.032493591308594,0.0192869920283556,0.030065415427088737,0.005008738487958908,42.55400085449219,54.0,38.91299819946289,47.801998138427734,41.78499984741211,49.5880012512207,1768294088,23901940,X6-tool2,-0.9013131078528195,-1.1173857901512774,43.94569384456821,-0.014269241497445679,-0.015353613064767176,0.022523076968222644,0.06745147705078125
2026-01-13 16:48:08.110150,-0.25917643308639526,-1.4486995935440063,44.023353576660156,0.005610938183963299,0.005496947094798088,0.016810396686196327,42.59299850463867,53.96699905395508,38.97800064086914,47.95600128173828,41.560001373291016,49.37900161743164,1768294088,23901940,X6-tool2,-0.9013131078528195,-1.1173857901512774,43.94569384456821,-0.014269241497445679,-0.015353613064767176,0.022523076968222644,0.06745147705078125
2026-01-13 16:48:08.144578,-0.2121381014585495,-1.4487919807434082,44.01945114135742,0.001355926156975329,0.009732196107506752,0.023243485018610954,42.6150016784668,53.95600128173828,39.0,48.03900146484375,41.465999603271484,49.27000045776367,1768294088,123888762,X6-tool2,-0.6616284329448039,-1.1857159716279309,43.91488474523928,-0.014163468252764037,-0.01520348701188257,0.022344577527475866,0.06408341974020004
2026-01-13 16:48:08.179104,-0.12342260777950287,-1.4484339952468872,44.006229400634766,-0.012313824146986008,0.012631855905056,0.021536419168114662,42.66400146484375,53.917999267578125,39.04399871826172,48.180999755859375,41.27899932861328,49.04999923706055,1768294088,123888762,X6-tool2,-0.6616284329448039,-1.1857159716279309,43.91488474523928,-0.014163468252764037,-0.01520348701188257,0.022344577527475866,0.06408341974020004
2026-01-13 16:48:08.213578,-0.0381389744579792,-1.4373027086257935,43.99467468261719,-0.03146965429186821,0.02718355879187584,0.01936287060379982,42.70800018310547,53.856998443603516,39.0880012512207,48.334999084472656,41.10900115966797,48.85200119018555,1768294088,123888762,X6-tool2,-0.6616284329448039,-1.1857159716279309,43.91488474523928,-0.014163468252764037,-0.01520348701188257,0.022344577527475866,0.06408341974020004
2026-01-13 16:48:08.248103,0.058235399425029755,-1.4320260286331177,43.97922134399414,-0.04197259619832039,0.04956046864390373,0.024642838165163994,42.74599838256836,53.801998138427734,39.12099838256836,48.494998931884766,40.922000885009766,48.61600112915039,1768294088,224229549,X6-tool2,-0.46525635348239625,-1.2383252420506294,43.91291268609617,-0.015778774149060683,-0.014482962190573493,0.022416901081093513,0.06854057312011719
2026-01-13 16:48:08.282623,0.10800499469041824,-1.4340136051177979,43.968894958496094,-0.027548817917704582,0.041223689913749695,0.02163751609623432,42.75199890136719,53.779998779296875,39.15999984741211,48.566001892089844,40.81800079345703,48.48400115966797,1768294088,224229549,X6-tool2,-0.46525635348239625,-1.2383252420506294,43.91291268609617,-0.015778774149060683,-0.014482962190573493,0.022416901081093513,0.06854057312011719
2026-01-13 16:48:08.317014,0.2084496021270752,-1.4341057538986206,43.95154571533203,-0.03449399024248123,0.043878428637981415,0.02529415860772133,42.790000915527344,53.736000061035156,39.20899963378906,48.724998474121094,40.60900115966797,48.23099899291992,1768294088,224229549,X6-tool2,-0.46525635348239625,-1.2383252420506294,43.91291268609617,-0.015778774149060683,-0.014482962190573493,0.022416901081093513,0.06854057312011719
2026-01-13 16:48:08.351514,0.31991541385650635,-1.4299981594085693,43.94142532348633,-0.002385542029514909,0.05146733298897743,0.028932275250554085,42.823001861572266,53.702999114990234,39.303001403808594,48.933998107910156,40.42300033569336,47.979000091552734,1768294088,324234332,X6-tool2,-0.1805726522002251,-1.1303906637561654,43.869629614087195,-0.013830697471974285,-0.014683083415522751,0.022776686185536604,0.07584095001220703
2026-01-13 16:48:08.386054,0.368438184261322,-1.4343233108520508,43.930477142333984,0.00858915876597166,0.0483451709151268,0.022395018488168716,42.84000015258789,53.6870002746582,39.33599853515625,49.0,40.32899856567383,47.84700012207031,1768294088,324234332,X6-tool2,-0.1805726522002251,-1.1303906637561654,43.869629614087195,-0.013830697471974285,-0.014683083415522751,0.022776686185536604,0.07584095001220703
2026-01-13 16:48:08.420550,0.4556273818016052,-1.440434455871582,43.912384033203125,0.007625026162713766,0.026945501565933228,0.006908091250807047,42.900001525878906,53.659000396728516,39.40700149536133,49.125999450683594,40.137001037597656,47.61600112915039,1768294088,324234332,X6-tool2,-0.1805726522002251,-1.1303906637561654,43.869629614087195,-0.013830697471974285,-0.014683083415522751,0.022776686185536604,0.07584095001220703
2026-01-13 16:48:08.454997,0.5476751327514648,-1.4435666799545288,43.900978088378906,-0.005975231993943453,0.027984514832496643,-0.010890628211200237,42.99399948120117,53.643001556396484,39.47800064086914,49.2859992980957,39.97200012207031,47.395999908447266,1768294088,423935493,X6-tool2,0.03225555626092338,-1.3194561618657983,43.82784111043973,-0.016695948551663863,-0.013010972477773232,0.022913332693270207,0.06711546331644058
2026-01-13 16:48:08.489504,0.6401346921920776,-1.442902684211731,43.89063262939453,-0.030659498646855354,0.06241680681705475,-0.025294942781329155,43.097999572753906,53.62099838256836,39.52199935913086,49.45600128173828,39.834999084472656,47.18199920654297,1768294088,423935493,X6-tool2,0.03225555626092338,-1.3194561618657983,43.82784111043973,-0.016695948551663863,-0.013010972477773232,0.022913332693270207,0.06711546331644058
2026-01-13 16:48:08.523862,0.6889287233352661,-1.4432448148727417,43.88641357421875,-0.04002451151609421,0.08103105425834656,-0.020983250811696053,43.141998291015625,53.6150016784668,39.53900146484375,49.54899978637695,39.757999420166016,47.071998596191406,1768294088,423935493,X6-tool2,0.03225555626092338,-1.3194561618657983,43.82784111043973,-0.016695948551663863,-0.013010972477773232,0.022913332693270207,0.06711546331644058
2026-01-13 16:48:08.558859,0.7810425162315369,-1.4411296844482422,43.87910461425781,-0.03895579278469086,0.07867760211229324,0.00010541664232732728,43.18600082397461,53.5989990234375,39.5989990234375,49.73099899291992,39.566001892089844,46.86899948120117,1768294088,523942836,X6-tool2,0.22354171083205954,-1.2400979723053958,43.83070009966803,-0.015604555736927383,-0.012678159261749483,0.0220236259763911,0.06919892877340317
2026-01-13 16:48:08.593394,0.8776884078979492,-1.4361580610275269,43.87177276611328,0.001698749023489654,0.053804896771907806,0.007834634743630886,43.20800018310547,53.57699966430664,39.720001220703125,49.928001403808594,39.39500045776367,46.65999984741211,1768294088,523942836,X6-tool2,0.22354171083205954,-1.2400979723053958,43.83070009966803,-0.015604555736927383,-0.012678159261749483,0.0220236259763911,0.06919892877340317
2026-01-13 16:48:08.627888,0.9703483581542969,-1.4332010746002197,43.86636734008789,0.0015886370092630386,0.022789519280195236,0.02705320157110691,43.268001556396484,53.566001892089844,39.8129997253418,50.12099838256836,39.1870002746582,46.4630012512207,1768294088,624189729,X6-tool2,0.4895398932252582,-1.310533843923975,43.83057191747449,-0.01646152460649486,-0.011779857061803616,0.02363223462682053,0.06825796514749527
2026-01-13 16:48:08.662422,1.021480917930603,-1.4337971210479736,43.85931396484375,0.007731863763183355,-0.007951335050165653,0.030289703980088234,43.29600143432617,53.55500030517578,39.874000549316406,50.2140007019043,39.060001373291016,46.34199905395508,1768294088,624189729,X6-tool2,0.4895398932252582,-1.310533843923975,43.83057191747449,-0.01646152460649486,-0.011779857061803616,0.02363223462682053,0.06825796514749527
2026-01-13 16:48:08.696860,1.1196439266204834,-1.435626745223999,43.848548889160156,0.012864389456808567,-0.0022415712010115385,0.04162350296974182,43.36199951171875,53.54399871826172,39.939998626708984,50.4010009765625,38.88399887084961,46.117000579833984,1768294088,624189729,X6-tool2,0.4895398932252582,-1.310533843923975,43.83057191747449,-0.01646152460649486,-0.011779857061803616,0.02363223462682053,0.06825796514749527
2026-01-13 16:48:08.731337,1.2100189924240112,-1.437666654586792,43.83357238769531,-0.004838978406041861,-0.01601996086537838,0.060705289244651794,43.43299865722656,53.52199935913086,39.98899841308594,50.560001373291016,38.66999816894531,45.89699935913086,1768294088,724399550,X6-tool2,0.7269165816802506,-1.2512396429895634,43.803883755149855,-0.014579904747002102,-0.01163313171406073,0.02386235544629938,0.07357724756002426
2026-01-13 16:48:08.765769,1.2577414512634277,-1.4438878297805786,43.823089599609375,0.010680065490305424,-0.009330377914011478,0.05209540203213692,43.46099853515625,53.516998291015625,40.02199935913086,50.63100051879883,38.5989990234375,45.77000045776367,1768294088,724399550,X6-tool2,0.7269165816802506,-1.2512396429895634,43.803883755149855,-0.014579904747002102,-0.01163313171406073,0.02386235544629938,0.07357724756002426
2026-01-13 16:48:08.800247,1.3479118347167969,-1.4555341005325317,43.80031967163086,0.02940165251493454,0.00037483093910850585,0.010008021257817745,43.54800033569336,53.5,40.0989990234375,50.757999420166016,38.47200012207031,45.52299880981445,1768294088,724399550,X6-tool2,0.7269165816802506,-1.2512396429895634,43.803883755149855,-0.014579904747002102,-0.01163313171406073,0.02386235544629938,0.07357724756002426
2026-01-13 16:48:08.834734,1.4461147785186768,-1.4539622068405151,43.78553771972656,0.03232933580875397,0.009421313181519508,0.003338452661409974,43.63100051879883,53.472999572753906,40.17599868774414,50.944000244140625,38.30799865722656,45.292999267578125,1768294088,824234557,X6-tool2,0.9743477950400212,-1.271430680974299,43.75260486130158,-0.014439938450613617,-0.011028352148114881,0.02351459828956112,0.06165027618408203
2026-01-13 16:48:08.869354,1.5344223976135254,-1.4552611112594604,43.77202606201172,0.04435892775654793,0.007144113536924124,-7.5194300734438e-05,43.696998596191406,53.45600128173828,40.25299835205078,51.10900115966797,38.15399932861328,45.08399963378906,1768294088,824234557,X6-tool2,0.9743477950400212,-1.271430680974299,43.75260486130158,-0.014439938450613617,-0.011028352148114881,0.02351459828956112,0.06165027618408203
2026-01-13 16:48:08.903743,1.578596591949463,-1.453817367553711,43.76433563232422,0.05122832581400871,0.003905158257111907,-0.011746873147785664,43.73500061035156,53.439998626708984,40.301998138427734,51.19200134277344,38.082000732421875,44.979000091552734,1768294088,824234557,X6-tool2,0.9743477950400212,-1.271430680974299,43.75260486130158,-0.014439938450613617,-0.011028352148114881,0.02351459828956112,0.06165027618408203
2026-01-13 16:48:08.938271,1.6750534772872925,-1.4531183242797852,43.749759674072266,0.04440947622060776,0.010769524611532688,-0.020863864570856094,43.84000015258789,53.417999267578125,40.37900161743164,51.37799835205078,37.917999267578125,44.75400161743164,1768294088,924229319,X6-tool2,1.245232727528635,-1.244886897417938,43.73960577293604,-0.01415687058947734,-0.010466636053208115,0.023025871965124466,0.06878217309713364
