TCliu030506/rrc_ws/src/x6_pkg/x6_control_python/record/record_20260203_212854.csv
timestamp,out_1_header.stamp.sec,out_1_header.stamp.nanosec,out_1_header.frame_id,out_1_val,out_1_speed,out_2_header.stamp.sec,out_2_header.stamp.nanosec,out_2_header.frame_id,out_2_val,out_2_speed,out_3_header.stamp.sec,out_3_header.stamp.nanosec,out_3_header.frame_id,out_3_val,out_3_speed,out_4_header.stamp.sec,out_4_header.stamp.nanosec,out_4_header.frame_id,out_4_val,out_4_speed,out_5_header.stamp.sec,out_5_header.stamp.nanosec,out_5_header.frame_id,out_5_val,out_5_speed,out_6_header.stamp.sec,out_6_header.stamp.nanosec,out_6_header.frame_id,out_6_val,out_6_speed,x6position_pose_rp[0],x6position_pose_rp[1],x6position_pose_rp[2],x6position_pose_rp[3],x6position_pose_rp[4],x6position_pose_rp[5],x6position_joints[0],x6position_joints[1],x6position_joints[2],x6position_joints[3],x6position_joints[4],x6position_joints[5],aimooe_coord_header.stamp.sec,aimooe_coord_header.stamp.nanosec,aimooe_coord_header.frame_id,aimooe_coord_position.x,aimooe_coord_position.y,aimooe_coord_position.z,aimooe_coord_orientation.x,aimooe_coord_orientation.y,aimooe_coord_orientation.z,aimooe_coord_mean_error
2026-02-03 21:28:32.730850,1770125312,724570482,1,234739,38,1770125312,727906423,2,244589,-38,1770125312,711271747,3,219858,0,1770125312,714551188,4,240694,86,1770125312,717903289,5,210965,-139,1770125312,721257941,6,210075,-183,2.4779725074768066,-0.0994749665260315,45.28083038330078,0.21798783540725708,-0.08693676441907883,0.20694047212600708,46.79750061035156,54.435001373291016,45.56650161743164,59.80649948120117,40.112998962402344,48.66600036621094,1770125312,683130647,X6-tool2,2.0964497819283734,-0.7420025795751056,45.68202910210849,0.006277144330569723,-0.03440917276014011,-0.062494307462266294,0.045520465821027756
2026-02-03 21:28:32.766783,1770125312,764598006,1,234882,37,1770125312,747895310,2,244501,-48,1770125312,751272361,3,219858,0,1770125312,754574132,4,241062,62,1770125312,757902423,5,210460,-127,1770125312,761257035,6,209377,-160,2.595728874206543,-0.10170193761587143,45.2360954284668,0.2309110313653946,-0.08314057439565659,0.21756239235401154,46.86349868774414,54.34700012207031,45.56650161743164,59.990501403808594,39.86050033569336,48.308998107910156,1770125312,683130647,X6-tool2,2.0964497819283734,-0.7420025795751056,45.68202910210849,0.006277144330569723,-0.03440917276014011,-0.062494307462266294,0.045520465821027756
2026-02-03 21:28:32.802641,1770125312,784590493,1,234943,33,1770125312,787907014,2,244347,-32,1770125312,791237115,3,219858,0,1770125312,794589917,4,241408,85,1770125312,797900778,5,209954,-126,1770125312,801266629,6,208669,-178,2.651991128921509,-0.1037105992436409,45.213844299316406,0.2309110313653946,-0.08314057439565659,0.21756239235401154,46.902000427246094,54.30550003051758,45.56650161743164,60.07550048828125,39.73649978637695,48.135501861572266,1770125312,782627442,X6-tool2,2.324599661282572,-0.795304550076975,45.53286484620636,0.004765370903530341,-0.034824229135300866,-0.06060933656730752,0.0344696044921875
2026-02-03 21:28:32.837919,1770125312,824582907,1,235069,32,1770125312,827903999,2,244199,-35,1770125312,831244960,3,219858,0,1770125312,834567851,4,241771,96,1770125312,817917315,5,209669,-144,1770125312,821258056,6,208301,-177,2.7671127319335938,-0.11069194972515106,45.169307708740234,0.24779461324214935,-0.09579643607139587,0.24367201328277588,46.962501525878906,54.23149871826172,45.56650161743164,60.25149917602539,39.46500015258789,47.78150177001953,1770125312,782627442,X6-tool2,2.324599661282572,-0.795304550076975,45.53286484620636,0.004765370903530341,-0.034824229135300866,-0.06060933656730752,0.0344696044921875
2026-02-03 21:28:32.874110,1770125312,864574452,1,235201,29,1770125312,867909123,2,244050,-40,1770125312,871241574,3,219858,0,1770125312,854589418,4,241957,95,1770125312,857911429,5,209136,-130,1770125312,861261331,6,207565,-181,2.886626958847046,-0.11885583400726318,45.12350082397461,0.26454490423202515,-0.10055175423622131,0.26388096809387207,47.03099822998047,54.15999984741211,45.56650161743164,60.4379997253418,39.19850158691406,47.41600036621094,1770125312,782627442,X6-tool2,2.324599661282572,-0.795304550076975,45.53286484620636,0.004765370903530341,-0.034824229135300866,-0.06060933656730752,0.0344696044921875
2026-02-03 21:28:32.910180,1770125312,904590996,1,235338,34,1770125312,907907737,2,243885,-38,1770125312,891261671,3,219858,0,1770125312,894566952,4,242106,0,1770125312,897902784,5,208707,-38,1770125312,901255685,6,207092,-26,2.982422351837158,-0.1361478865146637,45.06768035888672,0.28050947189331055,-0.10558122396469116,0.22679485380649567,47.09700012207031,54.07749938964844,45.56650161743164,60.51250076293945,38.98400115966797,47.058998107910156,1770125312,882275768,X6-tool2,2.4863671679661383,-0.9770379690117839,45.38764112185647,0.0013522608239452977,-0.034423841897647266,-0.058188490238274514,0.036065418273210526
2026-02-03 21:28:32.946495,1770125312,944558080,1,235453,32,1770125312,927882984,2,243798,-46,1770125312,931253336,3,219858,0,1770125312,934570887,4,242111,0,1770125312,937890768,5,208663,0,1770125312,941225899,6,207059,0,3.000882148742676,-0.12262262403964996,45.046958923339844,0.251557856798172,-0.08261064440011978,0.17666128277778625,47.160499572753906,53.99549865722656,45.56650161743164,60.51499938964844,38.96200180053711,46.97949981689453,1770125312,882275768,X6-tool2,2.4863671679661383,-0.9770379690117839,45.38764112185647,0.0013522608239452977,-0.034423841897647266,-0.058188490238274514,0.036065418273210526
2026-02-03 21:28:32.981969,1770125312,964583817,1,235525,39,1770125312,967904809,2,243605,-75,1770125312,971245220,3,219858,0,1770125312,974567351,4,242111,0,1770125312,977912922,5,208658,-12,1770125312,981257423,6,207059,0,3.0014564990997314,-0.1106000766158104,45.04191207885742,0.23004667460918427,-0.07355247437953949,0.15958711504936218,47.1875,53.95399856567383,45.56650161743164,60.51499938964844,38.96200180053711,46.97650146484375,1770125312,882275768,X6-tool2,2.4863671679661383,-0.9770379690117839,45.38764112185647,0.0013522608239452977,-0.034423841897647266,-0.058188490238274514,0.036065418273210526
2026-02-03 21:28:33.017884,1770125313,4571792,1,235668,37,1770125313,7885583,2,243391,-42,1770125313,11237754,3,219858,0,1770125313,14572925,4,242111,0,1770125312,997911369,5,208658,0,1770125313,1230281,6,207059,0,3.001150369644165,-0.07682620733976364,45.02939987182617,0.16929428279399872,-0.05236045643687248,0.11754938215017319,47.25899887084961,53.84149932861328,45.56650161743164,60.51499938964844,38.95949935913086,46.97650146484375,1770125312,981433794,X6-tool2,2.6675203835497316,-0.9258308959058985,45.37894887288741,0.0003893316354643629,-0.0361260839213288,-0.057917051397701536,0.04921722412109375
2026-02-03 21:28:33.054432,1770125313,44577226,1,235816,25,1770125313,47906507,2,243226,-44,1770125313,51239648,3,219858,0,1770125313,34551382,4,242111,0,1770125313,37884524,5,208658,0,1770125313,41257165,6,207059,0,3.000901460647583,-0.049634870141744614,45.01929473876953,0.11287025362253189,-0.03361433744430542,0.07830318063497543,47.33599853515625,53.750999450683594,45.56650161743164,60.51499938964844,38.95949935913086,46.97650146484375,1770125312,981433794,X6-tool2,2.6675203835497316,-0.9258308959058985,45.37894887288741,0.0003893316354643629,-0.0361260839213288,-0.057917051397701536,0.04921722412109375
2026-02-03 21:28:33.091367,1770125313,84573590,1,235959,42,1770125313,87906652,2,243023,-58,1770125313,71237175,3,219858,0,1770125313,74568407,4,242111,0,1770125313,77908348,5,208658,0,1770125313,81256749,6,207059,0,3.000657320022583,-0.023175908252596855,45.009429931640625,0.06167576462030411,-0.015614249743521214,0.042563505470752716,47.402000427246094,53.66299819946289,45.56650161743164,60.51499938964844,38.95949935913086,46.97650146484375,1770125313,81043399,X6-tool2,2.745990688615943,-0.8634281637857419,45.376464901767655,-0.0021307835793476027,-0.037200595603278604,-0.058794985424375605,0.044735271483659744
2026-02-03 21:28:33.127374,1770125313,124572935,1,236080,10,1770125313,107907729,2,242979,-14,1770125313,111240790,3,219858,0,1770125313,114567761,4,242111,0,1770125313,117908912,5,208658,0,1770125313,121257853,6,207054,0,3.0004422664642334,-9.253321877622511e-06,45.00077438354492,0.006736480165272951,0.0008304560906253755,0.005385685712099075,47.484500885009766,53.58599853515625,45.56650161743164,60.51499938964844,38.95949935913086,46.97650146484375,1770125313,81043399,X6-tool2,2.745990688615943,-0.8634281637857419,45.376464901767655,-0.0021307835793476027,-0.037200595603278604,-0.058794985424375605,0.044735271483659744
2026-02-03 21:28:33.163460,1770125313,144570732,1,236085,0,1770125313,147910433,2,242963,0,1770125313,151241354,3,219858,0,1770125313,154568795,4,242111,0,1770125313,157910097,5,208658,0,1770125313,161256558,6,207054,0,3.000990390777588,0.002043741289526224,44.9995002746582,-0.0007391700055450201,0.002895006677135825,-0.0006445305189117789,47.503501892089844,53.577999114990234,45.56650161743164,60.51499938964844,38.95949935913086,46.9739990234375,1770125313,81043399,X6-tool2,2.745990688615943,-0.8634281637857419,45.376464901767655,-0.0021307835793476027,-0.037200595603278604,-0.058794985424375605,0.044735271483659744
2026-02-03 21:28:33.198818,1770125313,184572376,1,236085,0,1770125313,187905127,2,242963,0,1770125313,191239038,3,219858,0,1770125313,194567970,4,242111,0,1770125313,197886491,5,208658,0,1770125313,181254475,6,207054,0,3.000990390777588,0.002043741289526224,44.9995002746582,-0.0007391700055450201,0.002895006677135825,-0.0006445305189117789,47.503501892089844,53.577999114990234,45.56650161743164,60.51499938964844,38.95949935913086,46.9739990234375,1770125313,181160125,X6-tool2,2.7751946229245354,-0.8326488671090015,45.436588682466294,-0.002130455270390053,-0.03755057963063613,-0.05957058892543178,0.04094664379954338
2026-02-03 21:28:33.234361,1770125313,224573241,1,236085,0,1770125313,227887982,2,242963,0,1770125313,231239273,3,219858,0,1770125313,214547677,4,242111,0,1770125313,217882418,5,208658,0,1770125313,221236859,6,207054,0,3.000990390777588,0.002043741289526224,44.9995002746582,-0.0007391700055450201,0.002895006677135825,-0.0006445305189117789,47.503501892089844,53.577999114990234,45.56650161743164,60.51499938964844,38.95949935913086,46.9739990234375,1770125313,181160125,X6-tool2,2.7751946229245354,-0.8326488671090015,45.436588682466294,-0.002130455270390053,-0.03755057963063613,-0.05957058892543178,0.04094664379954338
2026-02-03 21:28:33.270030,1770125313,264569585,1,236085,0,1770125313,267903706,2,242963,0,1770125313,251239020,3,219858,0,1770125313,254574931,4,242111,0,1770125313,257883762,5,208658,19,1770125313,261235883,6,207054,0,3.000990390777588,0.002043741289526224,44.9995002746582,-0.0007391700055450201,0.002895006677135825,-0.0006445305189117789,47.503501892089844,53.577999114990234,45.56650161743164,60.51499938964844,38.95949935913086,46.9739990234375,1770125313,181160125,X6-tool2,2.7751946229245354,-0.8326488671090015,45.436588682466294,-0.002130455270390053,-0.03755057963063613,-0.05957058892543178,0.04094664379954338
2026-02-03 21:28:33.305744,1770125313,304574109,1,236085,0,1770125313,287878053,2,242963,0,1770125313,291215884,3,219858,0,1770125313,294544266,4,242106,0,1770125313,297886197,5,208658,2,1770125313,301226398,6,207054,0,3.000509738922119,0.0017379376804456115,44.99929428100586,-0.0007391700055450201,0.002895006677135825,-0.0006445305189117789,47.503501892089844,53.577999114990234,45.56650161743164,60.51250076293945,38.95949935913086,46.9739990234375,1770125313,280766630,X6-tool2,2.785589908100153,-0.8753589497829911,45.3763582666154,-0.00272099687549972,-0.039085960487221454,-0.05935147469079398,0.04524548724293709
2026-02-03 21:28:33.340729,1770125313,324575326,1,236085,0,1770125313,327925537,2,242963,0,1770125313,331258379,3,219858,0,1770125313,334590510,4,242106,0,1770125313,337886071,5,208658,0,1770125313,321258395,6,207054,0,3.000509738922119,0.0017379376804456115,44.99929428100586,-0.0007391700055450201,0.002895006677135825,-0.0006445305189117789,47.503501892089844,53.577999114990234,45.56650161743164,60.51250076293945,38.95650100708008,46.9739990234375,1770125313,280766630,X6-tool2,2.785589908100153,-0.8753589497829911,45.3763582666154,-0.00272099687549972,-0.039085960487221454,-0.05935147469079398,0.04524548724293709
2026-02-03 21:28:33.376900,1770125313,364576020,1,236085,0,1770125313,367925842,2,242968,0,1770125313,371244873,3,219858,0,1770125313,374589794,4,242106,0,1770125313,357887038,5,208652,17,1770125313,361232179,6,207054,0,3.000516653060913,0.0009855085518211126,44.999576568603516,-0.0007391700055450201,0.002895006677135825,-0.0006445305189117789,47.503501892089844,53.580501556396484,45.56650161743164,60.51250076293945,38.95650100708008,46.9739990234375,1770125313,280766630,X6-tool2,2.785589908100153,-0.8753589497829911,45.3763582666154,-0.00272099687549972,-0.039085960487221454,-0.05935147469079398,0.04524548724293709
2026-02-03 21:28:33.413875,1770125313,404573635,1,236085,0,1770125313,407925466,2,242968,0,1770125313,411240167,3,219858,0,1770125313,394590361,4,242106,0,1770125313,397887882,5,208658,8,1770125313,401258894,6,207054,0,3.000516653060913,0.0009855085518211126,44.999576568603516,-0.0007391700055450201,0.002895006677135825,-0.0006445305189117789,47.503501892089844,53.580501556396484,45.56650161743164,60.51250076293945,38.95949935913086,46.9739990234375,1770125313,381037556,X6-tool2,2.7163363257545976,-0.9683256260602499,45.320981406607864,-0.002806756254280926,-0.03876885377389012,-0.059537272384440884,0.04140281677246094
2026-02-03 21:28:33.450215,1770125313,444573699,1,236085,0,1770125313,447928970,2,242968,0,1770125313,431240504,3,219858,0,1770125313,434591245,4,242106,0,1770125313,437906697,5,208652,-12,1770125313,441256038,6,207054,0,3.000516653060913,0.0009855085518211126,44.999576568603516,-0.0007391700055450201,0.002895006677135825,-0.0006445305189117789,47.503501892089844,53.580501556396484,45.56650161743164,60.51250076293945,38.95650100708008,46.9739990234375,1770125313,381037556,X6-tool2,2.7163363257545976,-0.9683256260602499,45.320981406607864,-0.002806756254280926,-0.03876885377389012,-0.059537272384440884,0.04140281677246094
2026-02-03 21:28:33.486289,1770125313,484596473,1,236085,0,1770125313,467926857,2,242968,0,1770125313,471242279,3,219858,0,1770125313,474591350,4,242106,0,1770125313,477907331,5,208652,0,1770125313,481254992,6,207054,0,3.000516653060913,0.0009855085518211126,44.999576568603516,-0.0007391700055450201,0.002895006677135825,-0.0006445305189117789,47.503501892089844,53.580501556396484,45.56650161743164,60.51250076293945,38.95650100708008,46.9739990234375,1770125313,480750972,X6-tool2,2.824082523586839,-0.7965988938991234,45.41191658405437,-0.0035912578454719707,-0.038687133510239564,-0.059578009423725944,0.04284095764160156
2026-02-03 21:28:33.524017,1770125313,504574590,1,236080,0,1770125313,507906222,2,242968,0,1770125313,511240283,3,219858,0,1770125313,514570514,4,242106,0,1770125313,517908215,5,208658,22,1770125313,521253016,6,207054,0,3.000516653060913,0.0009855085518211126,44.999576568603516,-0.0007391700055450201,0.002895006677135825,-0.0006445305189117789,47.500999450683594,53.580501556396484,45.56650161743164,60.51250076293945,38.95949935913086,46.9739990234375,1770125313,480750972,X6-tool2,2.824082523586839,-0.7965988938991234,45.41191658405437,-0.0035912578454719707,-0.038687133510239564,-0.059578009423725944,0.04284095764160156
2026-02-03 21:28:33.560281,1770125313,544564345,1,236080,0,1770125313,547904536,2,242968,0,1770125313,551220697,3,219858,0,1770125313,554565648,4,242106,0,1770125313,557884670,5,208652,-32,1770125313,541237914,6,207054,0,3.000516653060913,0.0009855085518211126,44.999576568603516,-0.0007391700055450201,0.002895006677135825,-0.0006445305189117789,47.500999450683594,53.580501556396484,45.56650161743164,60.51250076293945,38.95650100708008,46.9739990234375,1770125313,480750972,X6-tool2,2.824082523586839,-0.7965988938991234,45.41191658405437,-0.0035912578454719707,-0.038687133510239564,-0.059578009423725944,0.04284095764160156
2026-02-03 21:28:33.596953,1770125313,584549869,1,236080,0,1770125313,587929330,2,242968,0,1770125313,591218381,3,219858,0,1770125313,594572493,4,242106,0,1770125313,577881947,5,208658,5,1770125313,581212058,6,207054,0,3.000516653060913,0.0009855085518211126,44.999576568603516,-0.0007391700055450201,0.002895006677135825,-0.0006445305189117789,47.500999450683594,53.580501556396484,45.56650161743164,60.51250076293945,38.95949935913086,46.9739990234375,1770125313,580925988,X6-tool2,2.728540018548589,-0.9694311002468982,45.35135755652033,-0.0034330372403334744,-0.03903479117649173,-0.05940352656822262,0.040696460753679276
2026-02-03 21:28:33.632602,1770125313,624573853,1,236080,0,1770125313,627906955,2,242968,0,1770125313,631238406,3,219858,0,1770125313,614566710,4,242106,-4,1770125313,617906321,5,208652,-6,1770125313,621237792,6,207054,0,3.000516653060913,0.0009855085518211126,44.999576568603516,-0.0007391700055450201,0.002895006677135825,-0.0006445305189117789,47.500999450683594,53.580501556396484,45.56650161743164,60.51250076293945,38.95650100708008,46.9739990234375,1770125313,580925988,X6-tool2,2.728540018548589,-0.9694311002468982,45.35135755652033,-0.0034330372403334744,-0.03903479117649173,-0.05940352656822262,0.040696460753679276
2026-02-03 21:28:33.667692,1770125313,664572928,1,236080,0,1770125313,647906492,2,242968,0,1770125313,651238863,3,219858,0,1770125313,654568314,4,242106,0,1770125313,657883825,5,208658,21,1770125313,661235817,6,207054,0,3.000516653060913,0.0009855085518211126,44.999576568603516,-0.0007391700055450201,0.002895006677135825,-0.0006445305189117789,47.500999450683594,53.580501556396484,45.56650161743164,60.51250076293945,38.95949935913086,46.9739990234375,1770125313,580925988,X6-tool2,2.728540018548589,-0.9694311002468982,45.35135755652033,-0.0034330372403334744,-0.03903479117649173,-0.05940352656822262,0.040696460753679276
2026-02-03 21:28:33.703660,1770125313,684576395,1,236080,-1,1770125313,687930856,2,242968,0,1770125313,691239567,3,219858,0,1770125313,694570998,4,242106,0,1770125313,697905320,5,208652,-16,1770125313,701216271,6,207054,0,3.000516653060913,0.0009855085518211126,44.999576568603516,-0.0007391700055450201,0.002895006677135825,-0.0006445305189117789,47.500999450683594,53.580501556396484,45.56650161743164,60.51250076293945,38.95650100708008,46.9739990234375,1770125313,680763513,X6-tool2,2.7581096986857494,-0.9330152039726054,45.35844624558355,-0.003189497431162799,-0.039158871082810284,-0.059707123154615405,0.04052511975169182
2026-02-03 21:28:33.738823,1770125313,724575499,1,236080,0,1770125313,727881961,2,242968,0,1770125313,731250942,3,219858,0,1770125313,734548403,4,242106,0,1770125313,737883824,5,208658,27,1770125313,721214188,6,207054,0,3.000516653060913,0.0009855085518211126,44.999576568603516,-0.0007391700055450201,0.002895006677135825,-0.0006445305189117789,47.500999450683594,53.580501556396484,45.56650161743164,60.51250076293945,38.95650100708008,46.9739990234375,1770125313,680763513,X6-tool2,2.7581096986857494,-0.9330152039726054,45.35844624558355,-0.003189497431162799,-0.039158871082810284,-0.059707123154615405,0.04052511975169182
2026-02-03 21:28:33.774103,1770125313,764569143,1,236080,0,1770125313,767901215,2,242968,0,1770125313,771239266,3,219858,0,1770125313,754552190,4,242106,0,1770125313,757882491,5,208652,0,1770125313,761219062,6,207054,0,3.000516653060913,0.0009855085518211126,44.999576568603516,-0.0007391700055450201,0.002895006677135825,-0.0006445305189117789,47.500999450683594,53.580501556396484,45.56650161743164,60.51250076293945,38.95650100708008,46.9739990234375,1770125313,680763513,X6-tool2,2.7581096986857494,-0.9330152039726054,45.35844624558355,-0.003189497431162799,-0.039158871082810284,-0.059707123154615405,0.04052511975169182
2026-02-03 21:28:33.810343,1770125313,804570668,1,236080,0,1770125313,807903989,2,242968,0,1770125313,791236733,3,219858,0,1770125313,794572794,4,242106,0,1770125313,797883295,5,208658,8,1770125313,801245617,6,207054,0,3.000516653060913,0.0009855085518211126,44.999576568603516,-0.0007391700055450201,0.002895006677135825,-0.0006445305189117789,47.500999450683594,53.580501556396484,45.56650161743164,60.51250076293945,38.95949935913086,46.9739990234375,1770125313,780942379,X6-tool2,2.8020354804859533,-0.9022023660013224,45.37568722350453,-0.0025702947357401744,-0.039677695342776834,-0.05931578087784346,0.03996340557932854
2026-02-03 21:28:33.847036,1770125313,844570892,1,236080,0,1770125313,827903596,2,242968,0,1770125313,831235377,3,219858,0,1770125313,834572999,4,242106,0,1770125313,837903710,5,208652,-4,1770125313,841214001,6,207054,0,3.000516653060913,0.0009855085518211126,44.999576568603516,-0.0007391700055450201,0.002895006677135825,-0.0006445305189117789,47.500999450683594,53.580501556396484,45.56650161743164,60.51250076293945,38.95650100708008,46.9739990234375,1770125313,780942379,X6-tool2,2.8020354804859533,-0.9022023660013224,45.37568722350453,-0.0025702947357401744,-0.039677695342776834,-0.05931578087784346,0.03996340557932854
2026-02-03 21:28:33.883261,1770125313,864572599,1,236080,0,1770125313,867903680,2,242968,0,1770125313,871242082,3,219858,0,1770125313,874569563,4,242106,0,1770125313,877908124,5,208658,25,1770125313,881236635,6,207054,0,3.000516653060913,0.0009855085518211126,44.999576568603516,-0.0007391700055450201,0.002895006677135825,-0.0006445305189117789,47.500999450683594,53.580501556396484,45.56650161743164,60.51250076293945,38.95949935913086,46.9739990234375,1770125313,880776405,X6-tool2,2.7268512804078875,-0.8631508263061458,45.34137910806981,-0.0023032559411172923,-0.03923080803519676,-0.059511563365159975,0.03760687634348869
2026-02-03 21:28:33.918636,1770125313,904589454,1,236080,0,1770125313,907907205,2,242968,0,1770125313,911250046,3,219858,0,1770125313,914570857,4,242106,0,1770125313,917910908,5,208652,-28,1770125313,901227432,6,207054,0,3.000516653060913,0.0009855085518211126,44.999576568603516,-0.0007391700055450201,0.002895006677135825,-0.0006445305189117789,47.500999450683594,53.580501556396484,45.56650161743164,60.51250076293945,38.95650100708008,46.9739990234375,1770125313,880776405,X6-tool2,2.7268512804078875,-0.8631508263061458,45.34137910806981,-0.0023032559411172923,-0.03923080803519676,-0.059511563365159975,0.03760687634348869
2026-02-03 21:28:33.953747,1770125313,944573378,1,236080,0,1770125313,947884369,2,242968,0,1770125313,951219430,3,219853,0,1770125313,934578234,4,242106,0,1770125313,937882456,5,208658,0,1770125313,941221817,6,207054,0,3.000516653060913,0.0009855085518211126,44.999576568603516,-0.0007391700055450201,0.002895006677135825,-0.0006445305189117789,47.500999450683594,53.580501556396484,45.56399917602539,60.51250076293945,38.95949935913086,46.9739990234375,1770125313,880776405,X6-tool2,2.7268512804078875,-0.8631508263061458,45.34137910806981,-0.0023032559411172923,-0.03923080803519676,-0.059511563365159975,0.03760687634348869
2026-02-03 21:28:33.988886,1770125313,984599082,1,236080,0,1770125313,987919103,2,242968,0,1770125313,971238648,3,219853,0,1770125313,974576559,4,242106,0,1770125313,977900940,5,208647,-7,1770125313,981243371,6,207054,0,3.000516653060913,0.0009855085518211126,44.999576568603516,-0.0007391700055450201,0.002895006677135825,-0.0006445305189117789,47.500999450683594,53.580501556396484,45.56399917602539,60.51250076293945,38.95399856567383,46.9739990234375,1770125313,981141781,X6-tool2,2.700977922949461,-0.9932831209101891,45.2930452917604,-0.0028400093328753073,-0.039971446818218084,-0.059487987585091294,0.039732933044433594
2026-02-03 21:28:34.023897,1770125314,4575519,1,236080,0,1770125314,7926930,2,242968,0,1770125314,11267912,3,219853,0,1770125314,14603043,4,242106,0,1770125314,17932884,5,208658,5,1770125314,21236795,6,207054,0,3.000516653060913,0.0009855085518211126,44.999576568603516,-0.0007391700055450201,0.002895006677135825,-0.0006445305189117789,47.500999450683594,53.580501556396484,45.56399917602539,60.51250076293945,38.95949935913086,46.9739990234375,1770125313,981141781,X6-tool2,2.700977922949461,-0.9932831209101891,45.2930452917604,-0.0028400093328753073,-0.039971446818218084,-0.059487987585091294,0.039732933044433594
2026-02-03 21:28:34.059438,1770125314,44575744,1,236080,0,1770125314,47865795,2,242968,0,1770125314,51244276,3,219853,0,1770125314,54578017,4,242100,0,1770125314,57904448,5,208647,-11,1770125314,41252913,6,207054,0,3.000516653060913,0.0009855085518211126,44.999576568603516,-0.0007391700055450201,0.002895006677135825,-0.0006445305189117789,47.500999450683594,53.580501556396484,45.56399917602539,60.51250076293945,38.95650100708008,46.9739990234375,1770125313,981141781,X6-tool2,2.700977922949461,-0.9932831209101891,45.2930452917604,-0.0028400093328753073,-0.039971446818218084,-0.059487987585091294,0.039732933044433594
2026-02-03 21:28:34.094589,1770125314,84600378,1,236074,0,1770125314,87911229,2,242968,0,1770125314,91240860,3,219853,0,1770125314,74573354,4,242100,0,1770125314,77902156,5,208652,-14,1770125314,81244967,6,207054,0,2.9999396800994873,0.0006185456295497715,44.99932861328125,-0.0007391700055450201,0.002895006677135825,-0.0006445305189117789,47.49800109863281,53.580501556396484,45.56399917602539,60.509498596191406,38.95650100708008,46.9739990234375,1770125314,80721847,X6-tool2,2.756929360083398,-0.9445940258958774,45.37211322520635,-0.0034291294921738056,-0.03893648984236226,-0.059540720139855625,0.04351997375488281
2026-02-03 21:28:34.130498,1770125314,124592472,1,236074,0,1770125314,127929944,2,242968,0,1770125314,111243107,3,219853,0,1770125314,114568859,4,242100,0,1770125314,117943180,5,208652,0,1770125314,121261511,6,207054,0,2.9999396800994873,0.0006185456295497715,44.99932861328125,-0.0007391700055450201,0.002895006677135825,-0.0006445305189117789,47.49800109863281,53.580501556396484,45.56399917602539,60.509498596191406,38.95650100708008,46.9739990234375,1770125314,80721847,X6-tool2,2.756929360083398,-0.9445940258958774,45.37211322520635,-0.0034291294921738056,-0.03893648984236226,-0.059540720139855625,0.04351997375488281
2026-02-03 21:28:34.166112,1770125314,164584767,1,236074,0,1770125314,147900961,2,242968,0,1770125314,151250042,3,219853,0,1770125314,154596743,4,242100,0,1770125314,157886904,5,208658,2,1770125314,161258855,6,207054,0,2.9999396800994873,0.0006185456295497715,44.99932861328125,-0.0007391700055450201,0.002895006677135825,-0.0006445305189117789,47.49800109863281,53.580501556396484,45.56399917602539,60.509498596191406,38.95949935913086,46.9739990234375,1770125314,80721847,X6-tool2,2.756929360083398,-0.9445940258958774,45.37211322520635,-0.0034291294921738056,-0.03893648984236226,-0.059540720139855625,0.04351997375488281
2026-02-03 21:28:34.201414,1770125314,184580644,1,236074,0,1770125314,187937235,2,242968,0,1770125314,191248236,3,219853,0,1770125314,194600287,4,242100,0,1770125314,197913689,5,208652,-19,1770125314,181260743,6,207054,0,2.9999396800994873,0.0006185456295497715,44.99932861328125,-0.0007391700055450201,0.002895006677135825,-0.0006445305189117789,47.49800109863281,53.580501556396484,45.56399917602539,60.509498596191406,38.95650100708008,46.9739990234375,1770125314,181134432,X6-tool2,2.8062684045211315,-0.8680875383871662,45.40491920365762,-0.0031191504876562294,-0.03859577103617595,-0.059531398135834634,0.04346306994557381
2026-02-03 21:28:34.237613,1770125314,224564658,1,236074,0,1770125314,227929349,2,242968,0,1770125314,231244830,3,219853,0,1770125314,234596682,4,242100,0,1770125314,217916256,5,208658,0,1770125314,221263297,6,207054,0,2.9999396800994873,0.0006185456295497715,44.99932861328125,-0.0007391700055450201,0.002895006677135825,-0.0006445305189117789,47.49800109863281,53.580501556396484,45.56399917602539,60.509498596191406,38.95949935913086,46.9739990234375,1770125314,181134432,X6-tool2,2.8062684045211315,-0.8680875383871662,45.40491920365762,-0.0031191504876562294,-0.03859577103617595,-0.059531398135834634,0.04346306994557381
2026-02-03 21:28:34.273499,1770125314,264583482,1,236074,0,1770125314,267924663,2,242968,0,1770125314,271249625,3,219853,0,1770125314,254598169,4,242100,0,1770125314,257914020,5,208652,0,1770125314,261256961,6,207054,0,2.9999396800994873,0.0006185456295497715,44.99932861328125,-0.0007391700055450201,0.002895006677135825,-0.0006445305189117789,47.49800109863281,53.580501556396484,45.56399917602539,60.509498596191406,38.95650100708008,46.9739990234375,1770125314,181134432,X6-tool2,2.8062684045211315,-0.8680875383871662,45.40491920365762,-0.0031191504876562294,-0.03859577103617595,-0.059531398135834634,0.04346306994557381
2026-02-03 21:28:34.308696,1770125314,304579677,1,236074,0,1770125314,307929068,2,242968,0,1770125314,291225262,3,219853,0,1770125314,294595383,4,242100,0,1770125314,297912904,5,208658,26,1770125314,301261286,6,207054,0,2.9999396800994873,0.0006185456295497715,44.99932861328125,-0.0007391700055450201,0.002895006677135825,-0.0006445305189117789,47.49800109863281,53.580501556396484,45.56399917602539,60.509498596191406,38.95949935913086,46.9739990234375,1770125314,280737368,X6-tool2,2.824661039656654,-0.9161182329815665,45.43365341209486,-0.004545762660875154,-0.038188192433818866,-0.05958340407535455,0.036182720214128494
2026-02-03 21:28:34.343779,1770125314,324555474,1,236074,0,1770125314,327918945,2,242968,0,1770125314,331260106,3,219853,0,1770125314,334584407,4,242100,0,1770125314,337933719,5,208652,-24,1770125314,341244420,6,207054,0,2.9999396800994873,0.0006185456295497715,44.99932861328125,-0.0007391700055450201,0.002895006677135825,-0.0006445305189117789,47.49800109863281,53.580501556396484,45.56399917602539,60.509498596191406,38.95650100708008,46.9739990234375,1770125314,280737368,X6-tool2,2.824661039656654,-0.9161182329815665,45.43365341209486,-0.004545762660875154,-0.038188192433818866,-0.05958340407535455,0.036182720214128494
2026-02-03 21:28:34.379420,1770125314,364593528,1,236074,0,1770125314,367909049,2,242968,0,1770125314,371259580,3,219853,0,1770125314,374578232,4,242100,0,1770125314,377898583,5,208652,0,1770125314,361245037,6,207054,0,2.9999396800994873,0.0006185456295497715,44.99932861328125,-0.0007391700055450201,0.002895006677135825,-0.0006445305189117789,47.49800109863281,53.580501556396484,45.56399917602539,60.509498596191406,38.95949935913086,46.9739990234375,1770125314,280737368,X6-tool2,2.824661039656654,-0.9161182329815665,45.43365341209486,-0.004545762660875154,-0.038188192433818866,-0.05958340407535455,0.036182720214128494
2026-02-03 21:28:34.414433,1770125314,404592443,1,236074,0,1770125314,407927154,2,242968,0,1770125314,411261655,3,219853,0,1770125314,394531089,4,242100,0,1770125314,397932920,5,208652,-30,1770125314,401259051,6,207054,0,2.9999396800994873,0.0006185456295497715,44.99932861328125,-0.0007391700055450201,0.002895006677135825,-0.0006445305189117789,47.49800109863281,53.580501556396484,45.56399917602539,60.509498596191406,38.95650100708008,46.9739990234375,1770125314,381325484,X6-tool2,2.742160769122586,-0.9251149225774786,45.34382890805657,-0.0038663377618600387,-0.03942493691024786,-0.05953830869099228,0.040350914001464844
2026-02-03 21:28:34.450028,1770125314,444589307,1,236074,0,1770125314,447929128,2,242968,0,1770125314,431259252,3,219853,0,1770125314,434598313,4,242100,0,1770125314,437927274,5,208652,0,1770125314,441262916,6,207054,0,2.9999396800994873,0.0006185456295497715,44.99932861328125,-0.0007391700055450201,0.002895006677135825,-0.0006445305189117789,47.49800109863281,53.580501556396484,45.56399917602539,60.509498596191406,38.95650100708008,46.9739990234375,1770125314,381325484,X6-tool2,2.742160769122586,-0.9251149225774786,45.34382890805657,-0.0038663377618600387,-0.03942493691024786,-0.05953830869099228,0.040350914001464844
2026-02-03 21:28:34.485361,1770125314,484590441,1,236074,0,1770125314,467928875,2,242968,0,1770125314,471258586,3,219853,0,1770125314,474614797,4,242100,0,1770125314,477924189,5,208658,0,1770125314,481259500,6,207054,0,2.9999396800994873,0.0006185456295497715,44.99932861328125,-0.0007391700055450201,0.002895006677135825,-0.0006445305189117789,47.49800109863281,53.580501556396484,45.56399917602539,60.509498596191406,38.95949935913086,46.9739990234375,1770125314,481084830,X6-tool2,2.7790860158756474,-0.9266418105799236,45.378535245916524,-0.003993675761958427,-0.03931671348433207,-0.05962120352861098,0.03861777111887932
2026-02-03 21:28:34.520497,1770125314,504591298,1,236074,0,1770125314,508009400,2,242968,0,1770125314,511264561,3,219853,0,1770125314,514596152,4,242100,0,1770125314,517928833,5,208652,-16,1770125314,501259377,6,207054,0,2.9999396800994873,0.0006185456295497715,44.99932861328125,-0.0007391700055450201,0.002895006677135825,-0.0006445305189117789,47.49800109863281,53.580501556396484,45.56399917602539,60.509498596191406,38.95650100708008,46.9739990234375,1770125314,481084830,X6-tool2,2.7790860158756474,-0.9266418105799236,45.378535245916524,-0.003993675761958427,-0.03931671348433207,-0.05962120352861098,0.03861777111887932
2026-02-03 21:28:34.556468,1770125314,544591062,1,236074,0,1770125314,547927434,2,242968,0,1770125314,551256955,3,219853,0,1770125314,554596676,4,242100,0,1770125314,537923630,5,208652,0,1770125314,541262821,6,207054,0,2.9999396800994873,0.0006185456295497715,44.99932861328125,-0.0007391700055450201,0.002895006677135825,-0.0006445305189117789,47.49800109863281,53.580501556396484,45.56399917602539,60.509498596191406,38.95650100708008,46.9739990234375,1770125314,481084830,X6-tool2,2.7790860158756474,-0.9266418105799236,45.378535245916524,-0.003993675761958427,-0.03931671348433207,-0.05962120352861098,0.03861777111887932
2026-02-03 21:28:34.591819,1770125314,584590157,1,236074,0,1770125314,587926928,2,242968,0,1770125314,591177109,3,219853,0,1770125314,574595543,4,242100,0,1770125314,577902054,5,208652,0,1770125314,581258346,6,207054,0,2.9999396800994873,0.0006185456295497715,44.99932861328125,-0.0007391700055450201,0.002895006677135825,-0.0006445305189117789,47.49800109863281,53.580501556396484,45.56399917602539,60.509498596191406,38.95650100708008,46.9739990234375,1770125314,580987995,X6-tool2,2.715591957696601,-0.9493525873951251,45.29841522807073,-0.003046120678512005,-0.03980857091034722,-0.05946237933933646,0.042827289551496506
2026-02-03 21:28:34.626926,1770125314,624590601,1,236074,0,1770125314,607925155,2,242968,0,1770125314,611262066,3,219853,0,1770125314,614522067,4,242100,0,1770125314,617927949,5,208658,1,1770125314,621260120,6,207054,0,2.9999396800994873,0.0006185456295497715,44.99932861328125,-0.0007391700055450201,0.002895006677135825,-0.0006445305189117789,47.49800109863281,53.580501556396484,45.56399917602539,60.509498596191406,38.95949935913086,46.9739990234375,1770125314,580987995,X6-tool2,2.715591957696601,-0.9493525873951251,45.29841522807073,-0.003046120678512005,-0.03980857091034722,-0.05946237933933646,0.042827289551496506
2026-02-03 21:28:34.662749,1770125314,644592788,1,236074,0,1770125314,647926130,2,242968,0,1770125314,651237091,3,219853,0,1770125314,654594012,4,242100,0,1770125314,657926673,5,208652,-2,1770125314,661275624,6,207054,0,2.9999396800994873,0.0006185456295497715,44.99932861328125,-0.0007391700055450201,0.002895006677135825,-0.0006445305189117789,47.49800109863281,53.580501556396484,45.56399917602539,60.509498596191406,38.95650100708008,46.9739990234375,1770125314,580987995,X6-tool2,2.715591957696601,-0.9493525873951251,45.29841522807073,-0.003046120678512005,-0.03980857091034722,-0.05946237933933646,0.042827289551496506
2026-02-03 21:28:34.698046,1770125314,684592963,1,236074,0,1770125314,687926654,2,242968,0,1770125314,691234475,3,219853,0,1770125314,694593456,4,242100,0,1770125314,677926470,5,208652,-16,1770125314,681258291,6,207054,0,2.9999396800994873,0.0006185456295497715,44.99932861328125,-0.0007391700055450201,0.002895006677135825,-0.0006445305189117789,47.49800109863281,53.580501556396484,45.56399917602539,60.509498596191406,38.95650100708008,46.9739990234375,1770125314,680861631,X6-tool2,2.749507751609076,-0.9127292617870503,45.31641693510133,-0.0030127104411024476,-0.039857379284815565,-0.05967093376195326,0.04168415069580078
2026-02-03 21:28:34.733893,1770125314,724593137,1,236074,0,1770125314,727923918,2,242968,0,1770125314,731239149,3,219853,0,1770125314,714596313,4,242100,0,1770125314,717927244,5,208652,0,1770125314,721258856,6,207054,0,2.9999396800994873,0.0006185456295497715,44.99932861328125,-0.0007391700055450201,0.002895006677135825,-0.0006445305189117789,47.49800109863281,53.580501556396484,45.56399917602539,60.509498596191406,38.95650100708008,46.9739990234375,1770125314,680861631,X6-tool2,2.749507751609076,-0.9127292617870503,45.31641693510133,-0.0030127104411024476,-0.039857379284815565,-0.05967093376195326,0.04168415069580078
2026-02-03 21:28:34.769752,1770125314,764593221,1,236074,0,1770125314,767857102,2,242974,0,1770125314,751233166,3,219853,0,1770125314,754591648,4,242100,0,1770125314,757898649,5,208658,0,1770125314,761255500,6,207054,0,2.999948263168335,-0.0002843270485755056,44.999664306640625,-0.0007391700055450201,0.002895006677135825,-0.0006445305189117789,47.49800109863281,53.583499908447266,45.56399917602539,60.509498596191406,38.95949935913086,46.9739990234375,1770125314,680861631,X6-tool2,2.749507751609076,-0.9127292617870503,45.31641693510133,-0.0030127104411024476,-0.039857379284815565,-0.05967093376195326,0.04168415069580078
2026-02-03 21:28:34.804678,1770125314,784602548,1,236074,0,1770125314,787927820,2,242974,0,1770125314,791231671,3,219853,0,1770125314,794604402,4,242100,0,1770125314,797927303,5,208652,-9,1770125314,801269224,6,207054,0,2.999948263168335,-0.0002843270485755056,44.999664306640625,-0.0007391700055450201,0.002895006677135825,-0.0006445305189117789,47.49800109863281,53.583499908447266,45.56399917602539,60.509498596191406,38.95650100708008,46.9739990234375,1770125314,780950097,X6-tool2,2.719805552760027,-0.9173524192431829,45.32396790630844,-0.0031154666562913103,-0.03936972494942022,-0.05953681267834331,0.04113610461354256
2026-02-03 21:28:34.840279,1770125314,824602093,1,236074,0,1770125314,827927994,2,242974,0,1770125314,831274745,3,219853,0,1770125314,834596216,4,242100,0,1770125314,837935317,5,208658,21,1770125314,821261312,6,207054,0,2.999948263168335,-0.0002843270485755056,44.999664306640625,-0.0007391700055450201,0.002895006677135825,-0.0006445305189117789,47.49800109863281,53.583499908447266,45.56399917602539,60.509498596191406,38.95650100708008,46.9739990234375,1770125314,780950097,X6-tool2,2.719805552760027,-0.9173524192431829,45.32396790630844,-0.0031154666562913103,-0.03936972494942022,-0.05953681267834331,0.04113610461354256
2026-02-03 21:28:34.876367,1770125314,864581097,1,236074,0,1770125314,867906418,2,242974,0,1770125314,871221699,3,219853,0,1770125314,874564680,4,242100,0,1770125314,857896074,5,208652,0,1770125314,861237086,6,207054,0,2.999948263168335,-0.0002843270485755056,44.999664306640625,-0.0007391700055450201,0.002895006677135825,-0.0006445305189117789,47.49800109863281,53.583499908447266,45.56399917602539,60.509498596191406,38.95650100708008,46.9739990234375,1770125314,780950097,X6-tool2,2.719805552760027,-0.9173524192431829,45.32396790630844,-0.0031154666562913103,-0.03936972494942022,-0.05953681267834331,0.04113610461354256
2026-02-03 21:28:34.911862,1770125314,904575691,1,236074,0,1770125314,907906923,2,242974,0,1770125314,911241054,3,219853,0,1770125314,894550848,4,242100,0,1770125314,897886939,5,208658,7,1770125314,901233380,6,207054,0,2.999948263168335,-0.0002843270485755056,44.999664306640625,-0.0007391700055450201,0.002895006677135825,-0.0006445305189117789,47.49800109863281,53.583499908447266,45.56399917602539,60.509498596191406,38.95949935913086,46.9739990234375,1770125314,880921523,X6-tool2,2.77168358510962,-0.9214097305401514,45.34853046674251,-0.003340930136932372,-0.039308598668860675,-0.05970528182974104,0.04180653765797615
2026-02-03 21:28:34.946959,1770125314,944579665,1,236074,0,1770125314,927912090,2,242974,0,1770125314,931189251,3,219853,0,1770125314,934587872,4,242100,0,1770125314,937914383,5,208647,-5,1770125314,941240704,6,207054,0,2.999948263168335,-0.0002843270485755056,44.999664306640625,-0.0007391700055450201,0.002895006677135825,-0.0006445305189117789,47.49800109863281,53.583499908447266,45.56399917602539,60.509498596191406,38.95399856567383,46.9739990234375,1770125314,880921523,X6-tool2,2.77168358510962,-0.9214097305401514,45.34853046674251,-0.003340930136932372,-0.039308598668860675,-0.05970528182974104,0.04180653765797615
2026-02-03 21:28:34.982725,1770125314,964548173,1,236074,0,1770125314,967913194,2,242974,0,1770125314,971236625,3,219853,0,1770125314,974577296,4,242100,0,1770125314,977899988,5,208658,23,1770125314,981247249,6,207054,0,2.999948263168335,-0.0002843270485755056,44.999664306640625,-0.0007391700055450201,0.002895006677135825,-0.0006445305189117789,47.49800109863281,53.583499908447266,45.56399917602539,60.509498596191406,38.95949935913086,46.9739990234375,1770125314,981264189,X6-tool2,2.7832977343481797,-0.9275177183833349,45.39748932583495,-0.00407880876973532,-0.039047306202879786,-0.059494676460426055,0.03991953656077385
2026-02-03 21:28:35.017818,1770125315,4566837,1,236074,0,1770125315,7888838,2,242974,0,1770125315,11216749,3,219853,0,1770125315,14552381,4,242100,0,1770125314,997883085,5,208647,-2,1770125315,1220806,6,207054,0,2.999948263168335,-0.0002843270485755056,44.999664306640625,-0.0007391700055450201,0.002895006677135825,-0.0006445305189117789,47.49800109863281,53.583499908447266,45.56399917602539,60.509498596191406,38.95399856567383,46.9739990234375,1770125314,981264189,X6-tool2,2.7832977343481797,-0.9275177183833349,45.39748932583495,-0.00407880876973532,-0.039047306202879786,-0.059494676460426055,0.03991953656077385
2026-02-03 21:28:35.053385,1770125315,44577491,1,236074,0,1770125315,47882633,2,242974,0,1770125315,51240564,3,219853,0,1770125315,34573868,4,242100,0,1770125315,37888189,5,208658,0,1770125315,41220480,6,207054,0,2.999948263168335,-0.0002843270485755056,44.999664306640625,-0.0007391700055450201,0.002895006677135825,-0.0006445305189117789,47.49800109863281,53.583499908447266,45.56399917602539,60.509498596191406,38.95949935913086,46.9739990234375,1770125314,981264189,X6-tool2,2.7832977343481797,-0.9275177183833349,45.39748932583495,-0.00407880876973532,-0.039047306202879786,-0.059494676460426055,0.03991953656077385
2026-02-03 21:28:35.089134,1770125315,84580706,1,236074,0,1770125315,87904467,2,242974,0,1770125315,71285871,3,219853,0,1770125315,74579882,4,242100,0,1770125315,77880843,5,208647,0,1770125315,81191444,6,207054,0,2.999948263168335,-0.0002843270485755056,44.999664306640625,-0.0007391700055450201,0.002895006677135825,-0.0006445305189117789,47.49800109863281,53.583499908447266,45.56399917602539,60.509498596191406,38.95399856567383,46.9739990234375,1770125315,81759935,X6-tool2,2.7451643836689437,-0.8969245844044843,45.35453788455124,-0.0029011287579177826,-0.03932549051660197,-0.059383735788427955,0.041062671691179276
2026-02-03 21:28:35.124439,1770125315,104552343,1,236074,0,1770125315,107884544,2,242974,0,1770125315,111223945,3,219853,0,1770125315,114526466,4,242100,0,1770125315,117885407,5,208652,-1,1770125315,121229459,6,207054,0,2.999948263168335,-0.0002843270485755056,44.999664306640625,-0.0007391700055450201,0.002895006677135825,-0.0006445305189117789,47.49800109863281,53.583499908447266,45.56399917602539,60.509498596191406,38.95650100708008,46.9739990234375,1770125315,81759935,X6-tool2,2.7451643836689437,-0.8969245844044843,45.35453788455124,-0.0029011287579177826,-0.03932549051660197,-0.059383735788427955,0.041062671691179276
2026-02-03 21:28:35.160251,1770125315,144557427,1,236074,0,1770125315,147905248,2,242974,0,1770125315,151224939,3,219853,0,1770125315,154551291,4,242100,0,1770125315,157891222,5,208647,0,1770125315,141241766,6,207054,0,2.999948263168335,-0.0002843270485755056,44.999664306640625,-0.0007391700055450201,0.002895006677135825,-0.0006445305189117789,47.49800109863281,53.583499908447266,45.56399917602539,60.509498596191406,38.95949935913086,46.9739990234375,1770125315,81759935,X6-tool2,2.7451643836689437,-0.8969245844044843,45.35453788455124,-0.0029011287579177826,-0.03932549051660197,-0.059383735788427955,0.041062671691179276
2026-02-03 21:28:35.195873,1770125315,184580241,1,236074,0,1770125315,187901012,2,242974,0,1770125315,191220594,3,219853,0,1770125315,194550445,4,242100,0,1770125315,177887049,5,208652,-20,1770125315,181233910,6,207054,0,2.999948263168335,-0.0002843270485755056,44.999664306640625,-0.0007391700055450201,0.002895006677135825,-0.0006445305189117789,47.49800109863281,53.583499908447266,45.56399917602539,60.509498596191406,38.95650100708008,46.9739990234375,1770125315,180948020,X6-tool2,2.7710239698912376,-0.8966374314523623,45.381443160151946,-0.0034061114572529897,-0.039704358709360045,-0.05956699752930656,0.044307708740234375
2026-02-03 21:28:35.231164,1770125315,225246776,1,236074,0,1770125315,227933777,2,242974,0,1770125315,211231861,3,219853,0,1770125315,214576602,4,242100,0,1770125315,217885783,5,208658,27,1770125315,221228275,6,207054,0,2.999948263168335,-0.0002843270485755056,44.999664306640625,-0.0007391700055450201,0.002895006677135825,-0.0006445305189117789,47.49800109863281,53.583499908447266,45.56399917602539,60.509498596191406,38.95949935913086,46.9739990234375,1770125315,180948020,X6-tool2,2.7710239698912376,-0.8966374314523623,45.381443160151946,-0.0034061114572529897,-0.039704358709360045,-0.05956699752930656,0.044307708740234375
2026-02-03 21:28:35.266888,1770125315,264556110,1,236074,0,1770125315,247884614,2,242974,0,1770125315,251219025,3,219853,0,1770125315,254559416,4,242100,0,1770125315,257888517,5,208652,-36,1770125315,261215689,6,207054,0,2.999948263168335,-0.0002843270485755056,44.999664306640625,-0.0007391700055450201,0.002895006677135825,-0.0006445305189117789,47.49800109863281,53.583499908447266,45.56399917602539,60.509498596191406,38.95650100708008,46.9739990234375,1770125315,180948020,X6-tool2,2.7710239698912376,-0.8966374314523623,45.381443160151946,-0.0034061114572529897,-0.039704358709360045,-0.05956699752930656,0.044307708740234375
2026-02-03 21:28:35.302470,1770125315,284555297,1,236074,0,1770125315,287877798,2,242974,0,1770125315,291225249,3,219853,0,1770125315,294545781,4,242100,0,1770125315,297886262,5,208652,0,1770125315,301211943,6,207054,0,2.999948263168335,-0.0002843270485755056,44.999664306640625,-0.0007391700055450201,0.002895006677135825,-0.0006445305189117789,47.49800109863281,53.583499908447266,45.56399917602539,60.509498596191406,38.95650100708008,46.9739990234375,1770125315,281192596,X6-tool2,2.759019643808632,-0.8293790838722015,45.37140015097567,-0.003352870506783567,-0.03871450408261897,-0.059687541648038814,0.03784338757395744
2026-02-03 21:28:35.337611,1770125315,324572372,1,236074,0,1770125315,327903133,2,242974,0,1770125315,331245064,3,219858,0,1770125315,334573425,4,242100,0,1770125315,317909059,5,208652,-25,1770125315,321232580,6,207054,0,2.999948263168335,-0.0002843270485755056,44.999664306640625,-0.0007391700055450201,0.002895006677135825,-0.0006445305189117789,47.49800109863281,53.583499908447266,45.56399917602539,60.509498596191406,38.95650100708008,46.9739990234375,1770125315,281192596,X6-tool2,2.759019643808632,-0.8293790838722015,45.37140015097567,-0.003352870506783567,-0.03871450408261897,-0.059687541648038814,0.03784338757395744
2026-02-03 21:28:35.373429,1770125315,364572156,1,236074,0,1770125315,367881357,2,242765,-112,1770125315,371242678,3,219941,47,1770125315,354570032,4,242100,0,1770125315,357907203,5,208652,-13,1770125315,361212245,6,207054,0,2.999948263168335,-0.0002843270485755056,44.999664306640625,-0.0007391700055450201,0.002895006677135825,-0.0006445305189117789,47.49800109863281,53.583499908447266,45.56650161743164,60.509498596191406,38.95650100708008,46.9739990234375,1770125315,281192596,X6-tool2,2.759019643808632,-0.8293790838722015,45.37140015097567,-0.003352870506783567,-0.03871450408261897,-0.059687541648038814,0.03784338757395744
2026-02-03 21:28:35.408930,1770125315,404550490,1,235695,-101,1770125315,407882121,2,242249,-139,1770125315,391216485,3,220040,49,1770125315,394549046,4,242260,52,1770125315,397880968,5,208652,-5,1770125315,401214589,6,207142,27,3.010369062423706,0.08181074261665344,44.982940673828125,-0.0018917638808488846,0.006904603447765112,-0.036218639463186264,47.407501220703125,53.352500915527344,45.657501220703125,60.589500427246094,38.95650100708008,46.99300003051758,1770125315,380998452,X6-tool2,2.7023207953790203,-0.9036276767258135,45.33769496608811,-0.0033329334433187564,-0.03922647870971942,-0.05944027151119537,0.04512278363108635
2026-02-03 21:28:35.444518,1770125315,424550347,1,235464,-122,1770125315,427895808,2,241952,-97,1770125315,431245390,3,220237,48,1770125315,434579091,4,242408,35,1770125315,437907572,5,208658,0,1770125315,441233703,6,207356,46,3.0122222900390625,0.1300702840089798,44.97500991821289,0.010027844458818436,0.011524096131324768,-0.03964532911777496,47.30849838256836,53.22100067138672,45.701499938964844,60.63050079345703,38.95949935913086,47.018001556396484,1770125315,380998452,X6-tool2,2.7023207953790203,-0.9036276767258135,45.33769496608811,-0.0033329334433187564,-0.03922647870971942,-0.05944027151119537,0.04512278363108635
2026-02-03 21:28:35.480545,1770125315,464576691,1,235042,-105,1770125315,467896823,2,241397,-136,1770125315,471220814,3,220441,46,1770125315,474564955,4,242578,35,1770125315,477888126,5,208669,0,1770125315,461236300,6,207471,55,3.002532720565796,0.2421502321958542,44.964088439941406,0.02151302993297577,0.00022110961435828358,-0.03315358981490135,47.08599853515625,52.932498931884766,45.80550003051758,60.709999084472656,38.96200180053711,47.125,1770125315,380998452,X6-tool2,2.7023207953790203,-0.9036276767258135,45.33769496608811,-0.0033329334433187564,-0.03922647870971942,-0.05944027151119537,0.04512278363108635
2026-02-03 21:28:35.517325,1770125315,504552596,1,234613,-108,1770125315,507898207,2,240776,-162,1770125315,511249078,3,220638,48,1770125315,514551669,4,242677,25,1770125315,497883143,5,208680,6,1770125315,501214275,6,207675,47,2.9886815547943115,0.35406696796417236,44.951759338378906,0.024973953142762184,-0.0068542868830263615,-0.029760481789708138,46.877498626708984,52.64099884033203,45.90449905395508,60.77349853515625,38.97050094604492,47.23749923706055,1770125315,480784907,X6-tool2,2.6839845349837446,-0.7273672730826268,45.32946460933092,-0.0037189469529520236,-0.036453960271639246,-0.05944868956168492,0.043755847960710526
2026-02-03 21:28:35.552719,1770125315,544572110,1,234119,-125,1770125315,547887911,2,240073,-182,1770125315,551218742,3,220831,43,1770125315,534546307,4,242715,17,1770125315,537905668,5,208702,8,1770125315,541217969,6,207971,78,2.97226619720459,0.476809024810791,44.930965423583984,0.018857348710298538,-0.01638418808579445,-0.0484345518052578,46.64950180053711,52.30350112915039,46.00899887084961,60.81700134277344,38.98149871826172,47.34450149536133,1770125315,480784907,X6-tool2,2.6839845349837446,-0.7273672730826268,45.32946460933092,-0.0037189469529520236,-0.036453960271639246,-0.05944868956168492,0.043755847960710526
2026-02-03 21:28:35.588693,1770125315,584573414,1,233679,-114,1770125315,587880806,2,239464,-157,1770125315,571241760,3,220919,45,1770125315,574567261,4,242759,15,1770125315,577904262,5,208735,10,1770125315,581233543,6,208229,70,2.9431047439575195,0.5965869426727295,44.915672302246094,0.009073689579963684,-0.025449590757489204,-0.04244851693511009,46.410499572753906,51.98500061035156,46.09700012207031,60.8390007019043,38.99800109863281,47.490501403808594,1770125315,580863363,X6-tool2,2.735516283649604,-0.6735959823865526,45.35045951005374,-0.007224610288551298,-0.038556947423730864,-0.05822955721425114,0.04625002667307854
2026-02-03 21:28:35.624272,1770125315,604571481,1,233454,-115,1770125315,607901403,2,239167,-155,1770125315,611240134,3,221105,49,1770125315,614564815,4,242897,49,1770125315,617882916,5,208779,17,1770125315,621238098,6,208559,76,2.9307096004486084,0.6564443707466125,44.90849685668945,0.0002087903267238289,-0.0315653495490551,-0.042771317064762115,46.300498962402344,51.82849884033203,46.140499114990234,60.85850143432617,39.00899887084961,47.561500549316406,1770125315,580863363,X6-tool2,2.735516283649604,-0.6735959823865526,45.35045951005374,-0.007224610288551298,-0.038556947423730864,-0.05822955721425114,0.04625002667307854
2026-02-03 21:28:35.660290,1770125315,644588986,1,232976,-136,1770125315,647896607,2,238601,-140,1770125315,651258178,3,221292,35,1770125315,654600030,4,242913,5,1770125315,657898321,5,208878,31,1770125315,641232235,6,208724,91,2.9035353660583496,0.7735219597816467,44.90098190307617,-0.003192753531038761,-0.03948025777935982,-0.029215143993496895,46.06999969482422,51.540000915527344,46.239498138427734,60.910499572753906,39.044498443603516,47.72650146484375,1770125315,580863363,X6-tool2,2.735516283649604,-0.6735959823865526,45.35045951005374,-0.007224610288551298,-0.038556947423730864,-0.05822955721425114,0.04625002667307854
2026-02-03 21:28:35.695364,1770125315,684592320,1,232405,-151,1770125315,687931711,2,238008,-153,1770125315,691261723,3,221462,51,1770125315,694595464,4,242935,-5,1770125315,677921628,5,208932,26,1770125315,681266389,6,209103,96,2.8670308589935303,0.8890129923820496,44.89275360107422,0.0016286103054881096,-0.040180105715990067,-0.009327973239123821,45.800498962402344,51.25149917602539,46.321998596191406,60.932498931884766,39.096500396728516,47.90800094604492,1770125315,680798479,X6-tool2,2.724444746671162,-0.4644099248755396,45.35285167737693,-0.009275808618691008,-0.03883845123864035,-0.05813055866783676,0.04464149475097656
2026-02-03 21:28:35.730402,1770125315,724591344,1,231883,-124,1770125315,727896676,2,237316,-132,1770125315,711257840,3,221578,60,1770125315,714594321,4,242935,3,1770125315,717923382,5,209119,52,1770125315,721256233,6,209482,88,2.825392007827759,1.0083034038543701,44.87847900390625,0.01160199474543333,-0.02862253040075302,-0.030439168214797974,45.53150177001953,50.938499450683594,46.42649841308594,60.926998138427734,39.189998626708984,48.0890007019043,1770125315,680798479,X6-tool2,2.724444746671162,-0.4644099248755396,45.35285167737693,-0.009275808618691008,-0.03883845123864035,-0.05813055866783676,0.04464149475097656
2026-02-03 21:28:35.766253,1770125315,764590849,1,231372,-142,1770125315,747924963,2,237036,-153,1770125315,751261144,3,221781,42,1770125315,754599935,4,242924,-6,1770125315,757924056,5,209273,16,1770125315,761265148,6,209866,96,2.7808473110198975,1.1327178478240967,44.86399459838867,0.0012719399528577924,-0.02576756477355957,-0.042677272111177444,45.27899932861328,50.614498138427734,46.52799987792969,60.92150115966797,39.266998291015625,48.284000396728516,1770125315,680798479,X6-tool2,2.724444746671162,-0.4644099248755396,45.35285167737693,-0.009275808618691008,-0.03883845123864035,-0.05813055866783676,0.04464149475097656
2026-02-03 21:28:35.802228,1770125315,784590976,1,231108,-130,1770125315,787934557,2,236497,-136,1770125315,791262438,3,221918,32,1770125315,794599660,4,242908,0,1770125315,797897691,5,209427,45,1770125315,801266652,6,210278,114,2.7584645748138428,1.1851552724838257,44.859893798828125,0.0017269133822992444,-0.025629034265875816,-0.03116416372358799,45.14699935913086,50.48249816894531,46.56100082397461,60.91600036621094,39.297000885009766,48.380001068115234,1770125315,780965075,X6-tool2,2.669901563944872,-0.16953489005248798,45.43355374960804,-0.008197158889544903,-0.03742459185999871,-0.06002319383630221,0.043662071228027344
2026-02-03 21:28:35.837613,1770125315,824590830,1,230592,-122,1770125315,827936141,2,235937,-109,1770125315,831260143,3,222111,51,1770125315,834599994,4,242847,-16,1770125315,817920968,5,209482,31,1770125315,821266109,6,210471,100,2.7091546058654785,1.291490077972412,44.85218811035156,0.0009132239501923323,-0.027048742398619652,-0.019150152802467346,44.888999938964844,50.215999603271484,46.640499114990234,60.89699935913086,39.371498107910156,48.58599853515625,1770125315,780965075,X6-tool2,2.669901563944872,-0.16953489005248798,45.43355374960804,-0.008197158889544903,-0.03742459185999871,-0.06002319383630221,0.043662071228027344
2026-02-03 21:28:35.873139,1770125315,864589265,1,230010,-151,1770125315,867926896,2,235404,-134,1770125315,871258837,3,222231,33,1770125315,854591991,4,242798,-27,1770125315,857924532,5,209663,44,1770125315,861257953,6,210855,107,2.660905361175537,1.3971973657608032,44.83710479736328,0.012019774876534939,-0.01682095415890217,-0.027817223221063614,44.61399841308594,49.93299865722656,46.722999572753906,60.85850143432617,39.46200180053711,48.77000045776367,1770125315,780965075,X6-tool2,2.669901563944872,-0.16953489005248798,45.43355374960804,-0.008197158889544903,-0.03742459185999871,-0.06002319383630221,0.043662071228027344
2026-02-03 21:28:35.909063,1770125315,904590029,1,229444,-136,1770125315,907924170,2,234827,-154,1770125315,891259814,3,222286,22,1770125315,894590795,4,242688,-18,1770125315,897896157,5,209828,39,1770125315,901254248,6,211295,105,2.6039786338806152,1.5012083053588867,44.82456588745117,0.019685929641127586,-0.009191908873617649,-0.010511702857911587,44.314998626708984,49.65850067138672,46.78049850463867,60.80350112915039,39.544498443603516,48.979000091552734,1770125315,881060671,X6-tool2,2.562466920349308,0.04852252610407629,45.379269266246304,-0.007516117356225002,-0.037350761490678716,-0.06192747910732158,0.036660194396972656
2026-02-03 21:28:35.944485,1770125315,924586636,1,229197,-120,1770125315,927922527,2,234476,-185,1770125315,931266668,3,222402,31,1770125315,934589920,4,242589,-28,1770125315,937922681,5,210059,48,1770125315,941257612,6,211778,131,2.5742857456207275,1.5587146282196045,44.818443298339844,0.014964081346988678,0.010569852776825428,-0.012439330108463764,44.18299865722656,49.5099983215332,46.80799865722656,60.78150177001953,39.60749816894531,49.09450149536133,1770125315,881060671,X6-tool2,2.562466920349308,0.04852252610407629,45.379269266246304,-0.007516117356225002,-0.037350761490678716,-0.06192747910732158,0.036660194396972656
2026-02-03 21:28:35.981395,1770125315,964590380,1,228669,-121,1770125315,967923162,2,234009,-121,1770125315,971260113,3,222556,39,1770125315,974591684,4,242463,-29,1770125315,977921565,5,210306,60,1770125315,961258259,6,212014,107,2.509382963180542,1.6708275079727173,44.806488037109375,0.00045725589734502137,0.032838404178619385,-0.01793055050075054,43.92499923706055,49.21900177001953,46.874000549316406,60.72100067138672,39.72549819946289,49.33599853515625,1770125315,881060671,X6-tool2,2.562466920349308,0.04852252610407629,45.379269266246304,-0.007516117356225002,-0.037350761490678716,-0.06192747910732158,0.036660194396972656
2026-02-03 21:28:36.017834,1770125316,4589035,1,228109,-143,1770125316,7922756,2,233520,-125,1770125316,11256687,3,222682,21,1770125316,14591568,4,242287,-49,1770125315,997922062,5,210416,51,1770125316,1255594,6,212481,113,2.4441757202148438,1.7640498876571655,44.79991912841797,0.012551712803542614,0.035380393266677856,-0.017064182087779045,43.65549850463867,48.983001708984375,46.95650100708008,60.65250015258789,39.8385009765625,49.571998596191406,1770125315,981124976,X6-tool2,2.561289503546359,0.19276320331832864,45.457877495116406,-0.006809567655443961,-0.03699989614177265,-0.06371976047415383,0.04681555554270744
2026-02-03 21:28:36.055306,1770125316,44563259,1,227527,-147,1770125316,47892190,2,232982,-103,1770125316,51261661,3,222814,38,1770125316,54562602,4,241996,-80,1770125316,37896396,5,210619,59,1770125316,41251218,6,212943,116,2.3716351985931396,1.8549036979675293,44.78771209716797,0.01100845541805029,0.037886738777160645,-0.01029598992317915,43.3754997253418,48.73550033569336,47.00600051879883,60.545501708984375,39.939998626708984,49.80550003051758,1770125315,981124976,X6-tool2,2.561289503546359,0.19276320331832864,45.457877495116406,-0.006809567655443961,-0.03699989614177265,-0.06371976047415383,0.04681555554270744
2026-02-03 21:28:36.090367,1770125316,84589503,1,226972,-141,1770125316,87918725,2,232487,-127,1770125316,71230159,3,222869,24,1770125316,74568320,4,241891,-61,1770125316,77894691,5,210839,52,1770125316,81227102,6,213420,129,2.293304443359375,1.94661545753479,44.76841735839844,0.018947912380099297,0.03820382431149483,-0.025399701669812202,43.08150100708008,48.46649932861328,47.071998596191406,60.404998779296875,40.04999923706055,50.03350067138672,1770125316,81028582,X6-tool2,2.3610269978628953,0.5828992082901933,45.390541008051564,-0.003925181696600328,-0.034472174228534845,-0.06674804989185518,0.04278342053294182
2026-02-03 21:28:36.126939,1770125316,124566558,1,226417,-140,1770125316,107919481,2,232224,-132,1770125316,111227733,3,223022,45,1770125316,114564884,4,241600,-91,1770125316,117895235,5,211025,48,1770125316,121228106,6,213915,137,2.210843086242676,2.035595178604126,44.75132369995117,0.012498986907303333,0.01579091139137745,-0.03431210666894913,42.80699920654297,48.208499908447266,47.14849853515625,60.259498596191406,40.143001556396484,50.2755012512207,1770125316,81028582,X6-tool2,2.3610269978628953,0.5828992082901933,45.390541008051564,-0.003925181696600328,-0.034472174228534845,-0.06674804989185518,0.04278342053294182
2026-02-03 21:28:36.162648,1770125316,144562605,1,226159,-132,1770125316,147894406,2,231746,-116,1770125316,151254447,3,223138,24,1770125316,154592858,4,241320,-60,1770125316,157919779,5,211262,63,1770125316,161231681,6,214464,139,2.1694037914276123,2.0794806480407715,44.745235443115234,0.012498986907303333,0.01579091139137745,-0.03431210666894913,42.669498443603516,48.087501525878906,47.17599868774414,60.194000244140625,40.195499420166016,50.40449905395508,1770125316,81028582,X6-tool2,2.3610269978628953,0.5828992082901933,45.390541008051564,-0.003925181696600328,-0.034472174228534845,-0.06674804989185518,0.04278342053294182
2026-02-03 21:28:36.198054,1770125316,184587859,1,225654,-120,1770125316,187925520,2,231301,-97,1770125316,191253621,3,223264,25,1770125316,194565983,4,241007,-72,1770125316,177894707,5,211393,62,1770125316,181231018,6,214755,149,2.076284408569336,2.1662251949310303,44.731224060058594,-0.0021974844858050346,0.011297737248241901,-0.048295944929122925,42.4114990234375,47.84000015258789,47.239498138427734,60.03150177001953,40.32699966430664,50.67900085449219,1770125316,180963808,X6-tool2,2.2409871847753555,0.6444502772259328,45.38252675465191,-0.003753879517641057,-0.03266848377040542,-0.0696269278544106,0.050589561462402344
2026-02-03 21:28:36.234180,1770125316,224591023,1,225077,-143,1770125316,227925604,2,230883,-99,1770125316,231256776,3,223374,26,1770125316,214591460,4,240875,-67,1770125316,217895171,5,211646,85,1770125316,221263562,6,215272,121,1.9878867864608765,2.241145372390747,44.726966857910156,0.004860901273787022,0.007909181527793407,-0.039445169270038605,42.1505012512207,47.64500045776367,47.29999923706055,59.89699935913086,40.45349884033203,50.95899963378906,1770125316,180963808,X6-tool2,2.2409871847753555,0.6444502772259328,45.38252675465191,-0.003753879517641057,-0.03266848377040542,-0.0696269278544106,0.050589561462402344
2026-02-03 21:28:36.270835,1770125316,264575918,1,224511,-133,1770125316,267926439,2,230433,-109,1770125316,251251833,3,223434,26,1770125316,254591944,4,240529,-94,1770125316,257910395,5,211888,58,1770125316,261255407,6,215788,127,1.8987443447113037,2.3124258518218994,44.71132278442383,0.024742158129811287,0.004493533633649349,-0.04580780863761902,41.859500885009766,47.428001403808594,47.35449981689453,59.7239990234375,40.574501037597656,51.20349884033203,1770125316,180963808,X6-tool2,2.2409871847753555,0.6444502772259328,45.38252675465191,-0.003753879517641057,-0.03266848377040542,-0.0696269278544106,0.050589561462402344
2026-02-03 21:28:36.306649,1770125316,304625082,1,223978,-140,1770125316,287888176,2,230175,-159,1770125316,291217597,3,223517,15,1770125316,294549258,4,240139,-110,1770125316,297880960,5,212173,53,1770125316,301223111,6,216381,158,1.7970659732818604,2.392580509185791,44.69357681274414,0.022774280980229378,0.013364993035793304,-0.05952596664428711,41.57899856567383,47.183998107910156,47.395999908447266,59.52899932861328,40.71699905395508,51.48400115966797,1770125316,288837316,X6-tool2,2.0053454016491283,0.8931473086881181,45.3493094007918,-0.00019821644045893557,-0.03216327853937075,-0.07168234332494387,0.04591401293873787
2026-02-03 21:28:36.343294,1770125316,324587089,1,223698,-80,1770125316,327931090,2,229713,-123,1770125316,331241292,3,223594,20,1770125316,334593473,4,239755,-98,1770125316,337909004,5,212404,65,1770125316,341630565,6,216969,143,1.6924875974655151,2.4705493450164795,44.679073333740234,0.009008429013192654,0.006040529347956181,-0.05428934842348099,41.310001373291016,46.952999114990234,47.43450164794922,59.33700180053711,40.83250045776367,51.78049850463867,1770125316,288837316,X6-tool2,2.0053454016491283,0.8931473086881181,45.3493094007918,-0.00019821644045893557,-0.03216327853937075,-0.07168234332494387,0.04591401293873787
2026-02-03 21:28:36.378682,1770125316,364570123,1,223187,-122,1770125316,367902245,2,229301,-96,1770125316,371259066,3,223676,21,1770125316,374594037,4,239409,-79,1770125316,377927148,5,212673,65,1770125316,361233292,6,217282,162,1.6413322687149048,2.50986909866333,44.672943115234375,0.009008429013192654,0.006040529347956181,-0.05428934842348099,41.178001403808594,46.84049987792969,47.45650100708008,59.249000549316406,40.90650177001953,51.93149948120117,1770125316,288837316,X6-tool2,2.0053454016491283,0.8931473086881181,45.3493094007918,-0.00019821644045893557,-0.03216327853937075,-0.07168234332494387,0.04591401293873787
2026-02-03 21:28:36.414747,1770125316,404598738,1,222698,-115,1770125316,407939049,2,228950,-84,1770125316,411261070,3,223737,11,1770125316,394561294,4,239227,-91,1770125316,397896265,5,212811,69,1770125316,401334437,6,217842,135,1.5400601625442505,2.5743911266326904,44.66593933105469,0.0017251360695809126,0.00572597049176693,-0.04160991311073303,40.936500549316406,46.659000396728516,47.494998931884766,59.073001861572266,41.0359992980957,52.22800064086914,1770125316,388813082,X6-tool2,1.9130169158653907,1.1003149073997838,45.421914125231005,0.002203091960382419,-0.032040505591932306,-0.07336744014027595,0.0498097725212574
2026-02-03 21:28:36.450662,1770125316,444589012,1,222149,-124,1770125316,447912613,2,228576,-107,1770125316,431261117,3,223764,10,1770125316,434602138,4,238793,-114,1770125316,437927630,5,213102,72,1770125316,441264331,6,218375,134,1.4351836442947388,2.6257760524749756,44.65333557128906,0.02773056924343109,0.014810442924499512,-0.04898139089345932,40.66999816894531,46.48899841308594,47.519500732421875,58.85599899291992,41.18149948120117,52.497501373291016,1770125316,388813082,X6-tool2,1.9130169158653907,1.1003149073997838,45.421914125231005,0.002203091960382419,-0.032040505591932306,-0.07336744014027595,0.0498097725212574
2026-02-03 21:28:36.487230,1770125316,484589396,1,221671,-118,1770125316,467985170,2,228395,-74,1770125316,471260811,3,223808,9,1770125316,474598353,4,238299,-112,1770125316,477926194,5,213393,69,1770125316,481262475,6,218974,147,1.3206229209899902,2.681175947189331,44.63517379760742,0.03532202169299126,0.016752317547798157,-0.06381430476903915,40.409000396728516,46.29399871826172,47.541500091552734,58.60900115966797,41.32699966430664,52.779998779296875,1770125316,388813082,X6-tool2,1.9130169158653907,1.1003149073997838,45.421914125231005,0.002203091960382419,-0.032040505591932306,-0.07336744014027595,0.0498097725212574
2026-02-03 21:28:36.523863,1770125316,504600903,1,221451,-108,1770125316,507994685,2,228071,-94,1770125316,511261966,3,223830,5,1770125316,514599127,4,237838,-111,1770125316,517927528,5,213646,63,1770125316,521262819,6,219556,140,1.2070233821868896,2.729914665222168,44.62397003173828,0.03028053045272827,0.006919528357684612,-0.059113580733537674,40.186500549316406,46.13199996948242,47.5525016784668,58.378501892089844,41.45349884033203,53.07400131225586,1770125316,488011177,X6-tool2,1.4399796521115842,1.2578941454187382,45.36266176982003,0.005043282195704796,-0.02937989719012071,-0.07480475011976065,0.041825294494628906
2026-02-03 21:28:36.561000,1770125316,544588198,1,221034,-100,1770125316,547924739,2,227747,-84,1770125316,551257950,3,223846,7,1770125316,554580041,4,237382,-122,1770125316,557897173,5,213898,50,1770125316,541273496,6,219847,142,1.150489091873169,2.7550060749053955,44.61914825439453,0.021184712648391724,0.006802617106586695,-0.05534026026725769,40.079498291015625,46.051998138427734,47.55799865722656,58.26850128173828,41.51649856567383,53.224998474121094,1770125316,488011177,X6-tool2,1.4399796521115842,1.2578941454187382,45.36266176982003,0.005043282195704796,-0.02937989719012071,-0.07480475011976065,0.041825294494628906
2026-02-03 21:28:36.596836,1770125316,584590452,1,220583,-102,1770125316,587913463,2,227411,-85,1770125316,591256414,3,223846,0,1770125316,594575336,4,236904,-133,1770125316,577922100,5,214014,56,1770125316,581247771,6,220435,129,1.033847689628601,2.8021042346954346,44.60447311401367,0.012571871280670166,0.004110438283532858,-0.05625609681010246,39.856998443603516,45.884498596191406,47.56050109863281,58.02399826049805,41.63750076293945,53.51649856567383,1770125316,587497133,X6-tool2,1.189471220121442,1.3078830030563988,45.37890619400758,0.007786596601579027,-0.028478851315880925,-0.07609195731425682,0.050251007080078125
2026-02-03 21:28:36.633360,1770125316,624589376,1,220166,-105,1770125316,627910698,2,227071,-55,1770125316,631260219,3,223841,0,1770125316,614557313,4,236640,-98,1770125316,617921564,5,214266,60,1770125316,621241425,6,220974,130,0.9187929034233093,2.8466646671295166,44.58850860595703,0.0012363396817818284,-0.004926399327814579,-0.05298185721039772,39.64550018310547,45.720001220703125,47.56050109863281,57.77949905395508,41.76350021362305,53.79899978637695,1770125316,587497133,X6-tool2,1.189471220121442,1.3078830030563988,45.37890619400758,0.007786596601579027,-0.028478851315880925,-0.07609195731425682,0.050251007080078125
2026-02-03 21:28:36.669007,1770125316,664589381,1,219732,-103,1770125316,667911652,2,226846,-50,1770125316,651220466,3,223841,0,1770125316,654577807,4,236195,-113,1770125316,657906588,5,214519,71,1770125316,661221110,6,221528,149,0.8112672567367554,2.889373302459717,44.574012756347656,0.004181115422397852,0.001096810563467443,-0.049342479556798935,39.43149948120117,45.566001892089844,47.55799865722656,57.55699920654297,41.88999938964844,54.06850051879883,1770125316,587497133,X6-tool2,1.189471220121442,1.3078830030563988,45.37890619400758,0.007786596601579027,-0.028478851315880925,-0.07609195731425682,0.050251007080078125
2026-02-03 21:28:36.704159,1770125316,684589368,1,219545,-103,1770125316,687911879,2,226719,-60,1770125316,691259120,3,223824,-5,1770125316,694575371,4,235629,-138,1770125316,697923512,5,214799,62,1770125316,701240674,6,222089,144,0.7470073699951172,2.8968966007232666,44.56871795654297,0.016267240047454834,-0.0018264006357640028,-0.05449756234884262,39.32699966430664,45.519500732421875,47.5525016784668,57.40850067138672,41.96699905395508,54.21099853515625,1770125316,686975409,X6-tool2,0.9895981621708013,1.5731455623366526,45.44746335022453,0.011088252066648258,-0.028339213196254046,-0.07665647229264623,0.03663317486643791
2026-02-03 21:28:36.741127,1770125316,724587352,1,219161,-91,1770125316,727890723,2,226522,-44,1770125316,731258895,3,223786,-11,1770125316,734574566,4,235085,-100,1770125316,737922427,5,215107,108,1770125316,721244031,6,222374,158,0.6231471300125122,2.920154094696045,44.55513000488281,0.01813800446689129,-0.017524736002087593,-0.05761820077896118,39.1349983215332,45.40399932861328,47.54399871826172,57.128501892089844,42.09349822998047,54.49150085449219,1770125316,686975409,X6-tool2,0.9895981621708013,1.5731455623366526,45.44746335022453,0.011088252066648258,-0.028339213196254046,-0.07665647229264623,0.03663317486643791
2026-02-03 21:28:36.776883,1770125316,764588176,1,218831,-77,1770125316,767914738,2,226346,-45,1770125316,771259719,3,223748,-13,1770125316,774574410,4,234597,-120,1770125316,757897324,5,215228,69,1770125316,761240295,6,222913,138,0.5067619681358337,2.9414470195770264,44.5472412109375,0.030452106148004532,-0.0023205410689115524,-0.063812255859375,38.95899963378906,45.31050109863281,47.525001525878906,56.881500244140625,42.24449920654297,54.77149963378906,1770125316,686975409,X6-tool2,0.9895981621708013,1.5731455623366526,45.44746335022453,0.011088252066648258,-0.028339213196254046,-0.07665647229264623,0.03663317486643791
2026-02-03 21:28:36.812488,1770125316,804589451,1,218535,-73,1770125316,807909172,2,226192,-34,1770125316,811256283,3,223665,-19,1770125316,794577647,4,234349,-129,1770125316,797884168,5,215480,65,1770125316,801239389,6,223423,128,0.39387643337249756,2.956911563873291,44.53841018676758,0.035978466272354126,-0.0018810936016961932,-0.05105411633849144,38.79399871826172,45.22800064086914,47.48400115966797,56.63399887084961,42.37049865722656,55.032501220703125,1770125316,786254884,X6-tool2,0.6766074710864036,1.5585847090014513,45.33434460351036,0.012109837640369811,-0.028977043030727248,-0.07711655193393883,0.04006481170654297
2026-02-03 21:28:36.847786,1770125316,844589355,1,218238,-65,1770125316,827908949,2,226104,-48,1770125316,831259560,3,223616,-24,1770125316,834573621,4,233789,-163,1770125316,837923313,5,215717,61,1770125316,841240614,6,223923,120,0.2757807672023773,2.964574098587036,44.524940490722656,0.02981434389948845,-0.012586934491991997,-0.059921227395534515,38.65700149536133,45.14849853515625,47.445499420166016,56.354000091552734,42.48899841308594,55.27949905395508,1770125316,786254884,X6-tool2,0.6766074710864036,1.5585847090014513,45.33434460351036,0.012109837640369811,-0.028977043030727248,-0.07711655193393883,0.04006481170654297
2026-02-03 21:28:36.883664,1770125316,864591102,1,218084,-82,1770125316,867910533,2,225945,-33,1770125316,871221985,3,223495,-23,1770125316,874571006,4,233240,-137,1770125316,877903717,5,215969,68,1770125316,881238818,6,224445,142,0.15457461774349213,2.9748265743255615,44.513328552246094,0.025366153568029404,-0.009008858352899551,-0.05591396987438202,38.50299835205078,45.069000244140625,47.3849983215332,56.079498291015625,42.6150016784668,55.54600143432617,1770125316,786254884,X6-tool2,0.6766074710864036,1.5585847090014513,45.33434460351036,0.012109837640369811,-0.028977043030727248,-0.07711655193393883,0.04006481170654297
2026-02-03 21:28:36.919321,1770125316,904592766,1,217787,-63,1770125316,907908158,2,225786,-41,1770125316,911260429,3,223380,-30,1770125316,914573850,4,232641,-153,1770125316,917923861,5,216238,59,1770125316,901240525,6,224714,132,0.09445785731077194,2.9774718284606934,44.50593566894531,0.025366153568029404,-0.009008858352899551,-0.05591396987438202,38.4370002746582,45.03049850463867,47.35749816894531,55.936500549316406,42.680999755859375,55.669498443603516,1770125316,885668000,X6-tool2,0.5435300502944865,1.8236597265416503,45.45673471642786,0.01175893138451681,-0.028360170152457318,-0.0769394140113798,0.04051685333251953
2026-02-03 21:28:36.955344,1770125316,944563701,1,217518,-63,1770125316,947889342,2,225599,-34,1770125316,951257693,3,223237,-44,1770125316,954575914,4,232075,-124,1770125316,937901448,5,216359,59,1770125316,941241450,6,225214,110,-0.03344252333045006,2.9872629642486572,44.48779296875,0.02430322952568531,-0.008401194587349892,-0.0590616911649704,38.28049850463867,44.93450164794922,47.294498443603516,55.634498596191406,42.810001373291016,55.93349838256836,1770125316,885668000,X6-tool2,0.5435300502944865,1.8236597265416503,45.45673471642786,0.01175893138451681,-0.028360170152457318,-0.0769394140113798,0.04051685333251953
2026-02-03 21:28:36.990709,1770125316,984592605,1,217260,-57,1770125316,987910666,2,225505,-17,1770125316,971260470,3,223132,-49,1770125316,974576182,4,231828,-131,1770125316,977896123,5,216595,71,1770125316,981240354,6,225676,100,-0.14714552462100983,2.992814302444458,44.47502136230469,0.019478920847177505,0.006814287509769201,-0.045967478305101395,38.14849853515625,44.865501403808594,47.20349884033203,55.37350082397461,42.928001403808594,56.17499923706055,1770125316,985219265,X6-tool2,0.36697249508011853,1.9589618367578616,45.4576650781799,0.014661422888220916,-0.03087455777434136,-0.0768756915158631,0.04108269885182381
2026-02-03 21:28:37.026722,1770125317,24589759,1,217057,-49,1770125317,7910223,2,225467,-18,1770125317,11258185,3,222891,-58,1770125317,14576686,4,231262,-155,1770125317,17884237,5,216826,53,1770125317,21246438,6,226104,98,-0.26101306080818176,2.9820992946624756,44.462066650390625,0.020302243530750275,0.019322285428643227,-0.03845706582069397,38.03900146484375,44.83000183105469,47.08300018310547,55.09049987792969,43.04349899291992,56.388999938964844,1770125316,985219265,X6-tool2,0.36697249508011853,1.9589618367578616,45.4576650781799,0.014661422888220916,-0.03087455777434136,-0.0768756915158631,0.04108269885182381
2026-02-03 21:28:37.062284,1770125317,44589276,1,216958,-48,1770125317,47910768,2,225423,-8,1770125317,51250239,3,222709,-32,1770125317,54576050,4,230625,-167,1770125317,57907581,5,217013,49,1770125317,61240313,6,226538,108,-0.3224334418773651,2.9735567569732666,44.45473861694336,0.01230696588754654,0.01447451114654541,-0.03320904076099396,37.989498138427734,44.816001892089844,47.03049850463867,54.933998107910156,43.09049987792969,56.499000549316406,1770125316,985219265,X6-tool2,0.36697249508011853,1.9589618367578616,45.4576650781799,0.014661422888220916,-0.03087455777434136,-0.0768756915158631,0.04108269885182381
2026-02-03 21:28:37.097545,1770125317,84590021,1,216788,-43,1770125317,87910022,2,225401,-6,1770125317,91242733,3,222534,-51,1770125317,94576165,4,230043,-141,1770125317,77922819,5,217117,50,1770125317,81239870,6,226758,116,-0.4436745345592499,2.9527041912078857,44.44213104248047,0.012600656598806381,-0.00963292084634304,-0.030104782432317734,37.895999908447266,44.8025016784668,46.95100021362305,54.62649917602539,43.18899917602539,56.715999603271484,1770125317,84817721,X6-tool2,0.22570400414101122,1.946360810787847,45.491500980202204,0.015274862971520087,-0.03246886408351181,-0.07631387625477086,0.04863293841481209
2026-02-03 21:28:37.133701,1770125317,124583965,1,216661,-26,1770125317,127885956,2,225385,0,1770125317,131240918,3,222303,-56,1770125317,114575421,4,229741,-156,1770125317,117925323,5,217386,64,1770125317,121242574,6,227197,106,-0.5643779039382935,2.933544635772705,44.43120574951172,0.011702480725944042,-0.002217639936134219,-0.036692388355731964,37.819000244140625,44.791500091552734,46.846500396728516,54.33000183105469,43.32350158691406,56.94150161743164,1770125317,84817721,X6-tool2,0.22570400414101122,1.946360810787847,45.491500980202204,0.015274862971520087,-0.03246886408351181,-0.07631387625477086,0.04863293841481209
2026-02-03 21:28:37.169398,1770125317,164555479,1,216519,-38,1770125317,167917201,2,225385,0,1770125317,151260225,3,222204,-48,1770125317,154595576,4,229158,-137,1770125317,157895707,5,217645,86,1770125317,161259878,6,227609,115,-0.6795789003372192,2.910144805908203,44.41939163208008,0.010182082653045654,0.004070955328643322,-0.04938098415732384,37.75849914550781,44.78900146484375,46.739498138427734,54.03850173950195,43.452999114990234,57.144500732421875,1770125317,84817721,X6-tool2,0.22570400414101122,1.946360810787847,45.491500980202204,0.015274862971520087,-0.03246886408351181,-0.07631387625477086,0.04863293841481209
2026-02-03 21:28:37.205963,1770125317,204592264,1,216387,-43,1770125317,187913468,2,225390,0,1770125317,191258599,3,221984,-63,1770125317,194577620,4,228593,-145,1770125317,197897241,5,217892,59,1770125317,201221632,6,228005,87,-0.7951996326446533,2.8877573013305664,44.40974426269531,0.011475897394120693,0.009106326848268509,-0.04662055894732475,37.689998626708984,44.791500091552734,46.62950134277344,53.75600051879883,43.576499938964844,57.35850143432617,1770125317,184171086,X6-tool2,-0.15379032978162338,2.0508321615444376,45.353057611044974,0.016213172659953038,-0.036491984888279615,-0.07620790014097467,0.04389159008860588
2026-02-03 21:28:37.242209,1770125317,224560571,1,216304,-30,1770125317,227928902,2,225390,0,1770125317,231232793,3,221715,-70,1770125317,234584255,4,227939,-174,1770125317,237899066,5,218134,37,1770125317,241242177,6,228334,88,-0.8544170260429382,2.872243881225586,44.40106964111328,0.011475897394120693,0.009106326848268509,-0.04662055894732475,37.65449905395508,44.791500091552734,46.56100082397461,53.596500396728516,43.63399887084961,57.449501037597656,1770125317,184171086,X6-tool2,-0.15379032978162338,2.0508321615444376,45.353057611044974,0.016213172659953038,-0.036491984888279615,-0.07620790014097467,0.04389159008860588
2026-02-03 21:28:37.278160,1770125317,264588115,1,216216,-11,1770125317,267914747,2,225417,10,1770125317,271261598,3,221402,-102,1770125317,274574829,4,227318,-146,1770125317,257922223,5,218221,44,1770125317,261241904,6,228499,90,-0.9721951484680176,2.83601713180542,44.3813591003418,0.022782258689403534,0.002490015234798193,-0.05773986876010895,37.58549880981445,44.797000885009766,46.42900085449219,53.266998291015625,43.74100112915039,57.61399841308594,1770125317,184171086,X6-tool2,-0.15379032978162338,2.0508321615444376,45.353057611044974,0.016213172659953038,-0.036491984888279615,-0.07620790014097467,0.04389159008860588
2026-02-03 21:28:37.316153,1770125317,304561560,1,216156,-13,1770125317,307915651,2,225505,27,1770125317,311241102,3,221100,-70,1770125317,314572433,4,226741,-151,1770125317,297895037,5,218408,52,1770125317,301259428,6,228801,75,-1.0797252655029297,2.8005776405334473,44.367305755615234,0.010762499645352364,0.005915612913668156,-0.05254314839839935,37.55550003051758,44.819000244140625,46.266998291015625,52.97549819946289,43.83449935913086,57.77349853515625,1770125317,283795572,X6-tool2,-0.4644147595953002,1.9553349014001995,45.226327796180364,0.018631462640450208,-0.03849792958099961,-0.0769826764300697,0.04928652569651604
2026-02-03 21:28:37.351293,1770125317,344571854,1,216118,-7,1770125317,347912325,2,225582,19,1770125317,331237879,3,220913,-75,1770125317,334583070,4,226428,-158,1770125317,337894781,5,218606,38,1770125317,341244163,6,229103,79,-1.188039779663086,2.756139039993286,44.35395050048828,0.001917880610562861,0.010159316472709179,-0.050882190465927124,37.52799987792969,44.862998962402344,46.09400177001953,52.673500061035156,43.93349838256836,57.922000885009766,1770125317,283795572,X6-tool2,-0.4644147595953002,1.9553349014001995,45.226327796180364,0.018631462640450208,-0.03849792958099961,-0.0769826764300697,0.04928652569651604
2026-02-03 21:28:37.387550,1770125317,384584258,1,216096,0,1770125317,367910692,2,225670,44,1770125317,371242383,3,220578,-95,1770125317,374570945,4,225818,-154,1770125317,377888416,5,218787,50,1770125317,381237897,6,229411,73,-1.2997488975524902,2.7055625915527344,44.34438705444336,-0.004108974244445562,0.0002782266528811306,-0.03737479820847511,37.51150131225586,44.93149948120117,45.92649841308594,52.368499755859375,44.02399826049805,58.08100128173828,1770125317,383146278,X6-tool2,-0.6078099234108552,1.9548604189009342,45.229639177247854,0.018543185794417036,-0.04085605428292965,-0.07751279610874658,0.04721895977854729
2026-02-03 21:28:37.423468,1770125317,404576895,1,216090,0,1770125317,407902717,2,225829,43,1770125317,411242218,3,220193,-97,1770125317,414563779,4,225154,-183,1770125317,417913280,5,219023,63,1770125317,421216571,6,229702,70,-1.4154105186462402,2.645962715148926,44.331356048583984,-0.004108974244445562,0.0002782266528811306,-0.03737479820847511,37.50600051879883,45.01100158691406,45.73400115966797,52.0364990234375,44.141998291015625,58.2239990234375,1770125317,383146278,X6-tool2,-0.6078099234108552,1.9548604189009342,45.229639177247854,0.018543185794417036,-0.04085605428292965,-0.07751279610874658,0.04721895977854729
2026-02-03 21:28:37.458633,1770125317,444572950,1,216085,0,1770125317,447936291,2,226027,38,1770125317,451244132,3,219765,-102,1770125317,454595013,4,224517,-153,1770125317,457905974,5,219238,45,1770125317,441233618,6,229828,64,-1.4743572473526,2.610544443130493,44.32779312133789,0.002997828181833029,0.0011639456497505307,-0.031335119158029556,37.503501892089844,45.07149887084961,45.630001068115234,51.86899948120117,44.19449996948242,58.29800033569336,1770125317,383146278,X6-tool2,-0.6078099234108552,1.9548604189009342,45.229639177247854,0.018543185794417036,-0.04085605428292965,-0.07751279610874658,0.04721895977854729
2026-02-03 21:28:37.493999,1770125317,484573984,1,216085,0,1770125317,487906195,2,226236,50,1770125317,491246486,3,219413,-83,1770125317,474584340,4,224231,-141,1770125317,477903351,5,219331,48,1770125317,481245213,6,230059,61,-1.5766187906265259,2.554187297821045,44.3168830871582,0.0005228076479397714,0.011243283748626709,-0.028292547911405563,37.503501892089844,45.15399932861328,45.429500579833984,51.57500076293945,44.29600143432617,58.42150115966797,1770125317,482487923,X6-tool2,-0.977812924791605,1.84652024743659,45.19707115342803,0.019499990375054847,-0.041303825870508286,-0.07801032871731421,0.03825123980641365
2026-02-03 21:28:37.531416,1770125317,524577678,1,216090,0,1770125317,527907329,2,226439,40,1770125317,511239223,3,219210,-88,1770125317,514574105,4,223605,-157,1770125317,517903696,5,219512,42,1770125317,521244017,6,230246,43,-1.6795884370803833,2.4844436645507812,44.305809020996094,0.018261216580867767,-0.0002604454639367759,-0.014038467779755592,37.503501892089844,45.26649856567383,45.24250030517578,51.262001037597656,44.38650131225586,58.52349853515625,1770125317,482487923,X6-tool2,-0.977812924791605,1.84652024743659,45.19707115342803,0.019499990375054847,-0.041303825870508286,-0.07801032871731421,0.03825123980641365
2026-02-03 21:28:37.568167,1770125317,564575093,1,216107,1,1770125317,547906836,2,226533,51,1770125317,551236458,3,218793,-104,1770125317,554578979,4,222940,-152,1770125317,557884870,5,219705,46,1770125317,561242891,6,230400,45,-1.784739375114441,2.414436101913452,44.28804397583008,0.02551691047847271,-0.003093950916081667,-0.017640244215726852,37.50899887084961,45.362998962402344,45.034000396728516,50.929500579833984,44.483001708984375,58.611000061035156,1770125317,482487923,X6-tool2,-0.977812924791605,1.84652024743659,45.19707115342803,0.019499990375054847,-0.041303825870508286,-0.07801032871731421,0.03825123980641365
2026-02-03 21:28:37.604179,1770125317,584574550,1,216129,7,1770125317,587908281,2,226741,45,1770125317,591240422,3,218331,-118,1770125317,594575733,4,222330,-159,1770125317,597887714,5,219869,37,1770125317,601240226,6,230554,35,-1.8317978382110596,2.3800718784332275,44.28065872192383,0.03344937041401863,-0.005831738468259573,-0.015453568659722805,37.51449966430664,45.415000915527344,44.93199920654297,50.778499603271484,44.5265007019043,58.64699935913086,1770125317,582116919,X6-tool2,-1.1547165015512226,1.8609847939521926,45.17569401804515,0.021176203784390807,-0.04346131848985454,-0.07818591776316715,0.041049957275390625
2026-02-03 21:28:37.640521,1770125317,624574654,1,216189,8,1770125317,627910535,2,226972,57,1770125317,631244136,3,217859,-99,1770125317,634573778,4,221704,-167,1770125317,637908539,5,220023,42,1770125317,621219883,6,230609,29,-1.928585171699524,2.3087825775146484,44.266456604003906,0.02130831964313984,-0.002007396426051855,-0.0016982597298920155,37.544498443603516,45.52750015258789,44.685001373291016,50.47100067138672,44.60350036621094,58.7239990234375,1770125317,582116919,X6-tool2,-1.1547165015512226,1.8609847939521926,45.17569401804515,0.021176203784390807,-0.04346131848985454,-0.07818591776316715,0.041049957275390625
2026-02-03 21:28:37.676787,1770125317,664574348,1,216271,17,1770125317,667888099,2,227230,81,1770125317,671248571,3,217408,-107,1770125317,674583992,4,221193,-127,1770125317,657905446,5,220117,45,1770125317,661240227,6,230702,17,-2.0152194499969482,2.2379863262176514,44.25186538696289,0.020276514813303947,0.007189053110778332,-0.0003042100870516151,37.57749938964844,45.63999938964844,44.454498291015625,50.182498931884766,44.68899917602539,58.7760009765625,1770125317,582116919,X6-tool2,-1.1547165015512226,1.8609847939521926,45.17569401804515,0.021176203784390807,-0.04346131848985454,-0.07818591776316715,0.041049957275390625
2026-02-03 21:28:37.711951,1770125317,704582883,1,216365,31,1770125317,707903674,2,227554,65,1770125317,711264155,3,216936,-130,1770125317,694573519,4,220902,-155,1770125317,697928900,5,220309,35,1770125317,701242591,6,230762,9,-2.0953714847564697,2.157749652862549,44.24399948120117,0.04001004621386528,0.021489957347512245,0.01018739677965641,37.612998962402344,45.79399871826172,44.2234992980957,49.910499572753906,44.78499984741211,58.81700134277344,1770125317,681483024,X6-tool2,-1.4724084028939939,1.824154335662023,45.004494649787745,0.022864630920912055,-0.04670021349242898,-0.0775862044680466,0.03854433819651604
2026-02-03 21:28:37.747139,1770125317,744582697,1,216606,89,1770125317,727905681,2,227736,97,1770125317,731264702,3,216683,-114,1770125317,734572943,4,220237,-181,1770125317,737899124,5,220490,52,1770125317,741241426,6,230812,17,-2.1873080730438232,2.061594009399414,44.22862243652344,0.0374605692923069,0.010509563609957695,-0.004766988102346659,37.69300079345703,45.964500427246094,43.979000091552734,49.577999114990234,44.8754997253418,58.8390007019043,1770125317,681483024,X6-tool2,-1.4724084028939939,1.824154335662023,45.004494649787745,0.022864630920912055,-0.04670021349242898,-0.0775862044680466,0.03854433819651604
2026-02-03 21:28:37.783154,1770125317,764581014,1,216672,22,1770125317,767907685,2,228082,93,1770125317,771264927,3,216227,-100,1770125317,774572568,4,219650,-146,1770125317,777900709,5,220699,26,1770125317,781221320,6,230828,10,-2.229983329772949,2.0135271549224854,44.224422454833984,0.021676072850823402,0.0072121634148061275,-0.024043845012784004,37.763999938964844,46.06050109863281,43.86399841308594,49.426998138427734,44.93050003051758,58.85300064086914,1770125317,780978940,X6-tool2,-1.5371550661340472,1.7256354535536884,45.08255027014403,0.025104090892790375,-0.04837260598306106,-0.07729231485496865,0.0394490547478199
2026-02-03 21:28:37.818594,1770125317,804578188,1,216788,30,1770125317,807908920,2,228461,94,1770125317,811263411,3,215755,-121,1770125317,814573672,4,219078,-128,1770125317,817924683,5,220825,38,1770125317,801241547,6,230839,7,-2.305842876434326,1.9257911443710327,44.212345123291016,0.03061440773308277,0.003094257088378072,-0.02345779351890087,37.824501037597656,46.224998474121094,43.63600158691406,49.144500732421875,45.00749969482422,58.861000061035156,1770125317,780978940,X6-tool2,-1.5371550661340472,1.7256354535536884,45.08255027014403,0.025104090892790375,-0.04837260598306106,-0.07729231485496865,0.0394490547478199
2026-02-03 21:28:37.854076,1770125317,844580553,1,216914,32,1770125317,847907024,2,228823,100,1770125317,851261005,3,215189,-149,1770125317,834581819,4,218798,-148,1770125317,837925640,5,220897,37,1770125317,841239981,6,230839,0,-2.3820958137512207,1.8315247297286987,44.202213287353516,0.04078231006860733,0.001952084363438189,-0.006297202780842781,37.8849983215332,46.4119987487793,43.38050079345703,48.85850143432617,45.07899856567383,58.86650085449219,1770125317,780978940,X6-tool2,-1.5371550661340472,1.7256354535536884,45.08255027014403,0.025104090892790375,-0.04837260598306106,-0.07729231485496865,0.0394490547478199
2026-02-03 21:28:37.889615,1770125317,884588497,1,217084,36,1770125317,887914618,2,229213,97,1770125317,871260602,3,214904,-116,1770125317,874572723,4,218254,-138,1770125317,877898865,5,221056,46,1770125317,881291396,6,230834,0,-2.453455686569214,1.7370530366897583,44.19395446777344,0.03544221445918083,0.020690789446234703,0.01269958820194006,37.964500427246094,46.606998443603516,43.089500427246094,48.58649826049805,45.15850067138672,58.86650085449219,1770125317,880959916,X6-tool2,-1.8564498882453169,1.4477798930375858,44.96413247899905,0.02334339918361496,-0.05064884623638914,-0.07699830683359371,0.046560924500226974
2026-02-03 21:28:37.924594,1770125317,904594794,1,217167,42,1770125317,907912055,2,229395,91,1770125317,911245257,3,214415,-123,1770125317,914573048,4,217683,-156,1770125317,917930539,5,221182,24,1770125317,921258890,6,230806,-3,-2.4888296127319336,1.6898705959320068,44.18902587890625,0.03544221445918083,0.020690789446234703,0.01269958820194006,38.00299835205078,46.702999114990234,42.96549987792969,48.449501037597656,45.196998596191406,58.86399841308594,1770125317,880959916,X6-tool2,-1.8564498882453169,1.4477798930375858,44.96413247899905,0.02334339918361496,-0.05064884623638914,-0.07699830683359371,0.046560924500226974
2026-02-03 21:28:37.960581,1770125317,944587529,1,217359,31,1770125317,947913160,2,229757,98,1770125317,951261661,3,213898,-152,1770125317,954597812,4,217051,-122,1770125317,957928353,5,221298,27,1770125317,941290427,6,230779,-14,-2.567751884460449,1.5934141874313354,44.169960021972656,0.01824343204498291,-0.007031369023025036,0.008206226862967014,38.0994987487793,46.875999450683594,42.7239990234375,48.13650131225586,45.249000549316406,58.849998474121094,1770125317,880959916,X6-tool2,-1.8564498882453169,1.4477798930375858,44.96413247899905,0.02334339918361496,-0.05064884623638914,-0.07699830683359371,0.046560924500226974
2026-02-03 21:28:37.996613,1770125317,984609263,1,217584,64,1770125317,987913034,2,230213,126,1770125317,991266065,3,213327,-140,1770125317,994574066,4,216557,-114,1770125317,977933010,5,221358,31,1770125317,981261682,6,230680,-27,-2.6324734687805176,1.4905309677124023,44.15862274169922,0.017787063494324684,-0.0068075270392000675,0.023613115772604942,38.1870002746582,47.087501525878906,42.44649887084961,47.85900115966797,45.30950164794922,58.81449890136719,1770125317,980925782,X6-tool2,-2.0338058427784222,1.2342418135981295,44.96617980792357,0.023324848149887563,-0.05083662300761748,-0.07700948018557806,0.04575284197926521
2026-02-03 21:28:38.032041,1770125318,24594537,1,217793,46,1770125318,27912088,2,230680,124,1770125318,31261309,3,212800,-130,1770125318,14574623,4,216299,-132,1770125318,17930955,5,221479,34,1770125318,21237806,6,230587,-28,-2.6872427463531494,1.3845841884613037,44.152896881103516,0.002890881383791566,-0.0038412101566791534,0.03339776396751404,38.30799865722656,47.32400131225586,42.172000885009766,47.60900115966797,45.369998931884766,58.76750183105469,1770125317,980925782,X6-tool2,-2.0338058427784222,1.2342418135981295,44.96617980792357,0.023324848149887563,-0.05083662300761748,-0.07700948018557806,0.04575284197926521
2026-02-03 21:28:38.067227,1770125318,64592481,1,218051,77,1770125318,47927545,2,230933,122,1770125318,51261047,3,212514,-149,1770125318,54594388,4,215706,-167,1770125318,57926829,5,221605,25,1770125318,61260290,6,230466,-27,-2.751620054244995,1.269747018814087,44.139427185058594,0.0017673131078481674,-0.015013345517218113,0.03831031545996666,38.417999267578125,47.5629997253418,41.894500732421875,47.3125,45.43299865722656,58.709999084472656,1770125317,980925782,X6-tool2,-2.0338058427784222,1.2342418135981295,44.96617980792357,0.023324848149887563,-0.05083662300761748,-0.07700948018557806,0.04575284197926521
2026-02-03 21:28:38.103273,1770125318,84589548,1,218194,36,1770125318,87906160,2,231400,87,1770125318,91260661,3,211948,-129,1770125318,94571822,4,215228,-117,1770125318,97924033,5,221699,30,1770125318,101236485,6,230257,-59,-2.775669574737549,1.2195826768875122,44.13512420654297,-0.01986660249531269,-0.012747150845825672,0.04169750586152077,38.48649978637695,47.67250061035156,41.75149917602539,47.194000244140625,45.45249938964844,58.68000030517578,1770125318,81002177,X6-tool2,-2.2644353406147513,1.0657823183967814,44.797488575133364,0.023386158099444363,-0.054395134577022726,-0.0775304074218842,0.04043261334300041
2026-02-03 21:28:38.138662,1770125318,124590613,1,218419,54,1770125318,127905424,2,231833,109,1770125318,131259755,3,211470,-115,1770125318,134573986,4,214689,-143,1770125318,137901038,5,221814,21,1770125318,121236842,6,230092,-82,-2.8174421787261963,1.109721302986145,44.12133026123047,-0.024543151259422302,-0.011216036044061184,0.02416837401688099,38.612998962402344,47.9005012512207,41.493499755859375,46.94150161743164,45.515499114990234,58.57550048828125,1770125318,81002177,X6-tool2,-2.2644353406147513,1.0657823183967814,44.797488575133364,0.023386158099444363,-0.054395134577022726,-0.0775304074218842,0.04043261334300041
2026-02-03 21:28:38.173980,1770125318,164596007,1,218644,44,1770125318,167908048,2,232295,111,1770125318,171260350,3,210948,-141,1770125318,154568184,4,214404,-144,1770125318,157924765,5,221869,32,1770125318,161240966,6,229927,-47,-2.862264394760132,0.994519054889679,44.10118103027344,-0.01968606561422348,-0.029592575505375862,0.0019505367381498218,38.73099899291992,48.125999450683594,41.249000549316406,46.6614990234375,45.564998626708984,58.454498291015625,1770125318,81002177,X6-tool2,-2.2644353406147513,1.0657823183967814,44.797488575133364,0.023386158099444363,-0.054395134577022726,-0.0775304074218842,0.04043261334300041
2026-02-03 21:28:38.209550,1770125318,204592231,1,218842,51,1770125318,207910323,2,232795,138,1770125318,191259177,3,210674,-124,1770125318,194578138,4,213959,-96,1770125318,197920199,5,221984,21,1770125318,201243780,6,229686,-56,-2.8943467140197754,0.8858311176300049,44.09172821044922,-0.004510373808443546,-0.011421667411923409,0.018068557605147362,38.824501037597656,48.36750030517578,40.9744987487793,46.43899917602539,45.622501373291016,58.345001220703125,1770125318,181055173,X6-tool2,-2.289399985674069,0.857194878873897,44.84794688400564,0.022771766562276863,-0.056041225966831545,-0.07881896128239789,0.04069741442799568
2026-02-03 21:28:38.244470,1770125318,224568278,1,218979,82,1770125318,227907930,2,233042,118,1770125318,231260131,3,210130,-129,1770125318,234573942,4,213530,-103,1770125318,237923823,5,222083,23,1770125318,241240684,6,229400,-91,-2.9077818393707275,0.8315404057502747,44.08885192871094,-0.005632830783724785,-0.0020457429345697165,0.02632538415491581,38.88199996948242,48.49399948120117,40.83700180053711,46.33700180053711,45.647499084472656,58.290000915527344,1770125318,181055173,X6-tool2,-2.289399985674069,0.857194878873897,44.84794688400564,0.022771766562276863,-0.056041225966831545,-0.07881896128239789,0.04069741442799568
2026-02-03 21:28:38.281073,1770125318,264574533,1,219216,50,1770125318,267910014,2,233591,140,1770125318,271241925,3,209581,-149,1770125318,274570016,4,213030,-114,1770125318,277904208,5,222182,21,1770125318,261238812,6,229263,-67,-2.9341931343078613,0.7135563492774963,44.07621383666992,-0.012734930962324142,0.0022593142930418253,0.02300134114921093,39.013999938964844,48.75199890136719,40.564998626708984,46.104000091552734,45.696998596191406,58.14699935913086,1770125318,181055173,X6-tool2,-2.289399985674069,0.857194878873897,44.84794688400564,0.022771766562276863,-0.056041225966831545,-0.07881896128239789,0.04069741442799568
2026-02-03 21:28:38.317707,1770125318,304568677,1,219468,71,1770125318,307908628,2,234174,145,1770125318,311233880,3,209042,-137,1770125318,314570611,4,212525,-116,1770125318,297902675,5,222220,20,1770125318,301238366,6,228922,-102,-2.969529867172241,0.5776024460792542,44.06288146972656,0.020488237962126732,-0.007934271357953548,0.04025307670235634,39.124000549316406,49.05699920654297,40.28499984741211,45.832000732421875,45.740501403808594,58.00149917602539,1770125318,280884059,X6-tool2,-2.5253258943263117,0.6126082842410084,44.61485555644287,0.021477354154895874,-0.05842767998120309,-0.08016511598152896,0.039292335510253906
