TCliu030506/rrc_ws/src/x6_pkg/x6_control_python/record/record_20251223_165232.csv
timestamp,out_1_header.stamp.sec,out_1_header.stamp.nanosec,out_1_header.frame_id,out_1_val,out_1_speed,out_2_header.stamp.sec,out_2_header.stamp.nanosec,out_2_header.frame_id,out_2_val,out_2_speed,out_3_header.stamp.sec,out_3_header.stamp.nanosec,out_3_header.frame_id,out_3_val,out_3_speed,out_4_header.stamp.sec,out_4_header.stamp.nanosec,out_4_header.frame_id,out_4_val,out_4_speed,out_5_header.stamp.sec,out_5_header.stamp.nanosec,out_5_header.frame_id,out_5_val,out_5_speed,out_6_header.stamp.sec,out_6_header.stamp.nanosec,out_6_header.frame_id,out_6_val,out_6_speed,x6position_pose_rp[0],x6position_pose_rp[1],x6position_pose_rp[2],x6position_pose_rp[3],x6position_pose_rp[4],x6position_pose_rp[5],x6position_joints[0],x6position_joints[1],x6position_joints[2],x6position_joints[3],x6position_joints[4],x6position_joints[5],aimooe_coord_header.stamp.sec,aimooe_coord_header.stamp.nanosec,aimooe_coord_header.frame_id,aimooe_coord_position.x,aimooe_coord_position.y,aimooe_coord_position.z,aimooe_coord_orientation.x,aimooe_coord_orientation.y,aimooe_coord_orientation.z,aimooe_coord_mean_error
2025-12-23 16:52:11.761919,1766479931,757329664,1,158373,0,1766479931,754012779,2,141339,0,1766479931,750716305,3,148744,0,1766479931,747339238,4,165652,0,1766479931,743987561,5,182411,0,1766479931,760699231,6,163927,0,4.999029636383057,-0.0005570240318775177,45.001625061035156,-0.00030454553780145943,0.0024644341319799423,-0.006683961488306522,53.137001037597656,54.375999450683594,47.70500183105469,67.43299865722656,36.71799850463867,43.38399887084961,1766479931,674941328,X6-tool2,4.678120919614002,-0.6259923487666005,43.6777298250317,-0.003799029833468434,0.12083221189176349,-0.25969213322046314,0.051845550537109375
2025-12-23 16:52:11.798051,1766479931,797336103,1,158373,0,1766479931,793997267,2,141339,0,1766479931,790675662,3,148744,0,1766479931,787336206,4,165652,0,1766479931,783998280,5,182411,0,1766479931,780662964,6,163927,0,4.999029636383057,-0.0005570240318775177,45.001625061035156,-0.00030454553780145943,0.0024644341319799423,-0.006683961488306522,53.137001037597656,54.375999450683594,47.70500183105469,67.43299865722656,36.71799850463867,43.38399887084961,1766479931,774783333,X6-tool2,4.733146101831505,-0.6341675161171746,43.678083008943226,-0.003624641076585632,0.11987039210716524,-0.2596261139112396,0.05714480206370354
2025-12-23 16:52:11.834238,1766479931,817365958,1,158373,0,1766479931,814026332,2,141339,0,1766479931,830702851,3,148744,0,1766479931,827342235,4,165657,0,1766479931,823999358,5,182411,0,1766479931,820670363,6,163927,0,4.99906063079834,0.0010680453851819038,45.0010871887207,-0.00030454553780145943,0.0024644341319799423,-0.006683961488306522,53.137001037597656,54.37099838256836,47.70500183105469,67.43299865722656,36.71799850463867,43.38399887084961,1766479931,774783333,X6-tool2,4.733146101831505,-0.6341675161171746,43.678083008943226,-0.003624641076585632,0.11987039210716524,-0.2596261139112396,0.05714480206370354
2025-12-23 16:52:11.871286,1766479931,857389548,1,158373,0,1766479931,854050531,2,141339,0,1766479931,870670059,3,148744,0,1766479931,867348963,4,165657,0,1766479931,863998547,5,182411,0,1766479931,860700273,6,163927,0,4.99906063079834,0.0010680453851819038,45.0010871887207,-0.00030454553780145943,0.0024644341319799423,-0.006683961488306522,53.137001037597656,54.37099838256836,47.70500183105469,67.43299865722656,36.71799850463867,43.38399887084961,1766479931,774783333,X6-tool2,4.733146101831505,-0.6341675161171746,43.678083008943226,-0.003624641076585632,0.11987039210716524,-0.2596261139112396,0.05714480206370354
2025-12-23 16:52:11.907875,1766479931,897405037,1,158373,0,1766479931,894014379,2,141339,0,1766479931,890692603,3,148744,0,1766479931,907325141,4,165657,0,1766479931,903989355,5,182411,0,1766479931,900659800,6,163927,0,4.99906063079834,0.0010680453851819038,45.0010871887207,-0.00030454553780145943,0.0024644341319799423,-0.006683961488306522,53.137001037597656,54.37099838256836,47.70500183105469,67.43299865722656,36.71799850463867,43.38399887084961,1766479931,874690520,X6-tool2,4.705377293401481,-0.6677968639925357,43.700155084541684,-0.0037718717928704134,0.12043705968350231,-0.2598781240350384,0.05566565319895744
2025-12-23 16:52:11.944555,1766479931,937324102,1,158373,0,1766479931,934008417,2,141339,0,1766479931,930661151,3,148744,0,1766479931,927333055,4,165657,0,1766479931,943939421,5,182411,0,1766479931,940667988,6,163927,0,4.99906063079834,0.0010680453851819038,45.0010871887207,-0.00030454553780145943,0.0024644341319799423,-0.006683961488306522,53.137001037597656,54.37099838256836,47.70500183105469,67.43299865722656,36.71799850463867,43.38399887084961,1766479931,874690520,X6-tool2,4.705377293401481,-0.6677968639925357,43.700155084541684,-0.0037718717928704134,0.12043705968350231,-0.2598781240350384,0.05566565319895744
2025-12-23 16:52:11.980374,1766479931,977344291,1,158373,0,1766479931,974011645,2,141339,0,1766479931,970693220,3,148744,0,1766479931,967297422,4,165657,0,1766479931,963998518,5,182411,0,1766479931,960693723,6,163927,0,4.99906063079834,0.0010680453851819038,45.0010871887207,-0.00030454553780145943,0.0024644341319799423,-0.006683961488306522,53.137001037597656,54.37099838256836,47.70500183105469,67.43299865722656,36.71799850463867,43.38399887084961,1766479931,874690520,X6-tool2,4.705377293401481,-0.6677968639925357,43.700155084541684,-0.0037718717928704134,0.12043705968350231,-0.2598781240350384,0.05566565319895744
2025-12-23 16:52:12.016638,1766479931,997339205,1,158373,0,1766479932,14004583,2,141339,0,1766479932,10696778,3,148744,0,1766479932,7343342,4,165652,0,1766479932,3991156,5,182411,0,1766479932,670081,6,163927,0,4.999029636383057,-0.0005570240318775177,45.001625061035156,-0.00030454553780145943,0.0024644341319799423,-0.006683961488306522,53.137001037597656,54.375999450683594,47.70500183105469,67.43299865722656,36.71799850463867,43.38399887084961,1766479931,982601039,X6-tool2,4.656711281645298,-0.6760086140612162,43.64899840726664,-0.004300594811588174,0.12020299788659408,-0.2599286108468746,0.053023021668195724
2025-12-23 16:52:12.052712,1766479932,37338054,1,158373,0,1766479932,34002057,2,141339,0,1766479932,50689177,3,148744,0,1766479932,47331320,4,165652,0,1766479932,44005994,5,182411,0,1766479932,40659488,6,163927,0,4.999029636383057,-0.0005570240318775177,45.001625061035156,-0.00030454553780145943,0.0024644341319799423,-0.006683961488306522,53.137001037597656,54.375999450683594,47.70500183105469,67.43299865722656,36.71799850463867,43.38399887084961,1766479931,982601039,X6-tool2,4.656711281645298,-0.6760086140612162,43.64899840726664,-0.004300594811588174,0.12020299788659408,-0.2599286108468746,0.053023021668195724
2025-12-23 16:52:12.088669,1766479932,77362052,1,158379,0,1766479932,74035027,2,141339,0,1766479932,70666260,3,148744,0,1766479932,87345159,4,165652,0,1766479932,84028434,5,182411,0,1766479932,80701958,6,163927,0,4.999029636383057,-0.0005570240318775177,45.001625061035156,-0.00030454553780145943,0.0024644341319799423,-0.006683961488306522,53.137001037597656,54.375999450683594,47.70500183105469,67.43299865722656,36.71799850463867,43.38399887084961,1766479932,82228836,X6-tool2,4.710698074316996,-0.7093698572167952,43.679816029851075,-0.004540338175472306,0.11999281345143936,-0.25976059433491466,0.05564053729176521
2025-12-23 16:52:12.125567,1766479932,117324539,1,158379,0,1766479932,114004774,2,141339,0,1766479932,110750041,3,148744,0,1766479932,107327292,4,165652,0,1766479932,123999281,5,182411,0,1766479932,120669416,6,163927,0,4.999029636383057,-0.0005570240318775177,45.001625061035156,-0.000578628561925143,-0.001978039275854826,0.0006235066102817655,53.137001037597656,54.375999450683594,47.70500183105469,67.43299865722656,36.71200180053711,43.38399887084961,1766479932,82228836,X6-tool2,4.710698074316996,-0.7093698572167952,43.679816029851075,-0.004540338175472306,0.11999281345143936,-0.25976059433491466,0.05564053729176521
2025-12-23 16:52:12.161469,1766479932,157375070,1,158379,0,1766479932,154010293,2,141339,0,1766479932,150663836,3,148744,0,1766479932,147382533,4,165652,0,1766479932,143987675,5,182411,0,1766479932,160699385,6,163927,0,4.999029636383057,-0.0005570240318775177,45.001625061035156,-0.000578628561925143,-0.001978039275854826,0.0006235066102817655,53.137001037597656,54.375999450683594,47.70500183105469,67.43299865722656,36.71200180053711,43.38399887084961,1766479932,82228836,X6-tool2,4.710698074316996,-0.7093698572167952,43.679816029851075,-0.004540338175472306,0.11999281345143936,-0.25976059433491466,0.05564053729176521
2025-12-23 16:52:12.197016,1766479932,177330162,1,158379,0,1766479932,193996661,2,141339,0,1766479932,190679705,3,148744,0,1766479932,187335599,4,165652,0,1766479932,184002813,5,182411,0,1766479932,180680088,6,163927,0,4.999029636383057,-0.0005570240318775177,45.001625061035156,-0.000578628561925143,-0.001978039275854826,0.0006235066102817655,53.137001037597656,54.375999450683594,47.70500183105469,67.43299865722656,36.71200180053711,43.38399887084961,1766479932,181781970,X6-tool2,4.688037937983904,-0.6844613131338184,43.640470640507424,-0.003620784183636941,0.11954056618535792,-0.25993080837210786,0.05793030932545662
2025-12-23 16:52:12.233447,1766479932,217363722,1,158379,0,1766479932,213990464,2,141339,0,1766479932,230762667,3,148744,0,1766479932,227329567,4,165652,0,1766479932,224013482,5,182411,0,1766479932,220680347,6,163927,0,4.999029636383057,-0.0005570240318775177,45.001625061035156,-0.000578628561925143,-0.001978039275854826,0.0006235066102817655,53.137001037597656,54.375999450683594,47.70500183105469,67.43299865722656,36.71200180053711,43.38399887084961,1766479932,181781970,X6-tool2,4.688037937983904,-0.6844613131338184,43.640470640507424,-0.003620784183636941,0.11954056618535792,-0.25993080837210786,0.05793030932545662
2025-12-23 16:52:12.269780,1766479932,257340369,1,158379,0,1766479932,253990803,2,141339,0,1766479932,250778412,3,148744,0,1766479932,267342666,4,165652,0,1766479932,264004381,5,182411,0,1766479932,260678615,6,163927,0,4.999029636383057,-0.0005570240318775177,45.001625061035156,-0.000578628561925143,-0.001978039275854826,0.0006235066102817655,53.137001037597656,54.375999450683594,47.70500183105469,67.43299865722656,36.71200180053711,43.38399887084961,1766479932,181781970,X6-tool2,4.688037937983904,-0.6844613131338184,43.640470640507424,-0.003620784183636941,0.11954056618535792,-0.25993080837210786,0.05793030932545662
2025-12-23 16:52:12.307886,1766479932,297326927,1,158379,0,1766479932,294004442,2,141339,0,1766479932,290658415,3,148744,0,1766479932,307345704,4,165652,0,1766479932,303989208,5,182411,0,1766479932,300695274,6,163927,0,4.999029636383057,-0.0005570240318775177,45.001625061035156,-0.000578628561925143,-0.001978039275854826,0.0006235066102817655,53.137001037597656,54.375999450683594,47.70500183105469,67.43299865722656,36.71200180053711,43.38399887084961,1766479932,281489460,X6-tool2,4.650261871231565,-0.653980169942864,43.66298349147097,-0.003830659786470732,0.12058103329531515,-0.2600613683195735,0.05707867816090584
2025-12-23 16:52:12.344228,1766479932,337319035,1,158379,0,1766479932,333999600,2,141339,0,1766479932,330655654,3,148744,0,1766479932,327314028,4,165652,0,1766479932,323997793,5,182411,0,1766479932,340665051,6,163927,0,4.999029636383057,-0.0005570240318775177,45.001625061035156,-0.000578628561925143,-0.001978039275854826,0.0006235066102817655,53.137001037597656,54.375999450683594,47.70500183105469,67.43299865722656,36.71200180053711,43.38399887084961,1766479932,281489460,X6-tool2,4.650261871231565,-0.653980169942864,43.66298349147097,-0.003830659786470732,0.12058103329531515,-0.2600613683195735,0.05707867816090584
2025-12-23 16:52:12.380325,1766479932,377324613,1,158379,0,1766479932,373996958,2,141339,0,1766479932,370654602,3,148744,0,1766479932,367334766,4,165652,0,1766479932,363983740,5,182411,0,1766479932,360670346,6,163927,0,4.999029636383057,-0.0005570240318775177,45.001625061035156,-0.000578628561925143,-0.001978039275854826,0.0006235066102817655,53.137001037597656,54.375999450683594,47.70500183105469,67.43299865722656,36.71200180053711,43.38399887084961,1766479932,281489460,X6-tool2,4.650261871231565,-0.653980169942864,43.66298349147097,-0.003830659786470732,0.12058103329531515,-0.2600613683195735,0.05707867816090584
2025-12-23 16:52:12.417310,1766479932,397332318,1,158379,0,1766479932,413997826,2,141339,0,1766479932,410679531,3,148744,0,1766479932,407316604,4,165652,0,1766479932,403984288,5,182411,0,1766479932,400650283,6,163927,0,4.999029636383057,-0.0005570240318775177,45.001625061035156,-0.000578628561925143,-0.001978039275854826,0.0006235066102817655,53.137001037597656,54.375999450683594,47.70500183105469,67.43299865722656,36.71200180053711,43.38399887084961,1766479932,381483240,X6-tool2,4.675352171802926,-0.6653135632394189,43.643478671290666,-0.003721739673657341,0.11999182429627368,-0.25996937149310884,0.05178769305348396
2025-12-23 16:52:12.453690,1766479932,437370458,1,158379,0,1766479932,434707667,2,141339,0,1766479932,450656299,3,148744,0,1766479932,447333713,4,165652,0,1766479932,444036099,5,182411,0,1766479932,440681522,6,163927,0,4.999029636383057,-0.0005570240318775177,45.001625061035156,-0.000578628561925143,-0.001978039275854826,0.0006235066102817655,53.137001037597656,54.375999450683594,47.70500183105469,67.43299865722656,36.71200180053711,43.38399887084961,1766479932,381483240,X6-tool2,4.675352171802926,-0.6653135632394189,43.643478671290666,-0.003721739673657341,0.11999182429627368,-0.25996937149310884,0.05178769305348396
2025-12-23 16:52:12.489862,1766479932,477362376,1,158379,0,1766479932,474035730,2,141339,0,1766479932,470699954,3,148744,0,1766479932,487331562,4,165657,0,1766479932,483991956,5,182411,0,1766479932,480691521,6,163927,0,4.999029636383057,-0.0005570240318775177,45.001625061035156,-0.000578628561925143,-0.001978039275854826,0.0006235066102817655,53.137001037597656,54.375999450683594,47.70500183105469,67.43299865722656,36.71200180053711,43.38399887084961,1766479932,480198033,X6-tool2,4.661370584283561,-0.7101915601552371,43.6032145167842,-0.004078746208175907,0.11909384131655024,-0.2599943559425328,0.05324109271168709
2025-12-23 16:52:12.525897,1766479932,517321882,1,158373,0,1766479932,514021398,2,141262,-58,1766479932,510656941,3,148683,-20,1766479932,507353617,4,165822,84,1766479932,523996454,5,182626,49,1766479932,520670919,6,163823,-22,4.988197326660156,0.06306305527687073,44.99264144897461,-0.024752086028456688,0.007402933668345213,0.013897630386054516,53.03200149536133,54.20600128173828,47.70500183105469,67.43299865722656,36.71200180053711,43.43899917602539,1766479932,480198033,X6-tool2,4.661370584283561,-0.7101915601552371,43.6032145167842,-0.004078746208175907,0.11909384131655024,-0.2599943559425328,0.05324109271168709
2025-12-23 16:52:12.561846,1766479932,557344512,1,158351,-10,1766479932,553998206,2,141108,-42,1766479932,550684741,3,148552,-29,1766479932,547344525,4,166218,107,1766479932,544000868,5,182736,54,1766479932,560667147,6,163696,-36,4.99208402633667,0.22340521216392517,44.97589111328125,-0.037313032895326614,0.0013061993522569537,0.016135824844241142,52.8120002746582,53.810001373291016,47.82600021362305,67.58699798583984,36.71799850463867,43.542999267578125,1766479932,480198033,X6-tool2,4.661370584283561,-0.7101915601552371,43.6032145167842,-0.004078746208175907,0.11909384131655024,-0.2599943559425328,0.05324109271168709
2025-12-23 16:52:12.596904,1766479932,577359146,1,158329,-14,1766479932,594030705,2,140977,-26,1766479932,590693949,3,148414,-32,1766479932,587361234,4,166674,118,1766479932,583999747,5,183093,98,1766479932,580670761,6,163608,-46,4.983764171600342,0.41158589720726013,44.96031188964844,-0.028221677988767624,-0.003798179794102907,0.026759663596749306,52.45500183105469,53.354000091552734,47.96900177001953,67.73500061035156,36.762001037597656,43.702999114990234,1766479932,579595871,X6-tool2,4.709462227184087,-0.6689127433030868,43.66801276742085,-0.0041951617045047134,0.11940112929757585,-0.2602839257869412,0.057216960936784744
2025-12-23 16:52:12.633009,1766479932,617902735,1,158253,-23,1766479932,614025909,2,140933,-14,1766479932,630684017,3,148260,-43,1766479932,627331611,4,167184,132,1766479932,623985935,5,183543,116,1766479932,620696251,6,163422,-47,4.976268291473389,0.5133028626441956,44.94957733154297,-0.022261900827288628,0.0017931467154994607,0.03291167691349983,52.24100112915039,53.10200119018555,48.03499984741211,67.79499816894531,36.79399871826172,43.790000915527344,1766479932,579595871,X6-tool2,4.709462227184087,-0.6689127433030868,43.66801276742085,-0.0041951617045047134,0.11940112929757585,-0.2602839257869412,0.057216960936784744
2025-12-23 16:52:12.668169,1766479932,657335473,1,158187,-11,1766479932,654024917,2,140889,-4,1766479932,650659801,3,148195,-35,1766479932,667331309,4,167723,118,1766479932,663993333,5,183922,86,1766479932,660665808,6,163229,-51,4.949325084686279,0.7237489223480225,44.923431396484375,-0.02588769420981407,-0.0013064187951385975,0.016471831128001213,51.81800079345703,52.569000244140625,48.18899917602539,67.86100006103516,36.87099838256836,43.983001708984375,1766479932,579595871,X6-tool2,4.709462227184087,-0.6689127433030868,43.66801276742085,-0.0041951617045047134,0.11940112929757585,-0.2602839257869412,0.057216960936784744
2025-12-23 16:52:12.703544,1766479932,697351951,1,158110,-24,1766479932,694004525,2,140850,0,1766479932,690685910,3,148052,-37,1766479932,687332224,4,167975,130,1766479932,683996128,5,184142,120,1766479932,700657596,6,163004,-59,4.916953086853027,0.9293519854545593,44.898895263671875,-0.03983622044324875,-0.0025770796928554773,0.013192889280617237,51.40599822998047,52.053001403808594,48.32600021362305,67.91100311279297,36.94300079345703,44.191001892089844,1766479932,678982498,X6-tool2,4.752484297254487,-0.6200083973889879,43.657963879843244,-0.004327731742201644,0.11845871968114143,-0.26158469829340314,0.06079928204417229
2025-12-23 16:52:12.739121,1766479932,737357310,1,157956,-47,1766479932,734011513,2,140817,-22,1766479932,730663087,3,147892,-46,1766479932,727518358,4,168415,115,1766479932,724023587,5,184592,134,1766479932,720697312,6,162889,-54,4.875880718231201,1.1108801364898682,44.884212493896484,-0.02737068198621273,-0.02015368454158306,0.017681704834103584,50.95600128173828,51.612998962402344,48.4739990234375,67.93800354003906,37.047000885009766,44.422000885009766,1766479932,678982498,X6-tool2,4.752484297254487,-0.6200083973889879,43.657963879843244,-0.004327731742201644,0.11845871968114143,-0.26158469829340314,0.06079928204417229
2025-12-23 16:52:12.774215,1766479932,757352894,1,157857,-46,1766479932,754009788,2,140823,0,1766479932,770664066,3,147739,-37,1766479932,767331080,4,168904,129,1766479932,764022645,5,185109,123,1766479932,760667989,6,162631,-72,4.853880882263184,1.2145355939865112,44.87421417236328,-0.007192499004304409,-0.003555512288585305,0.0077166445553302765,50.680999755859375,51.36000061035156,48.55699920654297,67.95500183105469,37.1349983215332,44.54899978637695,1766479932,678982498,X6-tool2,4.752484297254487,-0.6200083973889879,43.657963879843244,-0.004327731742201644,0.11845871968114143,-0.26158469829340314,0.06079928204417229
2025-12-23 16:52:12.810431,1766479932,797328861,1,157714,-30,1766479932,793995495,2,140817,-2,1766479932,790725382,3,147673,-27,1766479932,807326118,4,169376,129,1766479932,804020243,5,185554,111,1766479932,800691988,6,162356,-76,4.800283432006836,1.4066740274429321,44.8577995300293,0.002664788393303752,0.023031003773212433,-0.021652963012456894,50.220001220703125,50.893001556396484,48.709999084472656,67.9489974975586,37.31100082397461,44.81800079345703,1766479932,778596015,X6-tool2,4.750246330221381,-0.5897164927975029,43.630532172138956,-0.004279361843493839,0.11720948570928541,-0.26259414895408995,0.059790611267089844
2025-12-23 16:52:12.846335,1766479932,837352200,1,157593,-25,1766479932,834011964,2,140845,9,1766479932,830658218,3,147563,-24,1766479932,827347663,4,169596,119,1766479932,843993901,5,186021,124,1766479932,840697476,6,162048,-74,4.745687484741211,1.598761796951294,44.842376708984375,-0.009094164706766605,0.030483925715088844,-0.001666172523982823,49.76900100708008,50.43199920654297,48.83100128173828,67.9489974975586,37.4370002746582,45.097999572753906,1766479932,778596015,X6-tool2,4.750246330221381,-0.5897164927975029,43.630532172138956,-0.004279361843493839,0.11720948570928541,-0.26259414895408995,0.059790611267089844
2025-12-23 16:52:12.882157,1766479932,877356489,1,157478,-34,1766479932,874012593,2,140883,9,1766479932,870685947,3,147431,-32,1766479932,867358752,4,170107,131,1766479932,863997795,5,186290,135,1766479932,880663834,6,161730,-86,4.678572177886963,1.808671474456787,44.82246780395508,-0.03424612805247307,0.0240495465695858,0.03990695998072624,49.257999420166016,49.92100143432617,48.946998596191406,67.91600036621094,37.553001403808594,45.41600036621094,1766479932,877943701,X6-tool2,4.764360277407518,-0.5467943529104213,43.64851341885561,-0.005769210495768945,0.11417934484379225,-0.26346406793782623,0.06008116528391838
2025-12-23 16:52:12.917291,1766479932,897354363,1,157396,-42,1766479932,914012191,2,140938,10,1766479932,910689696,3,147305,-33,1766479932,907340929,4,170579,113,1766479932,903994413,5,186801,133,1766479932,900664288,6,161570,-72,4.606378078460693,2.003622055053711,44.80542755126953,-0.04516811668872833,0.019178517162799835,0.06478242576122284,48.74700164794922,49.44900131225586,49.077999114990234,67.86100006103516,37.69499969482422,45.74100112915039,1766479932,877943701,X6-tool2,4.764360277407518,-0.5467943529104213,43.64851341885561,-0.005769210495768945,0.11417934484379225,-0.26346406793782623,0.06008116528391838
2025-12-23 16:52:12.953196,1766479932,937358341,1,157236,-33,1766479932,934011105,2,140982,19,1766479932,950689674,3,147189,-23,1766479932,947329757,4,170964,96,1766479932,944019733,5,187322,119,1766479932,940678057,6,161268,-78,4.572108268737793,2.0870604515075684,44.79995346069336,-0.034336723387241364,0.019456304609775543,0.07564284652471542,48.48899841308594,49.250999450683594,49.14400100708008,67.83399963378906,37.77199935913086,45.89400100708008,1766479932,877943701,X6-tool2,4.764360277407518,-0.5467943529104213,43.64851341885561,-0.005769210495768945,0.11417934484379225,-0.26346406793782623,0.06008116528391838
2025-12-23 16:52:12.988909,1766479932,977332209,1,157072,-35,1766479932,974011963,2,141053,27,1766479932,970665037,3,147140,-26,1766479932,987345786,4,171381,112,1766479932,984000220,5,187894,141,1766479932,980667615,6,160933,-75,4.498033046722412,2.2542498111724854,44.78996658325195,-0.009103252552449703,0.031348757445812225,0.10905526578426361,47.94499969482422,48.85599899291992,49.2599983215332,67.76799774169922,37.9370002746582,46.21799850463867,1766479932,977509735,X6-tool2,4.663180156433046,-0.25956376442179707,43.62768212439213,-0.006746123566395183,0.11134101695735442,-0.2650100075191405,0.07041104882955551
2025-12-23 16:52:13.024543,1766479933,17353078,1,156901,-38,1766479933,14018152,2,141240,36,1766479933,10679796,3,147014,-30,1766479933,7371561,4,171601,97,1766479933,23983808,5,188454,133,1766479933,20677923,6,160598,-87,4.409364700317383,2.4189865589141846,44.766563415527344,0.02063470520079136,0.04140709713101387,0.11175114661455154,47.340999603271484,48.426998138427734,49.375,67.60299682617188,38.112998962402344,46.53200149536133,1766479932,977509735,X6-tool2,4.663180156433046,-0.25956376442179707,43.62768212439213,-0.006746123566395183,0.11134101695735442,-0.2650100075191405,0.07041104882955551
2025-12-23 16:52:13.059830,1766479933,57321555,1,156714,-48,1766479933,53987209,2,141427,37,1766479933,50673574,3,146871,-31,1766479933,47325638,4,172101,126,1766479933,43984032,5,188701,111,1766479933,40655517,6,160417,-97,4.309496879577637,2.6111598014831543,44.73738479614258,-0.025164075195789337,0.03209898993372917,0.10466363281011581,46.84700012207031,47.926998138427734,49.50699996948242,67.427001953125,38.27799987792969,46.89400100708008,1766479932,977509735,X6-tool2,4.663180156433046,-0.25956376442179707,43.62768212439213,-0.006746123566395183,0.11134101695735442,-0.2650100075191405,0.07041104882955551
2025-12-23 16:52:13.095726,1766479933,77323339,1,156632,-43,1766479933,93993948,2,141564,42,1766479933,90659822,3,146733,-32,1766479933,87329166,4,172551,98,1766479933,83990981,5,189250,141,1766479933,80650185,6,160038,-101,4.212648391723633,2.7926502227783203,44.71783447265625,-0.03052341379225254,0.03281079977750778,0.1244102343916893,46.29800033569336,47.47700119018555,49.64400100708008,67.29000091552734,38.45899963378906,47.27299880981445,1766479933,76768278,X6-tool2,4.670579850391014,0.000687288810815787,43.61576487619475,-0.013505160003551144,0.10337071092069054,-0.26581731854425206,0.06539217382669449
2025-12-23 16:52:13.130806,1766479933,117319758,1,156401,-69,1766479933,114023023,2,141641,39,1766479933,110656846,3,146662,-56,1766479933,127350976,4,172985,113,1766479933,123988029,5,189860,151,1766479933,120692125,6,159609,-129,4.1590447425842285,2.87982177734375,44.709896087646484,-0.026996025815606117,0.03594854474067688,0.13056431710720062,46.012001037597656,47.262001037597656,49.715999603271484,67.20800018310547,38.5629997253418,47.47600173950195,1766479933,76768278,X6-tool2,4.670579850391014,0.000687288810815787,43.61576487619475,-0.013505160003551144,0.10337071092069054,-0.26581731854425206,0.06539217382669449
2025-12-23 16:52:13.167515,1766479933,157328786,1,156187,-57,1766479933,153992420,2,141866,59,1766479933,150657765,3,146497,-36,1766479933,147334710,4,173199,102,1766479933,163997278,5,190388,123,1766479933,160692733,6,159192,-110,4.045050144195557,3.056941509246826,44.6954231262207,-0.012314358726143837,0.04952084645628929,0.13308419287204742,45.42399978637695,46.82899856567383,49.880001068115234,67.03700256347656,38.79899978637695,47.90999984741211,1766479933,76768278,X6-tool2,4.670579850391014,0.000687288810815787,43.61576487619475,-0.013505160003551144,0.10337071092069054,-0.26581731854425206,0.06539217382669449
2025-12-23 16:52:13.203170,1766479933,197336465,1,155978,-63,1766479933,194065431,2,142218,108,1766479933,190670133,3,146316,-41,1766479933,187330817,4,173584,88,1766479933,183992561,5,190673,156,1766479933,200694831,6,158763,-106,3.9126498699188232,3.201916456222534,44.67845916748047,-0.009740859270095825,0.027824971824884415,0.10936605930328369,44.875,46.444000244140625,50.040000915527344,66.75700378417969,39.013999938964844,48.33300018310547,1766479933,176504169,X6-tool2,4.4532738638365394,0.6936035729559497,43.59606238483443,-0.021014270447281182,0.09785939320933508,-0.2669244383220159,0.060349781066179276
2025-12-23 16:52:13.239102,1766479933,237315182,1,155737,-65,1766479933,234018468,2,142449,55,1766479933,230671332,3,146184,-32,1766479933,227351926,4,173930,84,1766479933,224009330,5,191223,126,1766479933,220689615,6,158549,-98,3.774043560028076,3.3305351734161377,44.665096282958984,0.004600762389600277,-0.00012260420771781355,0.08863979578018188,44.32500076293945,46.097999572753906,50.19900131225586,66.45500183105469,39.22800064086914,48.762001037597656,1766479933,176504169,X6-tool2,4.4532738638365394,0.6936035729559497,43.59606238483443,-0.021014270447281182,0.09785939320933508,-0.2669244383220159,0.060349781066179276
2025-12-23 16:52:13.274310,1766479933,257318786,1,155616,-62,1766479933,253994551,2,142608,87,1766479933,270653680,3,146047,-38,1766479933,267356205,4,174326,105,1766479933,263995748,5,191750,129,1766479933,260691494,6,158115,-125,3.7106738090515137,3.4049065113067627,44.65254211425781,0.008546369150280952,0.018117863684892654,0.06932728737592697,44.055999755859375,45.89500045776367,50.26499938964844,66.322998046875,39.354000091552734,48.96500015258789,1766479933,176504169,X6-tool2,4.4532738638365394,0.6936035729559497,43.59606238483443,-0.021014270447281182,0.09785939320933508,-0.2669244383220159,0.060349781066179276
2025-12-23 16:52:13.310535,1766479933,297316705,1,155374,-60,1766479933,293984759,2,142883,76,1766479933,290675974,3,145964,-39,1766479933,307319672,4,174787,127,1766479933,304003517,5,192371,163,1766479933,300655351,6,157670,-122,3.572000026702881,3.5596799850463867,44.62877655029297,0.0024242629297077656,0.03593802824616432,0.05073089152574539,43.50699996948242,45.47700119018555,50.402000427246094,66.04299926757812,39.59600067138672,49.415000915527344,1766479933,275808464,X6-tool2,4.2834128258866375,1.1128088086455326,43.58246973275419,-0.03084317147912433,0.09326767525681863,-0.2665874751365895,0.07184632867574692
2025-12-23 16:52:13.346391,1766479933,337311533,1,155160,-51,1766479933,333982177,2,143179,59,1766479933,330674483,3,145833,-28,1766479933,327319486,4,174996,109,1766479933,343978505,5,192914,119,1766479933,340648199,6,157198,-105,3.421186923980713,3.714708089828491,44.595890045166016,0.0040066842921078205,0.0380791574716568,0.02796769328415394,42.90299987792969,45.03200149536133,50.55099868774414,65.70800018310547,39.832000732421875,49.87099838256836,1766479933,275808464,X6-tool2,4.2834128258866375,1.1128088086455326,43.58246973275419,-0.03084317147912433,0.09326767525681863,-0.2665874751365895,0.07184632867574692
2025-12-23 16:52:13.382313,1766479933,377313291,1,154924,-70,1766479933,373982406,2,143553,84,1766479933,370660131,3,145728,-24,1766479933,367327725,4,175347,84,1766479933,363991969,5,193167,134,1766479933,380650107,6,156687,-117,3.272279739379883,3.8509774208068848,44.58503723144531,-0.008908090181648731,0.026012936607003212,0.06578946858644485,42.38100051879883,44.680999755859375,50.67100143432617,65.43299865722656,40.03499984741211,50.37099838256836,1766479933,375282495,X6-tool2,4.138504426888305,1.6103586387590734,43.64968271605605,-0.04185002708090434,0.08878986493456374,-0.2654983932882581,0.059777576476335526
2025-12-23 16:52:13.417918,1766479933,417333710,1,154693,-57,1766479933,413986644,2,143910,122,1766479933,410670279,3,145613,-30,1766479933,407317833,4,175682,87,1766479933,403984417,5,193683,139,1766479933,400655962,6,156440,-126,3.103105068206787,3.967026710510254,44.56882095336914,-0.010464956983923912,0.04227183386683464,0.04230659827589989,41.8650016784668,44.34600067138672,50.78099822998047,65.05999755859375,40.29399871826172,50.87099838256836,1766479933,375282495,X6-tool2,4.138504426888305,1.6103586387590734,43.64968271605605,-0.04185002708090434,0.08878986493456374,-0.2654983932882581,0.059777576476335526
2025-12-23 16:52:13.453238,1766479933,437337645,1,154600,-38,1766479933,433983948,2,144064,82,1766479933,450656497,3,145481,-41,1766479933,447316051,4,176023,86,1766479933,443983635,5,194194,122,1766479933,440653480,6,155978,-116,3.0185980796813965,4.02214241027832,44.55690383911133,-0.01765032485127449,0.03243909031152725,0.03618696704506874,41.61199951171875,44.17499923706055,50.83599853515625,64.86199951171875,40.39799880981445,51.106998443603516,1766479933,375282495,X6-tool2,4.138504426888305,1.6103586387590734,43.64968271605605,-0.04185002708090434,0.08878986493456374,-0.2654983932882581,0.059777576476335526
2025-12-23 16:52:13.489024,1766479933,477353094,1,154369,-47,1766479933,473987077,2,144404,76,1766479933,470663262,3,145421,-33,1766479933,487318899,4,176358,78,1766479933,484022125,5,194722,140,1766479933,480663268,6,155473,-120,2.8636715412139893,4.140000820159912,44.5380859375,-0.011192028410732746,0.02281876467168331,0.047738462686538696,41.095001220703125,43.84000015258789,50.96799850463867,64.54299926757812,40.606998443603516,51.584999084472656,1766479933,474940123,X6-tool2,3.8298378892829463,2.1950903646483733,43.54955567484987,-0.04502937714230486,0.08355946219582401,-0.2634142162020493,0.07741133123636246
2025-12-23 16:52:13.524608,1766479933,517377503,1,154160,-61,1766479933,514005485,2,144706,79,1766479933,510688481,3,145311,-23,1766479933,507315264,4,176523,87,1766479933,523992082,5,195266,120,1766479933,520665827,6,154968,-115,2.69873046875,4.2591328620910645,44.52115249633789,0.009919676929712296,0.025414519011974335,0.08427298069000244,40.529998779296875,43.505001068115234,51.08300018310547,64.21399688720703,40.82600021362305,52.10200119018555,1766479933,474940123,X6-tool2,3.8298378892829463,2.1950903646483733,43.54955567484987,-0.04502937714230486,0.08355946219582401,-0.2634142162020493,0.07741133123636246
2025-12-23 16:52:13.559876,1766479933,557321459,1,153946,-52,1766479933,553981563,2,145107,112,1766479933,550658368,3,145201,-25,1766479933,547319582,4,176814,68,1766479933,544007057,5,195502,116,1766479933,540682562,6,154709,-132,2.5359814167022705,4.360522747039795,44.507659912109375,0.01715511456131935,0.01897348277270794,0.11165338009595871,40.04600143432617,43.2140007019043,51.19300079345703,63.88399887084961,41.029998779296875,52.60200119018555,1766479933,474940123,X6-tool2,3.8298378892829463,2.1950903646483733,43.54955567484987,-0.04502937714230486,0.08355946219582401,-0.2634142162020493,0.07741133123636246
2025-12-23 16:52:13.595816,1766479933,577315493,1,153842,-49,1766479933,594000362,2,145503,98,1766479933,590674627,3,145102,-26,1766479933,587327721,4,177122,77,1766479933,583992855,5,195947,100,1766479933,580659319,6,154177,-130,2.4393160343170166,4.409173965454102,44.496551513671875,0.0030129661317914724,0.011795595288276672,0.10302160680294037,39.82099914550781,43.05500030517578,51.24800109863281,63.665000915527344,41.14500045776367,52.87099838256836,1766479933,575076409,X6-tool2,3.528953439173241,2.7515319625309065,43.67852458910661,-0.05102856074507959,0.0832277420758087,-0.260030407326057,0.0813150405883789
2025-12-23 16:52:13.631340,1766479933,617344132,1,153633,-57,1766479933,614004476,2,145701,99,1766479933,630654375,3,144987,-32,1766479933,627314258,4,177440,85,1766479933,623976943,5,196364,97,1766479933,620664987,6,153655,-124,2.2563533782958984,4.504655361175537,44.47683334350586,-0.02840694598853588,-0.002043653279542923,0.10662873834371567,39.39799880981445,42.75299835205078,51.34700012207031,63.26900100708008,41.354000091552734,53.39799880981445,1766479933,575076409,X6-tool2,3.528953439173241,2.7515319625309065,43.67852458910661,-0.05102856074507959,0.0832277420758087,-0.260030407326057,0.0813150405883789
2025-12-23 16:52:13.666430,1766479933,657336810,1,153369,-77,1766479933,653994084,2,146091,92,1766479933,650670429,3,144937,-28,1766479933,647329193,4,177594,71,1766479933,663996812,5,196793,99,1766479933,660692987,6,153160,-126,2.0771994590759277,4.601039886474609,44.44963455200195,-0.048030782490968704,-0.002066073939204216,0.08569975942373276,38.974998474121094,42.433998107910156,51.46200180053711,62.874000549316406,41.57899856567383,53.90299987792969,1766479933,575076409,X6-tool2,3.528953439173241,2.7515319625309065,43.67852458910661,-0.05102856074507959,0.0832277420758087,-0.260030407326057,0.0813150405883789
2025-12-23 16:52:13.702092,1766479933,697364300,1,153094,-54,1766479933,694031994,2,146552,107,1766479933,690667107,3,144833,-27,1766479933,687344792,4,177874,74,1766479933,684026907,5,197012,118,1766479933,700698706,6,152672,-124,1.899678111076355,4.681608200073242,44.42552185058594,-0.01460532657802105,0.05010274052619934,0.03140345215797424,38.5359992980957,42.15399932861328,51.56700134277344,62.47800064086914,41.8650016784668,54.391998291015625,1766479933,675024808,X6-tool2,3.2073472496206845,3.1776538771028258,43.5318152311104,-0.05443560632373347,0.0800108258026099,-0.2562239170716655,0.06926504522562027
2025-12-23 16:52:13.737269,1766479933,717359474,1,152990,-55,1766479933,734024182,2,146959,87,1766479933,730690127,3,144750,-19,1766479933,727357641,4,178132,54,1766479933,723999524,5,197424,104,1766479933,720692839,6,152424,-120,1.7051860094070435,4.744577884674072,44.399635314941406,-0.004162014927715063,0.052224356681108475,-0.005782509222626686,38.124000549316406,41.895999908447266,51.65999984741211,62.016998291015625,42.10100173950195,54.887001037597656,1766479933,675024808,X6-tool2,3.2073472496206845,3.1776538771028258,43.5318152311104,-0.05443560632373347,0.0800108258026099,-0.2562239170716655,0.06926504522562027
2025-12-23 16:52:13.773021,1766479933,757358272,1,152754,-61,1766479933,753994955,2,147140,94,1766479933,770694455,3,144679,-18,1766479933,767348459,4,178308,61,1766479933,763999583,5,197803,92,1766479933,760690108,6,151880,-141,1.609008550643921,4.7643256187438965,44.40016555786133,0.01801569014787674,0.053558848798274994,0.0027297185733914375,37.92599868774414,41.82400131225586,51.69900131225586,61.8129997253418,42.215999603271484,55.15599822998047,1766479933,675024808,X6-tool2,3.2073472496206845,3.1776538771028258,43.5318152311104,-0.05443560632373347,0.0800108258026099,-0.2562239170716655,0.06926504522562027
2025-12-23 16:52:13.808742,1766479933,797334080,1,152562,-43,1766479933,794024025,2,147541,103,1766479933,790694849,3,144651,-13,1766479933,807331246,4,178522,45,1766479933,804000091,5,198199,105,1766479933,800663875,6,151320,-141,1.4179356098175049,4.828273296356201,44.39012908935547,0.020915012806653976,0.06467016786336899,0.02166411653161049,37.551998138427734,41.61000061035156,51.77000045776367,61.42300033569336,42.441001892089844,55.71099853515625,1766479933,774836231,X6-tool2,2.855715365862035,3.643511889986002,43.5232541243914,-0.05781004095818292,0.0796265526738113,-0.25363103750210153,0.07146453857421875
2025-12-23 16:52:13.843837,1766479933,837360779,1,152380,-51,1766479933,834026343,2,147997,108,1766479933,830703178,3,144613,-5,1766479933,827360492,4,178605,48,1766479933,823998585,5,198369,89,1766479933,840689704,6,150815,-131,1.2201474905014038,4.874855041503906,44.37860870361328,0.018916349858045578,0.03472498059272766,0.07336010783910751,37.17900085449219,41.42300033569336,51.819000244140625,60.994998931884766,42.60599899291992,56.249000549316406,1766479933,774836231,X6-tool2,2.855715365862035,3.643511889986002,43.5232541243914,-0.05781004095818292,0.0796265526738113,-0.25363103750210153,0.07146453857421875
2025-12-23 16:52:13.879658,1766479933,877367937,1,152194,-35,1766479933,874020751,2,148486,123,1766479933,870670965,3,144569,-18,1766479933,867345950,4,178808,53,1766479933,864000304,5,198699,77,1766479933,860691459,6,150562,-122,1.0220153331756592,4.91636323928833,44.356544494628906,0.014467421919107437,0.036485202610492706,0.0678986981511116,36.8489990234375,41.220001220703125,51.85200119018555,60.53900146484375,42.810001373291016,56.749000549316406,1766479933,874688906,X6-tool2,2.4954954695860034,3.939338260407573,43.57139645221079,-0.05795374273951354,0.07756408417370574,-0.2512813245331783,0.07075373083353043
2025-12-23 16:52:13.915164,1766479933,897332340,1,152106,-49,1766479933,914023630,2,148931,116,1766479933,910669833,3,144547,-5,1766479933,907357458,4,178984,48,1766479933,904002342,5,198962,55,1766479933,900668886,6,150095,-118,0.9198668003082275,4.926701545715332,44.343624114990234,0.008234802633523941,0.015684232115745544,0.054720088839530945,36.70600128173828,41.13199996948242,51.880001068115234,60.2859992980957,42.89699935913086,56.97999954223633,1766479933,874688906,X6-tool2,2.4954954695860034,3.939338260407573,43.57139645221079,-0.05795374273951354,0.07756408417370574,-0.2512813245331783,0.07075373083353043
2025-12-23 16:52:13.950211,1766479933,937356289,1,151870,-70,1766479933,934020484,2,149145,103,1766479933,930690998,3,144525,-23,1766479933,947351346,4,179165,42,1766479933,943995140,5,199265,80,1766479933,940692955,6,149584,-138,0.7258361577987671,4.962522029876709,44.3199577331543,-0.024442153051495552,0.013188120909035206,0.036815330386161804,36.45399856567383,40.939998626708984,51.902000427246094,59.840999603271484,43.09000015258789,57.4630012512207,1766479933,874688906,X6-tool2,2.4954954695860034,3.939338260407573,43.57139645221079,-0.05795374273951354,0.07756408417370574,-0.2512813245331783,0.07075373083353043
2025-12-23 16:52:13.985953,1766479933,977354708,1,151699,-47,1766479933,974000711,2,149595,102,1766479933,970690686,3,144514,0,1766479933,967332630,4,179269,48,1766479933,983992118,5,199506,68,1766479933,980663962,6,149079,-136,0.5267669558525085,4.995758056640625,44.2984733581543,-0.02654329128563404,0.02759149670600891,0.021870480850338936,36.17399978637695,40.75899887084961,51.92900085449219,59.395999908447266,43.308998107910156,57.96799850463867,1766479933,974886884,X6-tool2,1.9781362792140302,4.194933667117339,43.46845679125524,-0.0567480027783827,0.07380832733822101,-0.25035450339808507,0.08142375946044922
2025-12-23 16:52:14.021692,1766479934,17353996,1,151529,-41,1766479934,14019930,2,150029,100,1766479934,10685574,3,144509,0,1766479934,7352109,4,179396,29,1766479934,3994452,5,199682,92,1766479934,20687362,6,148590,-113,0.3254854679107666,5.013869285583496,44.28656768798828,-0.0032879365608096123,0.01915581524372101,0.06596978008747101,35.86600112915039,40.63199996948242,51.939998626708984,58.957000732421875,43.48500061035156,58.48500061035156,1766479933,974886884,X6-tool2,1.9781362792140302,4.194933667117339,43.46845679125524,-0.0567480027783827,0.07380832733822101,-0.25035450339808507,0.08142375946044922
2025-12-23 16:52:14.056807,1766479934,37334510,1,151436,-44,1766479934,54017669,2,150474,102,1766479934,50671002,3,144509,1,1766479934,47351557,4,179544,31,1766479934,43992470,5,199913,63,1766479934,40688856,6,148365,-110,0.1335257887840271,5.031217098236084,44.264060974121094,-0.015751078724861145,0.010920360684394836,0.06869278848171234,35.6349983215332,40.48400115966797,51.939998626708984,58.516998291015625,43.654998779296875,58.94599914550781,1766479933,974886884,X6-tool2,1.9781362792140302,4.194933667117339,43.46845679125524,-0.0567480027783827,0.07380832733822101,-0.25035450339808507,0.08142375946044922
2025-12-23 16:52:14.092379,1766479934,77357979,1,151254,-31,1766479934,74022643,2,150694,120,1766479934,90694132,3,144525,6,1766479934,87355466,4,179648,25,1766479934,83992169,5,200143,54,1766479934,80661853,6,147936,-102,0.0391206331551075,5.0331010818481445,44.254886627197266,0.0002775286848191172,0.016841109842061996,0.06406677514314651,35.513999938964844,40.42900085449219,51.939998626708984,58.29800033569336,43.75400161743164,59.16600036621094,1766479934,75484178,X6-tool2,1.5281616847421673,4.300851947015823,43.374934519803936,-0.05577932093274818,0.06823971462115859,-0.2493792055474539,0.072845458984375
2025-12-23 16:52:14.127553,1766479934,117329256,1,151084,-48,1766479934,114020931,2,151199,128,1766479934,110670225,3,144536,0,1766479934,107354990,4,179687,17,1766479934,124022708,5,200297,39,1766479934,120688013,6,147497,-108,-0.1574499011039734,5.02299690246582,44.23550796508789,0.0038600200787186623,-0.0032120454125106335,0.05679597333073616,35.321998596191406,40.340999603271484,51.92399978637695,57.82500076293945,43.91899871826172,59.59400177001953,1766479934,75484178,X6-tool2,1.5281616847421673,4.300851947015823,43.374934519803936,-0.05577932093274818,0.06823971462115859,-0.2493792055474539,0.072845458984375
2025-12-23 16:52:14.163020,1766479934,157328324,1,150897,-48,1766479934,154017379,2,151721,118,1766479934,150659893,3,144586,12,1766479934,147349278,4,179742,8,1766479934,143993981,5,200374,38,1766479934,160685651,6,147057,-106,-0.3683757185935974,4.994625568389893,44.21644592285156,0.0036497232504189014,-0.028216764330863953,0.027882078662514687,35.17399978637695,40.2859992980957,51.89099884033203,57.303001403808594,44.099998474121094,60.02299880981445,1766479934,75484178,X6-tool2,1.5281616847421673,4.300851947015823,43.374934519803936,-0.05577932093274818,0.06823971462115859,-0.2493792055474539,0.072845458984375
2025-12-23 16:52:14.198831,1766479934,197329113,1,150710,-31,1766479934,194017478,2,152183,100,1766479934,190662392,3,144651,10,1766479934,187349436,4,179791,10,1766479934,183996290,5,200528,30,1766479934,180659914,6,146821,-122,-0.581468403339386,4.9708404541015625,44.201637268066406,0.010645530186593533,-0.030988013371825218,0.019756266847252846,35.02000045776367,40.23699951171875,51.83599853515625,56.80400085449219,44.29800033569336,60.4900016784668,1766479934,174895857,X6-tool2,1.0489366354541294,4.405272164079383,43.320132510817736,-0.05278903460105702,0.0642184921159274,-0.24845789778030783,0.06371816247701645
2025-12-23 16:52:14.233910,1766479934,217338107,1,150623,-47,1766479934,214017102,2,152413,124,1766479934,230659200,3,144723,23,1766479934,227352735,4,179824,10,1766479934,223993508,5,200638,35,1766479934,220688034,6,146398,-91,-0.6760622262954712,4.958614826202393,44.19752883911133,0.010127322748303413,-0.031269367784261703,0.02661946602165699,34.959999084472656,40.22600173950195,51.79800033569336,56.5890007019043,44.38100051879883,60.70399856567383,1766479934,174895857,X6-tool2,1.0489366354541294,4.405272164079383,43.320132510817736,-0.05278903460105702,0.0642184921159274,-0.24845789778030783,0.06371816247701645
2025-12-23 16:52:14.269619,1766479934,257343176,1,150403,-58,1766479934,254018190,2,152924,147,1766479934,250689715,3,144800,42,1766479934,267345693,4,179868,0,1766479934,264023638,5,200726,22,1766479934,260688742,6,145986,-85,-0.8751910328865051,4.936855792999268,44.17872619628906,-0.00364485802128911,-0.024817632511258125,-0.0004727747291326523,34.861000061035156,40.17100143432617,51.72600173950195,56.12200164794922,44.577999114990234,61.13199996948242,1766479934,174895857,X6-tool2,1.0489366354541294,4.405272164079383,43.320132510817736,-0.05278903460105702,0.0642184921159274,-0.24845789778030783,0.06371816247701645
2025-12-23 16:52:14.305179,1766479934,297353204,1,150222,-37,1766479934,294022619,2,153391,110,1766479934,290687513,3,144921,35,1766479934,287338827,4,179879,4,1766479934,303992615,5,200830,16,1766479934,300688580,6,145646,-100,-1.0726542472839355,4.893917560577393,44.15639877319336,0.009582197293639183,-0.003741153981536627,-0.046550653874874115,34.77299880981445,40.14899826049805,51.599998474121094,55.62300109863281,44.7869987487793,61.494998931884766,1766479934,274747602,X6-tool2,0.6985209832733772,4.476065484973847,43.378340780762656,-0.04797575893680329,0.05973267544017733,-0.24791684036524483,0.059396106749773026
2025-12-23 16:52:14.340309,1766479934,337353493,1,150084,-37,1766479934,334017947,2,153875,125,1766479934,330684891,3,145107,38,1766479934,327348726,4,179890,0,1766479934,323994059,5,200858,19,1766479934,320686715,6,145475,-87,-1.263380527496338,4.847784042358398,44.13421630859375,-0.0025023608468472958,-0.004244277253746986,-0.0374242402613163,34.689998626708984,40.13800048828125,51.41299819946289,55.138999938964844,44.92399978637695,61.83599853515625,1766479934,274747602,X6-tool2,0.6985209832733772,4.476065484973847,43.378340780762656,-0.04797575893680329,0.05973267544017733,-0.24791684036524483,0.059396106749773026
2025-12-23 16:52:14.376101,1766479934,357354077,1,150018,-30,1766479934,374023015,2,154402,141,1766479934,370687249,3,145300,49,1766479934,367354504,4,179890,0,1766479934,363995167,5,200945,25,1766479934,360688033,6,145157,-80,-1.456823468208313,4.792524814605713,44.108734130859375,0.01283221784979105,-0.015088791027665138,-0.045253653079271317,34.60300064086914,40.13800048828125,51.25899887084961,54.63399887084961,45.073001861572266,62.15399932861328,1766479934,374612998,X6-tool2,0.14323150387321304,4.473764901253597,43.31486227428789,-0.0378274251892473,0.05827937590824478,-0.24810175663306466,0.06344286352396011
2025-12-23 16:52:14.411195,1766479934,397354455,1,149881,-42,1766479934,394023550,2,154655,129,1766479934,410674317,3,145497,44,1766479934,407348322,4,179874,-7,1766479934,403986555,5,200989,14,1766479934,400688831,6,144844,-72,-1.558302879333496,4.760299205780029,44.096675872802734,-0.0012263316893950105,-0.02950267866253853,-0.035352252423763275,34.58100128173828,40.14899826049805,51.14899826049805,54.369998931884766,45.12799835205078,62.319000244140625,1766479934,374612998,X6-tool2,0.14323150387321304,4.473764901253597,43.31486227428789,-0.0378274251892473,0.05827937590824478,-0.24810175663306466,0.06344286352396011
2025-12-23 16:52:14.446415,1766479934,437358654,1,149744,-31,1766479934,434003447,2,155105,108,1766479934,430660311,3,145624,69,1766479934,427343876,4,179863,0,1766479934,444021955,5,201028,4,1766479934,440691809,6,144509,-82,-1.7457382678985596,4.702715873718262,44.0731201171875,-0.0023904498666524887,-0.0267025176435709,-0.04304732754826546,34.5369987487793,40.165000915527344,50.95199966430664,53.887001037597656,45.28099822998047,62.62699890136719,1766479934,374612998,X6-tool2,0.14323150387321304,4.473764901253597,43.31486227428789,-0.0378274251892473,0.05827937590824478,-0.24810175663306466,0.06344286352396011
2025-12-23 16:52:14.482178,1766479934,477342471,1,149606,-32,1766479934,474059398,2,155583,115,1766479934,470680820,3,145854,62,1766479934,467337674,4,179808,-20,1766479934,463988718,5,201033,0,1766479934,480667227,6,144261,-64,-1.9236923456192017,4.638432502746582,44.05754470825195,-0.003842604113742709,-0.014714451506733894,-0.03011626936495304,34.51499938964844,40.220001220703125,50.71500015258789,53.43600082397461,45.42399978637695,62.92300033569336,1766479934,474702662,X6-tool2,-0.16516627692922983,4.392925874632609,43.22192755347166,-0.029598408474028188,0.05510631099853059,-0.24819192263911202,0.07180372625589371
2025-12-23 16:52:14.517427,1766479934,497314154,1,149551,-26,1766479934,514055706,2,156099,125,1766479934,510663908,3,146096,66,1766479934,507334042,4,179703,-18,1766479934,503980606,5,201028,0,1766479934,500650790,6,144108,-79,-2.118255138397217,4.548081398010254,44.04144287109375,-0.0034366725012660027,-0.04982371628284454,-0.011881711892783642,34.52000045776367,40.32500076293945,50.48500061035156,52.91999816894531,45.540000915527344,63.202999114990234,1766479934,474702662,X6-tool2,-0.16516627692922983,4.392925874632609,43.22192755347166,-0.029598408474028188,0.05510631099853059,-0.24819192263911202,0.07180372625589371
2025-12-23 16:52:14.552928,1766479934,537330413,1,149420,-35,1766479934,534051740,2,156357,129,1766479934,550649636,3,146404,84,1766479934,547348942,4,179643,-21,1766479934,544005425,5,201022,0,1766479934,540669739,6,143871,-54,-2.302246332168579,4.4678239822387695,44.013763427734375,-0.013052421621978283,-0.052026841789484024,-0.017840096727013588,34.5260009765625,40.3849983215332,50.19900131225586,52.415000915527344,45.67100143432617,63.439998626708984,1766479934,474702662,X6-tool2,-0.16516627692922983,4.392925874632609,43.22192755347166,-0.029598408474028188,0.05510631099853059,-0.24819192263911202,0.07180372625589371
2025-12-23 16:52:14.587953,1766479934,577329062,1,149282,-32,1766479934,574053978,2,156863,129,1766479934,570678431,3,146585,95,1766479934,587354610,4,179517,-24,1766479934,583983663,5,201006,0,1766479934,580696719,6,143657,-48,-2.3913276195526123,4.414499282836914,44.00716781616211,0.009940130636096,-0.04843882471323013,-0.005966886878013611,34.53099822998047,40.46200180053711,50.04499816894531,52.16699981689453,45.74300003051758,63.54399871826172,1766479934,574575858,X6-tool2,-0.5826271034279865,4.29035080951237,43.1676199203193,-0.02078817871025156,0.054853439287367745,-0.24858554294080565,0.060702960938215256
2025-12-23 16:52:14.622960,1766479934,617315310,1,149167,-21,1766479934,614009845,2,157374,119,1766479934,610649198,3,146992,108,1766479934,607339673,4,179451,-32,1766479934,603989447,5,200995,-9,1766479934,620669856,6,143481,-43,-2.574171781539917,4.3145318031311035,43.983192443847656,0.011191176250576973,-0.03046700544655323,0.018094725906848907,34.553001403808594,40.57699966430664,49.650001525878906,51.6510009765625,45.86899948120117,63.74700164794922,1766479934,574575858,X6-tool2,-0.5826271034279865,4.29035080951237,43.1676199203193,-0.02078817871025156,0.054853439287367745,-0.24858554294080565,0.060702960938215256
2025-12-23 16:52:14.658151,1766479934,657342139,1,149057,-44,1766479934,653975632,2,157830,117,1766479934,650670448,3,147365,82,1766479934,647321321,4,179264,-34,1766479934,643978565,5,200945,-10,1766479934,640650089,6,143405,-35,-2.74137544631958,4.197177410125732,43.97095489501953,0.022830210626125336,-0.02322571352124214,0.06465501338243484,34.60300064086914,40.763999938964844,49.237998962402344,51.167999267578125,45.96799850463867,63.90599822998047,1766479934,574575858,X6-tool2,-0.5826271034279865,4.29035080951237,43.1676199203193,-0.02078817871025156,0.054853439287367745,-0.24858554294080565,0.060702960938215256
2025-12-23 16:52:14.693167,1766479934,677318922,1,148969,-42,1766479934,674037699,2,158055,111,1766479934,690683716,3,147722,90,1766479934,687343730,4,179077,-56,1766479934,683986914,5,200819,-43,1766479934,680662349,6,143262,-35,-2.8181002140045166,4.1443891525268555,43.96225357055664,0.02890600636601448,-0.024067120626568794,0.057792190462350845,34.64099884033203,40.840999603271484,49.08399963378906,50.94200134277344,46.034000396728516,63.97200012207031,1766479934,674936093,X6-tool2,-1.0483495555727644,4.143637575729303,43.05394749175611,-0.012012270452742571,0.05584930710627589,-0.24971723394152764,0.05872344970703125
2025-12-23 16:52:14.728789,1766479934,717330931,1,148810,-37,1766479934,714015156,2,158566,121,1766479934,710672080,3,147898,93,1766479934,727341528,4,178863,-53,1766479934,723984212,5,200731,-19,1766479934,720683978,6,143152,-24,-2.9778811931610107,4.024019718170166,43.950801849365234,0.03176150098443031,-0.012533534318208694,0.03229755163192749,34.766998291015625,41.04399871826172,48.72700119018555,50.474998474121094,46.19900131225586,64.11000061035156,1766479934,674936093,X6-tool2,-1.0483495555727644,4.143637575729303,43.05394749175611,-0.012012270452742571,0.05584930710627589,-0.24971723394152764,0.05872344970703125
2025-12-23 16:52:14.763841,1766479934,757327909,1,148689,-21,1766479934,754011255,2,159109,135,1766479934,750669598,3,148354,120,1766479934,747318122,4,178731,-71,1766479934,743999607,5,200654,-38,1766479934,760677555,6,143069,-17,-3.152843713760376,3.874563217163086,43.934288024902344,0.06191357225179672,-0.02916138619184494,0.016460087150335312,34.89400100708008,41.297000885009766,48.34199905395508,49.93199920654297,46.35300064086914,64.20899963378906,1766479934,674936093,X6-tool2,-1.0483495555727644,4.143637575729303,43.05394749175611,-0.012012270452742571,0.05584930710627589,-0.24971723394152764,0.05872344970703125
2025-12-23 16:52:14.799472,1766479934,797346208,1,148579,-28,1766479934,794010212,2,159587,120,1766479934,790667686,3,148766,96,1766479934,787344281,4,178495,-65,1766479934,783980605,5,200555,-21,1766479934,780678800,6,143042,-11,-3.316274881362915,3.7290380001068115,43.912044525146484,0.08315054327249527,-0.045851390808820724,0.041312459856271744,34.99300003051758,41.53300094604492,47.89699935913086,49.40399932861328,46.45100021362305,64.26899719238281,1766479934,775165752,X6-tool2,-1.461721499595531,3.946921163034514,42.90665834055389,-0.0027597622329523465,0.05726916811148251,-0.2506055010125357,0.05605475232005119
2025-12-23 16:52:14.834991,1766479934,817312062,1,148513,-36,1766479934,834023271,2,160021,117,1766479934,830666875,3,149211,111,1766479934,827343789,4,178270,-67,1766479934,823978782,5,200446,-28,1766479934,820676578,6,143009,0,-3.383641004562378,3.6669440269470215,43.90304946899414,0.08844887465238571,-0.03660406917333603,0.04296809807419777,35.04800033569336,41.637001037597656,47.68299865722656,49.185001373291016,46.512001037597656,64.29100036621094,1766479934,775165752,X6-tool2,-1.461721499595531,3.946921163034514,42.90665834055389,-0.0027597622329523465,0.05726916811148251,-0.2506055010125357,0.05605475232005119
2025-12-23 16:52:14.870439,1766479934,857312189,1,148381,-32,1766479934,853994944,2,160258,115,1766479934,850655869,3,149425,102,1766479934,867321817,4,178066,-44,1766479934,863977841,5,200286,-42,1766479934,860677756,6,142993,-5,-3.5132768154144287,3.5370287895202637,43.88606262207031,0.09396237134933472,-0.016009919345378876,0.03931992128491402,35.17900085449219,41.862998962402344,47.237998962402344,48.750999450683594,46.63800048828125,64.31300354003906,1766479934,775165752,X6-tool2,-1.461721499595531,3.946921163034514,42.90665834055389,-0.0027597622329523465,0.05726916811148251,-0.2506055010125357,0.05605475232005119
2025-12-23 16:52:14.906024,1766479934,897332339,1,148266,-23,1766479934,893984062,2,160735,120,1766479934,890668697,3,149930,124,1766479934,887316311,4,177968,-51,1766479934,903996340,5,200149,-33,1766479934,900654054,6,142993,0,-3.6502974033355713,3.4067771434783936,43.856571197509766,0.07645164430141449,0.0011637656716629863,0.012172472663223743,35.327999114990234,42.060001373291016,46.76599884033203,48.27799987792969,46.77000045776367,64.31800079345703,1766479934,874565440,X6-tool2,-1.7549818995925976,3.8263813645146385,42.82030578203516,0.006520141257815515,0.057977900747405414,-0.25118624648147414,0.056471507996320724
2025-12-23 16:52:14.941476,1766479934,937354908,1,148123,-36,1766479934,934029302,2,161219,122,1766479934,930691057,3,150425,130,1766479934,927342760,4,177682,-83,1766479934,923995834,5,200083,-33,1766479934,940688304,6,142993,0,-3.7917823791503906,3.2508704662323,43.83744430541992,0.09913741797208786,0.011875797994434834,0.03717782348394394,35.46500015258789,42.34600067138672,46.255001068115234,47.78900146484375,46.89099884033203,64.31800079345703,1766479934,874565440,X6-tool2,-1.7549818995925976,3.8263813645146385,42.82030578203516,0.006520141257815515,0.057977900747405414,-0.25118624648147414,0.056471507996320724
2025-12-23 16:52:14.976838,1766479934,957354282,1,148063,-30,1766479934,973994479,2,161708,134,1766479934,970663164,3,150870,113,1766479934,967352989,4,177385,-81,1766479934,963993422,5,199924,-52,1766479934,960687788,6,143004,5,-3.8599982261657715,3.176074743270874,43.827335357666016,0.11964011937379837,0.02006765455007553,0.03953595459461212,35.53099822998047,42.483001708984375,46.02399826049805,47.553001403808594,46.96799850463867,64.31800079345703,1766479934,975104792,X6-tool2,-2.0440984885838085,3.6236302408276178,42.72752956231227,0.013142840310607485,0.05734152960229989,-0.25060607224620896,0.05360667034983635
2025-12-23 16:52:15.013265,1766479934,997340380,1,147931,-32,1766479934,994024114,2,161971,109,1766479935,10682453,3,151397,139,1766479935,7332617,4,177028,-90,1766479935,3993231,5,199720,-47,1766479935,667775,6,143020,9,-3.9986460208892822,3.004014253616333,43.81394577026367,0.1361905336380005,-0.00730423629283905,0.0396307036280632,35.729000091552734,42.83000183105469,45.57899856567383,47.06399917602539,47.099998474121094,64.302001953125,1766479934,975104792,X6-tool2,-2.0440984885838085,3.6236302408276178,42.72752956231227,0.013142840310607485,0.05734152960229989,-0.25060607224620896,0.05360667034983635
2025-12-23 16:52:15.049131,1766479935,37327798,1,147816,-21,1766479935,34001362,2,162416,99,1766479935,30683167,3,151677,144,1766479935,47332145,4,176644,-81,1766479935,44016880,5,199479,-73,1766479935,40666644,6,143069,12,-4.134949207305908,2.826359510421753,43.8009147644043,0.13886842131614685,-0.017772426828742027,0.06581312417984009,35.93199920654297,43.198001861572266,45.051998138427734,46.57500076293945,47.22100067138672,64.2750015258789,1766479934,975104792,X6-tool2,-2.0440984885838085,3.6236302408276178,42.72752956231227,0.013142840310607485,0.05734152960229989,-0.25060607224620896,0.05360667034983635
2025-12-23 16:52:15.085111,1766479935,77352407,1,147717,-25,1766479935,73997321,2,162817,103,1766479935,70681335,3,152221,137,1766479935,67328019,4,176484,-76,1766479935,83991797,5,199171,-48,1766479935,80692823,6,143168,18,-4.233510494232178,2.6625936031341553,43.79010772705078,-0.013303475454449654,-0.023704316467046738,-0.0037259701639413834,36.29399871826172,43.54399871826172,44.492000579833984,46.16899871826172,47.32500076293945,64.18099975585938,1766479935,74909155,X6-tool2,-2.4346296229623974,3.4420871697663933,42.57429022401831,0.021060814231482518,0.056717198447204686,-0.24909221652760413,0.06057993695139885
2025-12-23 16:52:15.120310,1766479935,117351695,1,147623,-24,1766479935,114027880,2,163273,110,1766479935,110696645,3,152748,140,1766479935,107359019,4,176127,-95,1766479935,103993461,5,199078,-48,1766479935,100668406,6,143218,25,-4.340670108795166,2.4925358295440674,43.77545166015625,0.0005719302571378648,-0.028496768325567245,0.03184949606657028,36.470001220703125,43.9010009765625,43.98099899291992,45.73500061035156,47.417999267578125,64.09300231933594,1766479935,74909155,X6-tool2,-2.4346296229623974,3.4420871697663933,42.57429022401831,0.021060814231482518,0.056717198447204686,-0.24909221652760413,0.06057993695139885
2025-12-23 16:52:15.156239,1766479935,137348199,1,147557,-36,1766479935,154017218,2,163718,104,1766479935,150686572,3,153254,110,1766479935,147350767,4,175754,-91,1766479935,144017321,5,198853,-33,1766479935,140687755,6,143350,27,-4.445952415466309,2.3102667331695557,43.75428771972656,-0.004679946694523096,-0.03821348026394844,0.02580297365784645,36.69499969482422,44.27399826049805,43.452999114990234,45.27299880981445,47.534000396728516,63.96099853515625,1766479935,74909155,X6-tool2,-2.4346296229623974,3.4420871697663933,42.57429022401831,0.021060814231482518,0.056717198447204686,-0.24909221652760413,0.06057993695139885
2025-12-23 16:52:15.191331,1766479935,177356158,1,147437,-28,1766479935,174021842,2,163943,105,1766479935,190658979,3,153759,130,1766479935,187350915,4,175386,-86,1766479935,183992638,5,198677,-40,1766479935,180691773,6,143525,54,-4.492568492889404,2.220179557800293,43.74412155151367,0.01816951110959053,-0.03321874141693115,0.031216921284794807,36.78300094604492,44.46099853515625,43.19499969482422,45.05400085449219,47.599998474121094,63.88399887084961,1766479935,174975048,X6-tool2,-2.832853092487906,3.2154467883209414,42.456222153535286,0.02611659834173822,0.056708721284947354,-0.24642268963875152,0.04653231427073479
2025-12-23 16:52:15.226402,1766479935,217355116,1,147305,-27,1766479935,214016010,2,164355,113,1766479935,210664454,3,154017,130,1766479935,207349979,4,175199,-86,1766479935,224019267,5,198484,-57,1766479935,220684972,6,143685,38,-4.577406883239746,2.0428407192230225,43.72272491455078,0.058347586542367935,-0.026785237714648247,0.04072343558073044,36.95899963378906,44.82899856567383,42.689998626708984,44.63100051879883,47.720001220703125,63.7140007019043,1766479935,174975048,X6-tool2,-2.832853092487906,3.2154467883209414,42.456222153535286,0.02611659834173822,0.056708721284947354,-0.24642268963875152,0.04653231427073479
2025-12-23 16:52:15.261861,1766479935,257354744,1,147200,-21,1766479935,254019109,2,164789,110,1766479935,250682393,3,154594,147,1766479935,247351867,4,174831,-102,1766479935,243994741,5,198358,-63,1766479935,260687960,6,143877,44,-4.65952205657959,1.8620492219924927,43.696319580078125,0.04553132876753807,-0.019930226728320122,0.02041897177696228,37.189998626708984,45.196998596191406,42.145999908447266,44.196998596191406,47.840999603271484,63.52199935913086,1766479935,174975048,X6-tool2,-2.832853092487906,3.2154467883209414,42.456222153535286,0.02611659834173822,0.056708721284947354,-0.24642268963875152,0.04653231427073479
2025-12-23 16:52:15.296890,1766479935,277349818,1,147162,-21,1766479935,294020127,2,165157,90,1766479935,290684901,3,155105,117,1766479935,287352535,4,174424,-114,1766479935,283991689,5,198144,-49,1766479935,280687814,6,143987,56,-4.734900951385498,1.6743383407592773,43.67567443847656,0.04315824806690216,-0.019235555082559586,0.04213063791394234,37.40399932861328,45.604000091552734,41.590999603271484,43.77899932861328,47.92900085449219,63.32400131225586,1766479935,275091073,X6-tool2,-3.1551507458176435,2.9546116070940234,42.22010414682382,0.031161400001632856,0.05422752294191646,-0.24177466026679859,0.05887921527028084
2025-12-23 16:52:15.332458,1766479935,317349317,1,147085,-13,1766479935,314019741,2,165339,86,1766479935,330682489,3,155599,137,1766479935,327350864,4,173947,-117,1766479935,323992327,5,197913,-58,1766479935,320686112,6,144190,53,-4.758754730224609,1.575838565826416,43.678321838378906,0.04797782376408577,-0.02146749757230282,0.0605606846511364,37.525001525878906,45.85599899291992,41.34400177001953,43.6150016784668,47.972999572753906,63.220001220703125,1766479935,275091073,X6-tool2,-3.1551507458176435,2.9546116070940234,42.22010414682382,0.031161400001632856,0.05422752294191646,-0.24177466026679859,0.05887921527028084
2025-12-23 16:52:15.367450,1766479935,357358415,1,147003,-13,1766479935,354015959,2,165696,98,1766479935,350685154,3,155858,114,1766479935,347350758,4,173699,-99,1766479935,363992976,5,197655,-70,1766479935,360685761,6,144498,76,-4.804471492767334,1.379460334777832,43.67168426513672,0.048746585845947266,-0.033984147012233734,0.07684667408466339,37.766998291015625,46.32899856567383,40.849998474121094,43.26300048828125,48.04999923706055,62.97800064086914,1766479935,275091073,X6-tool2,-3.1551507458176435,2.9546116070940234,42.22010414682382,0.031161400001632856,0.05422752294191646,-0.24177466026679859,0.05887921527028084
2025-12-23 16:52:15.402967,1766479935,397325553,1,146904,-21,1766479935,394015388,2,166119,100,1766479935,390661071,3,156357,111,1766479935,387349696,4,173287,-91,1766479935,384002960,5,197545,-50,1766479935,400682129,6,144783,64,-4.844111919403076,1.178913950920105,43.63882064819336,0.05680427327752113,-0.042680539190769196,0.0393676683306694,38.00299835205078,46.74100112915039,40.33300018310547,42.85100173950195,48.13800048828125,62.643001556396484,1766479935,374588635,X6-tool2,-3.375726866658823,2.634901054282605,42.22189196942295,0.035941413842876656,0.053970371471139277,-0.2378612654920436,0.06330808252096176
2025-12-23 16:52:15.438084,1766479935,437325141,1,146799,-23,1766479935,434015536,2,166514,101,1766479935,430660470,3,156857,139,1766479935,427347745,4,172870,-104,1766479935,423997628,5,197320,-52,1766479935,420684593,6,144926,68,-4.8950676918029785,0.988189697265625,43.61222839355469,0.0604717954993248,-0.05254856497049332,0.029590213671326637,38.22800064086914,47.15800094604492,39.84400177001953,42.45500183105469,48.23699951171875,62.3849983215332,1766479935,374588635,X6-tool2,-3.375726866658823,2.634901054282605,42.22189196942295,0.035941413842876656,0.053970371471139277,-0.2378612654920436,0.06330808252096176
2025-12-23 16:52:15.473145,1766479935,457330575,1,146750,-22,1766479935,454017970,2,166701,96,1766479935,470659058,3,157396,135,1766479935,467348013,4,172397,-112,1766479935,463992387,5,197084,-63,1766479935,460683172,6,145223,73,-4.913984775543213,0.8866178393363953,43.598907470703125,0.07044641673564911,-0.053318772464990616,0.022438539192080498,38.34299850463867,47.382999420166016,39.59199905395508,42.257999420166016,48.29199981689453,62.23099899291992,1766479935,374588635,X6-tool2,-3.375726866658823,2.634901054282605,42.22189196942295,0.035941413842876656,0.053970371471139277,-0.2378612654920436,0.06330808252096176
2025-12-23 16:52:15.510508,1766479935,497329053,1,146651,-22,1766479935,494016449,2,167069,81,1766479935,490661492,3,157665,143,1766479935,507351031,4,171931,-106,1766479935,503993045,5,196787,-90,1766479935,500662549,6,145530,81,-4.948982238769531,0.6782249808311462,43.57899475097656,0.061320386826992035,-0.04824665188789368,0.027661219239234924,38.59600067138672,47.87200164794922,39.053001403808594,41.87900161743164,48.39099884033203,61.933998107910156,1766479935,474786514,X6-tool2,-3.592526045342269,2.218775077576303,42.15875275946263,0.042856441136306635,0.052641725859453745,-0.2319029250168169,0.07217343896627426
2025-12-23 16:52:15.546362,1766479935,537396435,1,146580,-17,1766479935,534025328,2,167415,89,1766479935,530713212,3,158121,122,1766479935,527357936,4,171700,-121,1766479935,543998533,5,196562,-67,1766479935,540675778,6,145833,71,-4.972192764282227,0.48436880111694336,43.55927276611328,0.00504941213876009,-0.04058471694588661,0.004921686369925737,38.875999450683594,48.327999114990234,38.542999267578125,41.53799819946289,48.47800064086914,61.63800048828125,1766479935,474786514,X6-tool2,-3.592526045342269,2.218775077576303,42.15875275946263,0.042856441136306635,0.052641725859453745,-0.2319029250168169,0.07217343896627426
2025-12-23 16:52:15.581922,1766479935,577348271,1,146508,-7,1766479935,574021065,2,167712,80,1766479935,570685560,3,158544,112,1766479935,567335993,4,171145,-151,1766479935,564020468,5,196436,-62,1766479935,580679426,6,146129,82,-4.986615180969238,0.26631101965904236,43.54945373535156,0.03690074384212494,-0.07177626341581345,0.03193187341094017,39.11199951171875,48.882999420166016,38.10900115966797,41.202999114990234,48.54999923706055,61.319000244140625,1766479935,574858267,X6-tool2,-3.8622896963474207,1.7627148804408772,42.201073771030345,0.04597170397148525,0.055666609308684466,-0.2265919608448741,0.05551369860768318
2025-12-23 16:52:15.616989,1766479935,597374556,1,146464,-28,1766479935,614014053,2,168014,61,1766479935,610679758,3,159016,122,1766479935,607352382,4,170651,-95,1766479935,604013636,5,196177,-60,1766479935,600682911,6,146272,70,-5.002860069274902,0.07095002382993698,43.5363655090332,0.004682725295424461,-0.08170438557863235,0.03609080612659454,39.37099838256836,49.37699890136719,37.66400146484375,40.88999938964844,48.62699890136719,61.03900146484375,1766479935,574858267,X6-tool2,-3.8622896963474207,1.7627148804408772,42.201073771030345,0.04597170397148525,0.055666609308684466,-0.2265919608448741,0.05551369860768318
2025-12-23 16:52:15.652698,1766479935,637345113,1,146382,-16,1766479935,634013958,2,168151,72,1766479935,650687816,3,159467,115,1766479935,647312519,4,170233,-105,1766479935,643982383,5,195952,-69,1766479935,640675569,6,146613,95,-4.995238304138184,-0.01679508574306965,43.52574920654297,-0.00011374849418643862,-0.05629284679889679,0.027491429820656776,39.474998474121094,49.58100128173828,37.43299865722656,40.757999420166016,48.67599868774414,60.862998962402344,1766479935,574858267,X6-tool2,-3.8622896963474207,1.7627148804408772,42.201073771030345,0.04597170397148525,0.055666609308684466,-0.2265919608448741,0.05551369860768318
2025-12-23 16:52:15.688160,1766479935,677338721,1,146305,-19,1766479935,674000025,2,168464,75,1766479935,670677770,3,159675,111,1766479935,687314408,4,169744,-131,1766479935,683982352,5,195738,-49,1766479935,680660237,6,146981,102,-4.994513988494873,-0.20397303998470306,43.50262451171875,-0.031186562031507492,-0.043284520506858826,0.01747031696140766,39.71099853515625,50.0260009765625,36.981998443603516,40.45600128173828,48.74800109863281,60.534000396728516,1766479935,674659830,X6-tool2,-4.078231309574486,1.385473301685468,42.18325911218499,0.047100367775996785,0.05799001291653437,-0.22012602301736817,0.05557823181152344
2025-12-23 16:52:15.723346,1766479935,717335460,1,146239,-16,1766479935,714016034,2,168745,74,1766479935,710681088,3,160082,105,1766479935,707332582,4,169492,-135,1766479935,703990136,5,195639,-52,1766479935,720675826,6,147360,100,-4.976667404174805,-0.40976807475090027,43.483768463134766,0.008802982978522778,-0.04199477285146713,0.036424342542886734,39.909000396728516,50.5359992980957,36.56999969482422,40.165000915527344,48.819000244140625,60.154998779296875,1766479935,674659830,X6-tool2,-4.078231309574486,1.385473301685468,42.18325911218499,0.047100367775996785,0.05799001291653437,-0.22012602301736817,0.05557823181152344
2025-12-23 16:52:15.758891,1766479935,757334458,1,146168,-22,1766479935,754019043,2,169058,83,1766479935,750678497,3,160494,100,1766479935,747358921,4,168964,-123,1766479935,743985164,5,195419,-54,1766479935,740698650,6,147552,91,-4.952610492706299,-0.6212913393974304,43.46365737915039,0.03236247971653938,-0.04565002769231796,0.04516903683543205,40.12900161743164,51.06399917602539,36.16400146484375,39.874000549316406,48.8849983215332,59.75899887084961,1766479935,674659830,X6-tool2,-4.078231309574486,1.385473301685468,42.18325911218499,0.047100367775996785,0.05799001291653437,-0.22012602301736817,0.05557823181152344
2025-12-23 16:52:15.793972,1766479935,777360323,1,146157,0,1766479935,774036677,2,169200,65,1766479935,790672595,3,160840,82,1766479935,787359610,4,168470,-128,1766479935,784010084,5,195216,-47,1766479935,780667948,6,147931,95,-4.948078155517578,-0.7218854427337646,43.44879913330078,0.04238993674516678,-0.04475364089012146,0.05194953829050064,40.22800064086914,51.30500030517578,35.95500183105469,39.7140007019043,48.92300033569336,59.577999114990234,1766479935,774772345,X6-tool2,-4.079342865855371,1.0050482751351937,42.34247132481462,0.04939998059990204,0.05949096528773823,-0.2138149628103229,0.0705556869506836
2025-12-23 16:52:15.829966,1766479935,817355771,1,146102,-13,1766479935,814023965,2,169459,59,1766479935,810674059,3,161005,77,1766479935,827358258,4,167943,-137,1766479935,824007612,5,194996,-53,1766479935,820694307,6,148326,98,-4.918293476104736,-0.9270353317260742,43.427818298339844,0.06032542884349823,-0.07336494326591492,0.06039084121584892,40.44200134277344,51.821998596191406,35.60900115966797,39.439998626708984,48.95100021362305,59.1879997253418,1766479935,774772345,X6-tool2,-4.079342865855371,1.0050482751351937,42.34247132481462,0.04939998059990204,0.05949096528773823,-0.2138149628103229,0.0705556869506836
2025-12-23 16:52:15.865450,1766479935,857357660,1,146063,-11,1766479935,853993443,2,169700,52,1766479935,850652407,3,161329,76,1766479935,847355552,4,167684,-118,1766479935,864002810,5,194755,-58,1766479935,860664785,6,148711,103,-4.879644870758057,-1.1305218935012817,43.40873718261719,0.06944885849952698,-0.0930585190653801,0.050526171922683716,40.67300033569336,52.34400177001953,35.28499984741211,39.1870002746582,49.0,58.79199981689453,1766479935,774772345,X6-tool2,-4.079342865855371,1.0050482751351937,42.34247132481462,0.04939998059990204,0.05949096528773823,-0.2138149628103229,0.0705556869506836
2025-12-23 16:52:15.900581,1766479935,897360018,1,146003,-3,1766479935,894019782,2,169915,49,1766479935,890647195,3,161664,85,1766479935,887355421,4,167239,-111,1766479935,883980893,5,194639,-58,1766479935,880663838,6,148936,116,-4.827113151550293,-1.3149415254592896,43.3830680847168,0.04912993684411049,-0.06681850552558899,0.00204679393209517,40.909000396728516,52.78900146484375,34.95000076293945,38.96200180053711,49.07699966430664,58.375,1766479935,874587279,X6-tool2,-4.181202137240479,0.5524908499381899,42.35900517989538,0.05292559927989169,0.06249725414754235,-0.20983030952371862,0.06257247924804688
2025-12-23 16:52:15.936298,1766479935,917331711,1,145992,-7,1766479935,934020130,2,170085,32,1766479935,930672044,3,162015,88,1766479935,927328398,4,166740,-129,1766479935,923982792,5,194403,-63,1766479935,920687198,6,149315,82,-4.773915767669678,-1.5016793012619019,43.37040710449219,0.002386660547927022,-0.047842491418123245,0.009409586898982525,41.14500045776367,53.28799819946289,34.604000091552734,38.77000045776367,49.0989990234375,57.99599838256836,1766479935,874587279,X6-tool2,-4.181202137240479,0.5524908499381899,42.35900517989538,0.05292559927989169,0.06249725414754235,-0.20983030952371862,0.06257247924804688
2025-12-23 16:52:15.972060,1766479935,957363961,1,145970,0,1766479935,954021635,2,170151,32,1766479935,970674422,3,162318,70,1766479935,967355787,4,166179,-140,1766479935,963996061,5,194178,-53,1766479935,960690806,6,149777,104,-4.7309112548828125,-1.605898141860962,43.36540603637695,0.0012902691960334778,-0.028398822993040085,0.01411189790815115,41.2599983215332,53.569000244140625,34.433998107910156,38.6870002746582,49.12099838256836,57.7599983215332,1766479935,874587279,X6-tool2,-4.181202137240479,0.5524908499381899,42.35900517989538,0.05292559927989169,0.06249725414754235,-0.20983030952371862,0.06257247924804688
2025-12-23 16:52:16.007426,1766479935,997344578,1,145959,0,1766479935,994024003,2,170354,60,1766479935,990704178,3,162444,58,1766479935,987335421,4,165916,-129,1766479936,3982688,5,193991,-52,1766479936,661613,6,150238,110,-4.640439987182617,-1.8055298328399658,43.35688781738281,0.006540438160300255,-0.001165245077572763,0.03966797515749931,41.4640007019043,54.11199951171875,34.13100051879883,38.54399871826172,49.12699890136719,57.29800033569336,1766479935,974594200,X6-tool2,-4.166983124653852,0.14772462375932693,42.43572113619652,0.057750812479275555,0.06892492419117155,-0.20576661304699292,0.06282106786966324
2025-12-23 16:52:16.043146,1766479936,37314565,1,145959,0,1766479936,34022471,2,170524,37,1766479936,30678456,3,162686,58,1766479936,27354670,4,165454,-110,1766479936,23982103,5,193892,-52,1766479936,40690213,6,150677,92,-4.56882381439209,-1.996941089630127,43.325496673583984,0.028554599732160568,-0.013200199231505394,0.018628079444169998,41.65599822998047,54.57400131225586,33.88399887084961,38.33000183105469,49.13199996948242,56.84199905395508,1766479935,974594200,X6-tool2,-4.166983124653852,0.14772462375932693,42.43572113619652,0.057750812479275555,0.06892492419117155,-0.20576661304699292,0.06282106786966324
2025-12-23 16:52:16.078950,1766479936,77309414,1,145964,0,1766479936,73992938,2,170662,31,1766479936,70645112,3,162889,50,1766479936,67319606,4,164998,-119,1766479936,63983981,5,193689,-36,1766479936,60689817,6,150886,118,-4.492148399353027,-2.174055814743042,43.3052864074707,0.01859552599489689,-0.009022458456456661,0.005248085130006075,41.85900115966797,55.029998779296875,33.65399932861328,38.17100143432617,49.13199996948242,56.42499923706055,1766479936,74693075,X6-tool2,-4.1528058288064615,-0.3576796227939251,42.44843571433894,0.061023051132108826,0.07799653890105059,-0.20293005586288493,0.05447451397776604
2025-12-23 16:52:16.113958,1766479936,97330818,1,145970,5,1766479936,94018494,2,170739,43,1766479936,110662351,3,163103,49,1766479936,107327985,4,164548,-116,1766479936,104003350,5,193524,-43,1766479936,100689825,6,151309,108,-4.407248020172119,-2.347691774368286,43.286312103271484,0.038554832339286804,-0.007955055683851242,0.01248756144195795,42.02399826049805,55.47999954223633,33.45600128173828,38.03300094604492,49.12099838256836,56.00199890136719,1766479936,74693075,X6-tool2,-4.1528058288064615,-0.3576796227939251,42.44843571433894,0.061023051132108826,0.07799653890105059,-0.20293005586288493,0.05447451397776604
2025-12-23 16:52:16.149676,1766479936,137355418,1,145992,0,1766479936,134019612,2,170898,26,1766479936,130646765,3,163207,48,1766479936,147328484,4,164130,-105,1766479936,143978897,5,193310,-48,1766479936,140687123,6,151732,113,-4.368524074554443,-2.431489944458008,43.272029876708984,0.02518915757536888,-0.003594378475099802,-0.00433028070256114,42.12799835205078,55.683998107910156,33.34600067138672,37.95100021362305,49.11000061035156,55.792999267578125,1766479936,74693075,X6-tool2,-4.1528058288064615,-0.3576796227939251,42.44843571433894,0.061023051132108826,0.07799653890105059,-0.20293005586288493,0.05447451397776604
2025-12-23 16:52:16.185448,1766479936,177329855,1,146041,19,1766479936,174021710,2,171002,25,1766479936,170687164,3,163367,41,1766479936,167355519,4,163894,-124,1766479936,183990246,5,193140,-45,1766479936,180697192,6,152199,121,-4.275782585144043,-2.6065597534179688,43.250389099121094,0.01735883578658104,-0.00016922187933232635,-0.01874421164393425,42.32600021362305,56.13399887084961,33.159000396728516,37.819000244140625,49.08300018310547,55.354000091552734,1766479936,174980646,X6-tool2,-3.9890969874059357,-0.7908552717046137,42.387422841458275,0.06683350630483396,0.08298638033007295,-0.20073235872080253,0.07664012908935547
2025-12-23 16:52:16.221008,1766479936,197317079,1,146085,26,1766479936,214002978,2,171063,14,1766479936,210691123,3,163510,32,1766479936,207358417,4,163394,-115,1766479936,204006991,5,193046,-49,1766479936,200692466,6,152441,132,-4.154867172241211,-2.7909982204437256,43.23786926269531,0.036623552441596985,-0.0008740103803575039,0.001883699675090611,42.50199890136719,56.63399887084961,33.005001068115234,37.742000579833984,49.00600051879883,54.869998931884766,1766479936,174980646,X6-tool2,-3.9890969874059357,-0.7908552717046137,42.387422841458275,0.06683350630483396,0.08298638033007295,-0.20073235872080253,0.07664012908935547
2025-12-23 16:52:16.256203,1766479936,243975648,1,146206,19,1766479936,240662173,2,171123,22,1766479936,237338698,3,163586,32,1766479936,253999076,4,162905,-87,1766479936,250666661,5,192849,-36,1766479936,247330475,6,153029,133,-4.01035737991333,-2.9506638050079346,43.193687438964844,0.06618840247392654,0.029137294739484787,-0.04155179485678673,42.63399887084961,56.941001892089844,32.862998962402344,37.64899826049805,48.8849983215332,54.28200149536133,1766479936,174980646,X6-tool2,-3.9890969874059357,-0.7908552717046137,42.387422841458275,0.06683350630483396,0.08298638033007295,-0.20073235872080253,0.07664012908935547
2025-12-23 16:52:16.291598,1766479936,283978257,1,146277,22,1766479936,280685363,2,171216,16,1766479936,277335566,3,163713,29,1766479936,274017201,4,162724,-84,1766479936,290646198,5,192711,-31,1766479936,287354494,6,153495,118,-3.9598307609558105,-3.0307633876800537,43.17573547363281,0.08297839015722275,0.030373727902770042,-0.04474097117781639,42.69900131225586,57.12300109863281,32.79100036621094,37.58300018310547,48.85200119018555,54.051998138427734,1766479936,274685666,X6-tool2,-3.8281166403178513,-1.2632454967877014,42.42984885887342,0.07128608318023368,0.09347292618838965,-0.20027869805052848,0.06925169378519058
2025-12-23 16:52:16.327621,1766479936,324004016,1,146426,28,1766479936,320688771,2,171260,13,1766479936,317357046,3,163801,12,1766479936,314000549,4,162367,-94,1766479936,310670743,5,192640,-35,1766479936,307328717,6,153710,103,-3.8400816917419434,-3.1769983768463135,43.154605865478516,0.0898294746875763,0.037810344249010086,-0.041051559150218964,42.83700180053711,57.47999954223633,32.6870002746582,37.534000396728516,48.73099899291992,53.60100173950195,1766479936,274685666,X6-tool2,-3.8281166403178513,-1.2632454967877014,42.42984885887342,0.07128608318023368,0.09347292618838965,-0.20027869805052848,0.06925169378519058
2025-12-23 16:52:16.363124,1766479936,343986030,1,146508,50,1766479936,360690839,2,171299,12,1766479936,357331142,3,163872,21,1766479936,354022918,4,161966,-109,1766479936,350668662,5,192486,-43,1766479936,347356007,6,154171,118,-3.7137532234191895,-3.328397750854492,43.13479232788086,0.10643409937620163,0.029359064996242523,-0.02956206165254116,42.9739990234375,57.85900115966797,32.61000061035156,37.494998931884766,48.58300018310547,53.13999938964844,1766479936,274685666,X6-tool2,-3.8281166403178513,-1.2632454967877014,42.42984885887342,0.07128608318023368,0.09347292618838965,-0.20027869805052848,0.06925169378519058
2025-12-23 16:52:16.398751,1766479936,383995568,1,146684,33,1766479936,380689083,2,171304,10,1766479936,397333681,3,163922,0,1766479936,394021896,4,161587,-76,1766479936,390668760,5,192332,-24,1766479936,387353555,6,154660,118,-3.574845790863037,-3.492007255554199,43.116485595703125,0.09360408782958984,0.0189885962754488,-0.024125345051288605,43.154998779296875,58.28200149536133,32.53799819946289,37.46799850463867,48.40700149536133,52.6510009765625,1766479936,374566043,X6-tool2,-3.66877092485563,-1.5925519295700663,42.44605281659476,0.07588890318596452,0.10405722449704927,-0.1997577600987082,0.07760206609964371
2025-12-23 16:52:16.434163,1766479936,424001357,1,146843,41,1766479936,420687262,2,171304,0,1766479936,417335656,3,163932,7,1766479936,414022651,4,161433,-81,1766479936,430663008,5,192195,-40,1766479936,427354743,6,155165,120,-3.5019073486328125,-3.561241388320923,43.104610443115234,0.11364391446113586,0.022974101826548576,-0.03182532638311386,43.215999603271484,58.441001892089844,32.527000427246094,37.46799850463867,48.33599853515625,52.40399932861328,1766479936,374566043,X6-tool2,-3.66877092485563,-1.5925519295700663,42.44605281659476,0.07588890318596452,0.10405722449704927,-0.1997577600987082,0.07760206609964371
2025-12-23 16:52:16.470232,1766479936,463996555,1,147068,45,1766479936,460689360,2,171299,0,1766479936,457328993,3,163949,0,1766479936,454022859,4,161098,-75,1766479936,450664712,5,192129,-30,1766479936,467352891,6,155654,128,-3.353602409362793,-3.703249931335449,43.08185577392578,0.12717115879058838,0.02566971257328987,-0.04263679310679436,43.35300064086914,58.7760009765625,32.5,37.472999572753906,48.15999984741211,51.909000396728516,1766479936,374566043,X6-tool2,-3.66877092485563,-1.5925519295700663,42.44605281659476,0.07588890318596452,0.10405722449704927,-0.1997577600987082,0.07760206609964371
2025-12-23 16:52:16.505719,1766479936,504000073,1,147332,66,1766479936,500649527,2,171266,-10,1766479936,497327901,3,163954,0,1766479936,493988306,4,160763,-87,1766479936,490685401,5,191959,-46,1766479936,487356966,6,155891,120,-3.2050418853759766,-3.8407015800476074,43.057918548583984,0.13332617282867432,-8.797772898105904e-05,-0.04129019379615784,43.49599838256836,59.095001220703125,32.5,37.48400115966797,47.902000427246094,51.41999816894531,1766479936,474649006,X6-tool2,-3.4393732291322885,-2.029858790079694,42.35772098206718,0.07762364828638137,0.11422391482473826,-0.19998576235370524,0.06401761621236801
2025-12-23 16:52:16.540788,1766479936,524006257,1,147431,51,1766479936,520669462,2,171255,-10,1766479936,537330480,3,163949,0,1766479936,534005505,4,160455,-71,1766479936,530669089,5,191794,-45,1766479936,527343823,6,156357,127,-3.0569839477539062,-3.973517417907715,43.03933334350586,0.10689485818147659,-0.010728185996413231,-0.04834109917283058,43.66600036621094,59.41899871826172,32.5,37.516998291015625,47.65999984741211,50.95399856567383,1766479936,474649006,X6-tool2,-3.4393732291322885,-2.029858790079694,42.35772098206718,0.07762364828638137,0.11422391482473826,-0.19998576235370524,0.06401761621236801
2025-12-23 16:52:16.576628,1766479936,563995386,1,147766,77,1766479936,560674510,2,171178,-29,1766479936,557328054,3,163949,0,1766479936,574022854,4,160208,-58,1766479936,570661017,5,191624,-33,1766479936,567337921,6,156813,122,-2.9015414714813232,-4.090127468109131,43.025028228759766,0.027926024049520493,-0.016854049637913704,-0.04353615269064903,43.847999572753906,59.69900131225586,32.5,37.59400177001953,47.32500076293945,50.49800109863281,1766479936,574685699,X6-tool2,-3.0629078773647525,-2.3541760795181137,42.42042414347482,0.08308413156733717,0.1269321066833456,-0.20038403357299484,0.07358964532613754
2025-12-23 16:52:16.612488,1766479936,603997114,1,147997,59,1766479936,600672518,2,171096,-26,1766479936,597330843,3,163927,0,1766479936,594007187,4,160104,-58,1766479936,610667936,5,191514,-26,1766479936,607335300,6,157297,136,-2.824470043182373,-4.145694255828857,43.0145149230957,0.018439799547195435,-0.006290026940405369,-0.05457976460456848,43.92399978637695,59.81999969482422,32.51100158691406,37.62699890136719,47.21500015258789,50.266998291015625,1766479936,574685699,X6-tool2,-3.0629078773647525,-2.3541760795181137,42.42042414347482,0.08308413156733717,0.1269321066833456,-0.20038403357299484,0.07358964532613754
2025-12-23 16:52:16.647792,1766479936,643976122,1,148332,86,1766479936,640675877,2,170975,-20,1766479936,637359162,3,163900,-3,1766479936,634004435,4,159939,-36,1766479936,630666789,5,191470,-19,1766479936,647335929,6,157808,110,-2.6397202014923096,-4.245701789855957,42.99448776245117,0.002871087519451976,0.04543398320674896,-0.04405388981103897,44.034000396728516,60.012001037597656,32.53300094604492,37.75899887084961,46.917999267578125,49.750999450683594,1766479936,574685699,X6-tool2,-3.0629078773647525,-2.3541760795181137,42.42042414347482,0.08308413156733717,0.1269321066833456,-0.20038403357299484,0.07358964532613754
2025-12-23 16:52:16.682909,1766479936,663971116,1,148497,94,1766479936,680671286,2,170876,-24,1766479936,677329179,3,163867,-8,1766479936,674007004,4,159747,-37,1766479936,670664108,5,191343,-29,1766479936,667314442,6,158060,137,-2.4717066287994385,-4.344531536102295,42.9635009765625,-0.015618223696947098,0.06388548761606216,-0.0522996187210083,44.150001525878906,60.176998138427734,32.566001892089844,37.840999603271484,46.59400177001953,49.250999450683594,1766479936,574685699,X6-tool2,-3.0629078773647525,-2.3541760795181137,42.42042414347482,0.08308413156733717,0.1269321066833456,-0.20038403357299484,0.07358964532613754
2025-12-23 16:52:16.718904,1766479936,703974864,1,148848,73,1766479936,700672080,2,170826,-33,1766479936,717334198,3,163801,-21,1766479936,713982182,4,159532,-36,1766479936,710664326,5,191245,-35,1766479936,707340231,6,158533,114,-2.304060220718384,-4.454761028289795,42.94443893432617,-0.011558124795556068,0.05736137926578522,-0.0034806644544005394,44.24300003051758,60.42399978637695,32.61000061035156,37.94599914550781,46.24300003051758,48.77799987792969,1766479936,683382658,X6-tool2,-2.9971368852140947,-2.6952023877532936,42.332701477442356,0.08392472206282575,0.13929483428680217,-0.20136283330369492,0.06016572192311287
2025-12-23 16:52:16.754174,1766479936,743979323,1,149238,91,1766479936,740675078,2,170667,-40,1766479936,737354163,3,163740,-30,1766479936,734013637,4,159456,-44,1766479936,750673115,5,191151,-18,1766479936,747338769,6,158989,111,-2.215898275375366,-4.495704174041748,42.934814453125,-0.02540116384625435,0.06797905266284943,-0.003223417792469263,44.303001403808594,60.49599838256836,32.64799880981445,38.02199935913086,46.06700134277344,48.54199981689453,1766479936,683382658,X6-tool2,-2.9971368852140947,-2.6952023877532936,42.332701477442356,0.08392472206282575,0.13929483428680217,-0.20136283330369492,0.06016572192311287
2025-12-23 16:52:16.790392,1766479936,783974831,1,149584,98,1766479936,780673266,2,170480,-48,1766479936,777330880,3,163603,-21,1766479936,774020175,4,159285,-35,1766479936,770663499,5,191107,-22,1766479936,787338927,6,159450,124,-2.0428600311279297,-4.576742172241211,42.925048828125,0.00414724787697196,0.02344718761742115,0.0030258973129093647,44.39699935913086,60.67100143432617,32.80799865722656,38.198001861572266,45.6879997253418,48.10300064086914,1766479936,782696473,X6-tool2,-2.7940812546668248,-2.9363169536289613,42.20109684475548,0.08635599317884338,0.14911229019047328,-0.20182174148214838,0.06117534637451172
2025-12-23 16:52:16.826271,1766479936,823998380,1,149936,90,1766479936,820672324,2,170239,-78,1766479936,817306738,3,163460,-37,1766479936,814007033,4,159131,-36,1766479936,810673018,5,190997,-29,1766479936,807339142,6,159692,136,-1.853205680847168,-4.658167362213135,42.90958023071289,0.01306663267314434,0.05223821848630905,0.03159603476524353,44.48500061035156,60.82500076293945,32.90700149536133,38.39099884033203,45.33599853515625,47.61899948120117,1766479936,782696473,X6-tool2,-2.7940812546668248,-2.9363169536289613,42.20109684475548,0.08635599317884338,0.14911229019047328,-0.20182174148214838,0.06117534637451172
2025-12-23 16:52:16.861867,1766479936,843970743,1,150134,99,1766479936,860674453,2,170019,-44,1766479936,857347357,3,163345,-41,1766479936,853982090,4,159038,-23,1766479936,850664825,5,190893,-27,1766479936,847313079,6,160186,132,-1.6429107189178467,-4.722584247589111,42.9024543762207,-0.004717561416327953,0.10695325583219528,0.051962949335575104,44.599998474121094,60.939998626708984,33.03799819946289,38.665000915527344,44.957000732421875,47.125,1766479936,782696473,X6-tool2,-2.7940812546668248,-2.9363169536289613,42.20109684475548,0.08635599317884338,0.14911229019047328,-0.20182174148214838,0.06117534637451172
2025-12-23 16:52:16.896943,1766479936,883997492,1,150573,119,1766479936,880665097,2,169948,-36,1766479936,877346202,3,163251,-45,1766479936,893999850,4,158939,-22,1766479936,890657883,5,190783,-25,1766479936,887358969,6,160681,113,-1.4592517614364624,-4.799973487854004,42.872562408447266,0.0057428451254963875,0.07062812894582748,0.03363979235291481,44.71500015258789,61.04499816894531,33.198001861572266,38.82400131225586,44.518001556396484,46.630001068115234,1766479936,881984906,X6-tool2,-2.4766796805771008,-3.232349417605169,42.16243963806862,0.0864632206664971,0.15880917695769595,-0.20385987036403155,0.05793062970042229
2025-12-23 16:52:16.932597,1766479936,923981140,1,151024,121,1766479936,920684956,2,169755,-51,1766479936,917315058,3,163109,-36,1766479936,913986383,4,158901,-19,1766479936,930758716,5,190701,-21,1766479936,927340517,6,161158,121,-1.3662317991256714,-4.834068298339844,42.859771728515625,-0.0010924901580438018,0.07220137119293213,0.04205329343676567,44.76499938964844,61.0890007019043,33.257999420166016,38.917999267578125,44.29800033569336,46.388999938964844,1766479936,881984906,X6-tool2,-2.4766796805771008,-3.232349417605169,42.16243963806862,0.0864632206664971,0.15880917695769595,-0.20385987036403155,0.05793062970042229
2025-12-23 16:52:16.967769,1766479936,963986269,1,151507,122,1766479936,960648203,2,169514,-63,1766479936,957315377,3,162927,-44,1766479936,953992332,4,158840,-16,1766479936,950646255,5,190662,-14,1766479936,967317774,6,161620,113,-1.1781580448150635,-4.890954971313477,42.8408317565918,0.013253187760710716,0.034012321382761,0.05601099506020546,44.84700012207031,61.15999984741211,33.43899917602539,39.143001556396484,43.814998626708984,45.926998138427734,1766479936,881984906,X6-tool2,-2.4766796805771008,-3.232349417605169,42.16243963806862,0.0864632206664971,0.15880917695769595,-0.20385987036403155,0.05793062970042229
2025-12-23 16:52:17.002886,1766479936,983995073,1,151749,115,1766479937,682493,2,169217,-79,1766479936,997311565,3,162702,-67,1766479936,994003910,4,158813,0,1766479936,990650254,5,190563,-37,1766479936,987349919,6,161845,115,-0.9862105250358582,-4.940398693084717,42.822654724121094,0.02414359338581562,0.012968496419489384,0.0707516223192215,44.93000030517578,61.209999084472656,33.62099838256836,39.38999938964844,43.34199905395508,45.465999603271484,1766479936,981561851,X6-tool2,-2.1861125545677993,-3.5761266249548993,42.095015129475435,0.08520022072997724,0.16958735423367133,-0.20563813975658451,0.06581243127584457
2025-12-23 16:52:17.038132,1766479937,23979311,1,152221,136,1766479937,20650275,2,169085,-71,1766479937,37333275,3,162554,-39,1766479937,33983178,4,158807,0,1766479937,30669133,5,190453,-30,1766479937,27318317,6,162307,124,-0.784092128276825,-4.974957466125488,42.80831527709961,0.01685515232384205,0.01606631837785244,0.07519514113664627,45.034000396728516,61.22100067138672,33.81800079345703,39.6870002746582,42.869998931884766,45.00400161743164,1766479936,981561851,X6-tool2,-2.1861125545677993,-3.5761266249548993,42.095015129475435,0.08520022072997724,0.16958735423367133,-0.20563813975658451,0.06581243127584457
2025-12-23 16:52:17.073204,1766479937,64009870,1,152672,105,1766479937,60674635,2,168766,-87,1766479937,57340229,3,162438,-57,1766479937,53983962,4,158807,0,1766479937,70673772,5,190316,-25,1766479937,67338186,6,162795,125,-0.6805837154388428,-4.992571830749512,42.798553466796875,-0.00044154515489935875,0.043142352253198624,0.08047939836978912,45.095001220703125,61.22100067138672,33.89500045776367,39.834999084472656,42.650001525878906,44.76300048828125,1766479936,981561851,X6-tool2,-2.1861125545677993,-3.5761266249548993,42.095015129475435,0.08520022072997724,0.16958735423367133,-0.20563813975658451,0.06581243127584457
2025-12-23 16:52:17.109128,1766479937,103985948,1,153122,107,1766479937,100671653,2,168426,-86,1766479937,97331117,3,162246,-45,1766479937,94004551,4,158824,10,1766479937,90692456,5,190278,-19,1766479937,107333784,6,163262,118,-0.46663153171539307,-5.0209641456604,42.78414535522461,-0.014739738777279854,0.07147939503192902,0.07002142071723938,45.231998443603516,61.21500015258789,34.11000061035156,40.16999816894531,42.20000076293945,44.28499984741211,1766479937,81210839,X6-tool2,-1.9089993455643894,-3.7907465712187594,42.02332876064042,0.0855045529077605,0.18053900935230652,-0.2067375037776073,0.05057461932301521
2025-12-23 16:52:17.145143,1766479937,144008947,1,153633,140,1766479937,140655161,2,168102,-91,1766479937,137317235,3,162048,-52,1766479937,133979529,4,158857,13,1766479937,130648583,5,190206,-16,1766479937,127339078,6,163482,106,-0.26021808385849,-5.042355060577393,42.76984405517578,-0.01461420301347971,0.09173914790153503,0.10479000210762024,45.308998107910156,61.19300079345703,34.301998138427734,40.505001068115234,41.715999603271484,43.82899856567383,1766479937,81210839,X6-tool2,-1.9089993455643894,-3.7907465712187594,42.02332876064042,0.0855045529077605,0.18053900935230652,-0.2067375037776073,0.05057461932301521
2025-12-23 16:52:17.180185,1766479937,163995241,1,153935,142,1766479937,160727827,2,167915,-81,1766479937,177360764,3,161807,-58,1766479937,174028969,4,158967,34,1766479937,170690723,5,190107,-28,1766479937,167327196,6,163949,111,-0.04880860820412636,-5.052832126617432,42.75165557861328,-0.021572871133685112,0.08342450112104416,0.13042008876800537,45.39099884033203,61.12699890136719,34.52199935913086,40.856998443603516,41.15599822998047,43.36199951171875,1766479937,81210839,X6-tool2,-1.9089993455643894,-3.7907465712187594,42.02332876064042,0.0855045529077605,0.18053900935230652,-0.2067375037776073,0.05057461932301521
2025-12-23 16:52:17.216456,1766479937,204017980,1,154462,109,1766479937,200690104,2,167574,-91,1766479937,197360679,3,161702,-53,1766479937,214017457,4,159137,23,1766479937,210667140,5,190020,-22,1766479937,207342375,6,164350,102,0.13679920136928558,-5.024389743804932,42.731285095214844,-0.05685527250170708,0.07625798881053925,0.10186944156885147,45.48500061035156,60.935001373291016,34.74700164794922,41.198001861572266,40.62900161743164,42.96099853515625,1766479937,180651559,X6-tool2,-1.49420883631313,-4.068401138819487,41.89513483778175,0.08743754081754493,0.18874219422713928,-0.20498897774552585,0.05665524676442146
2025-12-23 16:52:17.252272,1766479937,243981656,1,154929,112,1766479937,240686052,2,167239,-82,1766479937,237334636,3,161406,-97,1766479937,234004601,4,159186,26,1766479937,250692040,5,189926,-20,1766479937,247341683,6,164789,108,0.2362457662820816,-5.025417327880859,42.720924377441406,-0.04555116221308708,0.07224734872579575,0.09694044291973114,45.52799987792969,60.89099884033203,34.86800003051758,41.36800003051758,40.393001556396484,42.74100112915039,1766479937,180651559,X6-tool2,-1.49420883631313,-4.068401138819487,41.89513483778175,0.08743754081754493,0.18874219422713928,-0.20498897774552585,0.05665524676442146
2025-12-23 16:52:17.287448,1766479937,283998865,1,155418,121,1766479937,280686971,2,166871,-92,1766479937,277333644,3,161120,-49,1766479937,273998438,4,159329,31,1766479937,270689404,5,189893,-18,1766479937,267341898,6,165009,103,0.43685051798820496,-5.015754699707031,42.69901657104492,0.03822697699069977,-0.010470057837665081,0.013986190780997276,45.62200164794922,60.76499938964844,35.224998474121094,41.724998474121094,39.915000915527344,42.301998138427734,1766479937,279935602,X6-tool2,-1.100038160200865,-4.446762414493024,41.7551612364393,0.08918463479352397,0.19570051695628493,-0.20304016339723405,0.05496819689869881
2025-12-23 16:52:17.322835,1766479937,304004390,1,155665,121,1766479937,320690409,2,166470,-105,1766479937,317360063,3,160889,-48,1766479937,313993147,4,159516,63,1766479937,310688952,5,189833,-20,1766479937,307344616,6,165454,103,0.6377646327018738,-5.002382278442383,42.67310333251953,0.052937500178813934,-0.0007279285928234458,0.01596963405609131,45.6879997253418,60.62200164794922,35.45000076293945,42.082000732421875,39.42599868774414,41.856998443603516,1766479937,279935602,X6-tool2,-1.100038160200865,-4.446762414493024,41.7551612364393,0.08918463479352397,0.19570051695628493,-0.20304016339723405,0.05496819689869881
2025-12-23 16:52:17.358363,1766479937,343981687,1,156154,120,1766479937,340692323,2,166295,-90,1766479937,357349292,3,160675,-52,1766479937,353994305,4,159681,42,1766479937,350662359,5,189772,-14,1766479937,347342604,6,165872,112,0.8367595672607422,-4.967584609985352,42.65199661254883,0.04979401081800461,0.028897222131490707,0.03046075627207756,45.74300003051758,60.43000030517578,35.66400146484375,42.47700119018555,38.9370002746582,41.43899917602539,1766479937,279935602,X6-tool2,-1.100038160200865,-4.446762414493024,41.7551612364393,0.08918463479352397,0.19570051695628493,-0.20304016339723405,0.05496819689869881
