TCliu030506/rrc_ws/src/x6_pkg/x6_control_python/record/record_20260203_212936.csv
timestamp,out_1_header.stamp.sec,out_1_header.stamp.nanosec,out_1_header.frame_id,out_1_val,out_1_speed,out_2_header.stamp.sec,out_2_header.stamp.nanosec,out_2_header.frame_id,out_2_val,out_2_speed,out_3_header.stamp.sec,out_3_header.stamp.nanosec,out_3_header.frame_id,out_3_val,out_3_speed,out_4_header.stamp.sec,out_4_header.stamp.nanosec,out_4_header.frame_id,out_4_val,out_4_speed,out_5_header.stamp.sec,out_5_header.stamp.nanosec,out_5_header.frame_id,out_5_val,out_5_speed,out_6_header.stamp.sec,out_6_header.stamp.nanosec,out_6_header.frame_id,out_6_val,out_6_speed,x6position_pose_rp[0],x6position_pose_rp[1],x6position_pose_rp[2],x6position_pose_rp[3],x6position_pose_rp[4],x6position_pose_rp[5],x6position_joints[0],x6position_joints[1],x6position_joints[2],x6position_joints[3],x6position_joints[4],x6position_joints[5],aimooe_coord_header.stamp.sec,aimooe_coord_header.stamp.nanosec,aimooe_coord_header.frame_id,aimooe_coord_position.x,aimooe_coord_position.y,aimooe_coord_position.z,aimooe_coord_orientation.x,aimooe_coord_orientation.y,aimooe_coord_orientation.z,aimooe_coord_mean_error
2026-02-03 21:29:15.256018,1770125355,237921695,1,220358,0,1770125355,241215587,2,228884,0,1770125355,244560488,3,225500,0,1770125355,247922339,4,235020,0,1770125355,251232960,5,218183,-32,1770125355,254586381,6,227736,0,-0.00012936578423250467,2.8857359886169434,45.00006866455078,0.032131094485521317,0.05166323110461235,-0.045089658349752426,39.63999938964844,46.53850173950195,48.38750076293945,56.96950149536133,43.755001068115234,57.314998626708984,1770125355,183752666,X6-tool2,0.14795805042367563,1.7235715361967834,45.845042831368005,0.02166611599342353,-0.025224856898387226,-0.08008323400165433,0.03468481823801994
2026-02-03 21:29:15.292172,1770125355,277914950,1,220358,0,1770125355,281254761,2,228884,0,1770125355,284585562,3,225500,0,1770125355,287927864,4,235020,0,1770125355,291251565,5,218084,-2,1770125355,274586479,6,227741,0,-0.0006345663568936288,2.886011838912964,45.000308990478516,0.010779835283756256,0.016099505126476288,-0.012569851242005825,39.63999938964844,46.53850173950195,48.38750076293945,56.96950149536133,43.69200134277344,57.317501068115234,1770125355,283357542,X6-tool2,0.06772072617305172,1.6068740811916946,45.722240903720454,0.023427497140786038,-0.026776325131840188,-0.07980351264531596,0.041339874267578125
2026-02-03 21:29:15.327713,1770125355,317916944,1,220358,0,1770125355,321256575,2,228884,0,1770125355,324584186,3,225500,0,1770125355,307927901,4,235020,0,1770125355,311252772,5,218079,0,1770125355,314585703,6,227741,0,-0.0006345663568936288,2.886011838912964,45.000308990478516,0.00439405906945467,0.00513965031132102,-0.002748324768617749,39.63999938964844,46.53850173950195,48.38750076293945,56.96950149536133,43.66999816894531,57.317501068115234,1770125355,283357542,X6-tool2,0.06772072617305172,1.6068740811916946,45.722240903720454,0.023427497140786038,-0.026776325131840188,-0.07980351264531596,0.041339874267578125
2026-02-03 21:29:15.364183,1770125355,357916398,1,220358,0,1770125355,361257430,2,228884,0,1770125355,344582204,3,225500,0,1770125355,347931765,4,235020,0,1770125355,351251816,5,218079,19,1770125355,354584697,6,227741,0,-0.0006345663568936288,2.886011838912964,45.000308990478516,0.00439405906945467,0.00513965031132102,-0.002748324768617749,39.63999938964844,46.53850173950195,48.38750076293945,56.96950149536133,43.66999816894531,57.317501068115234,1770125355,283357542,X6-tool2,0.06772072617305172,1.6068740811916946,45.722240903720454,0.023427497140786038,-0.026776325131840188,-0.07980351264531596,0.041339874267578125
2026-02-03 21:29:15.399689,1770125355,397916383,1,220358,0,1770125355,381257417,2,228878,0,1770125355,384582658,3,225500,0,1770125355,387944099,4,235020,0,1770125355,391252340,5,218073,0,1770125355,394586682,6,227741,0,-0.0006345663568936288,2.886011838912964,45.000308990478516,0.00439405906945467,0.00513965031132102,-0.002748324768617749,39.63999938964844,46.53850173950195,48.38750076293945,56.96950149536133,43.66699981689453,57.317501068115234,1770125355,382742387,X6-tool2,0.1387946102973159,1.645694975516761,45.77879417873012,0.022917308622412303,-0.02688341708026188,-0.07982698564363715,0.04372628405690193
2026-02-03 21:29:15.435172,1770125355,417915350,1,220358,0,1770125355,421255631,2,228878,0,1770125355,424583632,3,225500,0,1770125355,427947574,4,235020,0,1770125355,431255485,5,218068,-17,1770125355,434597776,6,227741,0,-0.0006117612938396633,2.8868627548217773,44.99985122680664,0.00439405906945467,0.00513965031132102,-0.002748324768617749,39.63999938964844,46.535499572753906,48.38750076293945,56.96950149536133,43.66699981689453,57.317501068115234,1770125355,382742387,X6-tool2,0.1387946102973159,1.645694975516761,45.77879417873012,0.022917308622412303,-0.02688341708026188,-0.07982698564363715,0.04372628405690193
2026-02-03 21:29:15.470607,1770125355,457899304,1,220358,0,1770125355,461214295,2,228878,0,1770125355,464563877,3,225500,0,1770125355,467904798,4,235020,0,1770125355,451232962,5,218073,0,1770125355,454621723,6,227741,0,-0.0006117612938396633,2.8868627548217773,44.99985122680664,0.00439405906945467,0.00513965031132102,-0.002748324768617749,39.63999938964844,46.535499572753906,48.38750076293945,56.96950149536133,43.66699981689453,57.317501068115234,1770125355,382742387,X6-tool2,0.1387946102973159,1.645694975516761,45.77879417873012,0.022917308622412303,-0.02688341708026188,-0.07982698564363715,0.04372628405690193
2026-02-03 21:29:15.506661,1770125355,497895439,1,220358,0,1770125355,501207960,2,228878,0,1770125355,504561131,3,225500,0,1770125355,487924425,4,235020,0,1770125355,491229526,5,218068,-3,1770125355,494566197,6,227741,0,-0.0006117612938396633,2.8868627548217773,44.99985122680664,0.00439405906945467,0.00513965031132102,-0.002748324768617749,39.63999938964844,46.535499572753906,48.38750076293945,56.96950149536133,43.66450119018555,57.317501068115234,1770125355,482338693,X6-tool2,0.14088788140609348,1.6424719266008891,45.773559968385044,0.02227539849844538,-0.02698394780805578,-0.07985162983337776,0.04552777484059334
2026-02-03 21:29:15.541906,1770125355,537916363,1,220358,-5,1770125355,541227854,2,228878,0,1770125355,524615058,3,225500,0,1770125355,527907619,4,235020,0,1770125355,531252711,5,218073,23,1770125355,534570952,6,227741,0,-0.0006117612938396633,2.8868627548217773,44.99985122680664,0.00439405906945467,0.00513965031132102,-0.002748324768617749,39.63999938964844,46.535499572753906,48.38750076293945,56.96950149536133,43.66699981689453,57.317501068115234,1770125355,482338693,X6-tool2,0.14088788140609348,1.6424719266008891,45.773559968385044,0.02227539849844538,-0.02698394780805578,-0.07985162983337776,0.04552777484059334
2026-02-03 21:29:15.577748,1770125355,557945630,1,220358,0,1770125355,561222991,2,228878,0,1770125355,564614182,3,225500,0,1770125355,567921264,4,235020,0,1770125355,571282535,5,218068,-18,1770125355,574630846,6,227741,0,-0.0006117612938396633,2.8868627548217773,44.99985122680664,0.00439405906945467,0.00513965031132102,-0.002748324768617749,39.63999938964844,46.535499572753906,48.38750076293945,56.96950149536133,43.66450119018555,57.317501068115234,1770125355,482338693,X6-tool2,0.14088788140609348,1.6424719266008891,45.773559968385044,0.02227539849844538,-0.02698394780805578,-0.07985162983337776,0.04552777484059334
2026-02-03 21:29:15.613672,1770125355,597945934,1,220358,0,1770125355,601227045,2,228878,0,1770125355,604613997,3,225500,0,1770125355,607918858,4,235020,0,1770125355,611359789,5,218068,9,1770125355,594583713,6,227741,0,-0.0006117612938396633,2.8868627548217773,44.99985122680664,0.00439405906945467,0.00513965031132102,-0.002748324768617749,39.63999938964844,46.535499572753906,48.38750076293945,56.96950149536133,43.66699981689453,57.317501068115234,1770125355,581583129,X6-tool2,0.08633494986275919,1.6191714364421093,45.727081617615816,0.023158346557263572,-0.027400811315977117,-0.07974727571045952,0.03941790387034416
2026-02-03 21:29:15.649199,1770125355,637962779,1,220358,0,1770125355,641265700,2,228878,4,1770125355,644631521,3,225500,0,1770125355,647962672,4,235020,0,1770125355,631286806,5,218062,-11,1770125355,634631477,6,227741,0,-0.0006117612938396633,2.8868627548217773,44.99985122680664,-0.00029992524650879204,-0.0006023230962455273,0.0020002215169370174,39.63999938964844,46.535499572753906,48.38750076293945,56.96950149536133,43.6614990234375,57.317501068115234,1770125355,581583129,X6-tool2,0.08633494986275919,1.6191714364421093,45.727081617615816,0.023158346557263572,-0.027400811315977117,-0.07974727571045952,0.03941790387034416
2026-02-03 21:29:15.684491,1770125355,678039363,1,220358,0,1770125355,681226854,2,228878,0,1770125355,664583868,3,225500,0,1770125355,668005799,4,235020,0,1770125355,671286870,5,218068,12,1770125355,674583592,6,227741,0,-0.0006117612938396633,2.8868627548217773,44.99985122680664,-0.00029992524650879204,-0.0006023230962455273,0.0020002215169370174,39.63999938964844,46.535499572753906,48.38750076293945,56.96950149536133,43.66450119018555,57.317501068115234,1770125355,681162994,X6-tool2,0.15497264937484592,1.6439107680298828,45.76695298571544,0.02304526991120894,-0.02717880924902208,-0.07995228017463703,0.03760210797190666
2026-02-03 21:29:15.720156,1770125355,717940597,1,220358,0,1770125355,701230371,2,228878,0,1770125355,704589033,3,225500,0,1770125355,707949564,4,235020,0,1770125355,711285795,5,218062,-5,1770125355,714567586,6,227741,0,-0.0006117612938396633,2.8868627548217773,44.99985122680664,-0.00029992524650879204,-0.0006023230962455273,0.0020002215169370174,39.63999938964844,46.535499572753906,48.38750076293945,56.96950149536133,43.66450119018555,57.317501068115234,1770125355,681162994,X6-tool2,0.15497264937484592,1.6439107680298828,45.76695298571544,0.02304526991120894,-0.02717880924902208,-0.07995228017463703,0.03760210797190666
2026-02-03 21:29:15.756359,1770125355,737894784,1,220358,0,1770125355,741230695,2,228878,0,1770125355,744586647,3,225500,0,1770125355,747902148,4,235020,0,1770125355,751228529,5,218068,-5,1770125355,754586510,6,227741,0,-0.0006117612938396633,2.8868627548217773,44.99985122680664,-0.00029992524650879204,-0.0006023230962455273,0.0020002215169370174,39.63999938964844,46.535499572753906,48.38750076293945,56.96950149536133,43.6614990234375,57.317501068115234,1770125355,681162994,X6-tool2,0.15497264937484592,1.6439107680298828,45.76695298571544,0.02304526991120894,-0.02717880924902208,-0.07995228017463703,0.03760210797190666
2026-02-03 21:29:15.791350,1770125355,777924589,1,220358,0,1770125355,781229120,2,228878,0,1770125355,784566071,3,225500,0,1770125355,787898862,4,235020,0,1770125355,771230696,5,218068,23,1770125355,774561258,6,227741,0,-0.0006117612938396633,2.8868627548217773,44.99985122680664,-0.00029992524650879204,-0.0006023230962455273,0.0020002215169370174,39.63999938964844,46.535499572753906,48.38750076293945,56.96950149536133,43.66450119018555,57.317501068115234,1770125355,780961060,X6-tool2,0.1167027918890409,1.5990176843511372,45.734871241283685,0.02321373334134054,-0.027515053408800134,-0.07968955045050996,0.0402069091796875
2026-02-03 21:29:15.827093,1770125355,817893733,1,220358,0,1770125355,821280984,2,228878,0,1770125355,824563235,3,225500,0,1770125355,807896359,4,235020,0,1770125355,811230520,5,218062,-6,1770125355,814559802,6,227741,0,-0.0006117612938396633,2.8868627548217773,44.99985122680664,-0.00029992524650879204,-0.0006023230962455273,0.0020002215169370174,39.63999938964844,46.535499572753906,48.38750076293945,56.96950149536133,43.6614990234375,57.317501068115234,1770125355,780961060,X6-tool2,0.1167027918890409,1.5990176843511372,45.734871241283685,0.02321373334134054,-0.027515053408800134,-0.07968955045050996,0.0402069091796875
2026-02-03 21:29:15.862875,1770125355,857895837,1,220358,0,1770125355,861230709,2,228878,0,1770125355,844563763,3,225500,0,1770125355,847919764,4,235020,0,1770125355,851227175,5,218068,1,1770125355,854565166,6,227736,0,-0.00010657414532033727,2.886587142944336,44.999610900878906,-0.00029992524650879204,-0.0006023230962455273,0.0020002215169370174,39.63999938964844,46.535499572753906,48.38750076293945,56.96950149536133,43.66450119018555,57.314998626708984,1770125355,780961060,X6-tool2,0.1167027918890409,1.5990176843511372,45.734871241283685,0.02321373334134054,-0.027515053408800134,-0.07968955045050996,0.0402069091796875
2026-02-03 21:29:15.897874,1770125355,877894495,1,220358,0,1770125355,881227116,2,228878,0,1770125355,884562397,3,225500,0,1770125355,887899408,4,235020,0,1770125355,891227099,5,218068,20,1770125355,894560550,6,227736,0,-0.00010657414532033727,2.886587142944336,44.999610900878906,-0.00029992524650879204,-0.0006023230962455273,0.0020002215169370174,39.63999938964844,46.535499572753906,48.38750076293945,56.96950149536133,43.66450119018555,57.314998626708984,1770125355,881215806,X6-tool2,0.06880015310601748,1.6011713161887198,45.692966623524924,0.023930872371841234,-0.027677025631701355,-0.07980605844069658,0.03773021697998047
2026-02-03 21:29:15.933980,1770125355,917907449,1,220358,0,1770125355,921250330,2,228878,0,1770125355,924543801,3,225500,0,1770125355,927939062,4,235020,0,1770125355,931231294,5,218062,-26,1770125355,914617888,6,227736,0,-0.00010657414532033727,2.886587142944336,44.999610900878906,-0.00029992524650879204,-0.0006023230962455273,0.0020002215169370174,39.63999938964844,46.535499572753906,48.38750076293945,56.96950149536133,43.6614990234375,57.314998626708984,1770125355,881215806,X6-tool2,0.06880015310601748,1.6011713161887198,45.692966623524924,0.023930872371841234,-0.027677025631701355,-0.07980605844069658,0.03773021697998047
2026-02-03 21:29:15.969674,1770125355,957904443,1,220358,0,1770125355,961235084,2,228878,0,1770125355,964563966,3,225500,0,1770125355,967915557,4,235020,0,1770125355,951231221,5,218068,0,1770125355,954571982,6,227736,0,-0.00010657414532033727,2.886587142944336,44.999610900878906,-0.00029992524650879204,-0.0006023230962455273,0.0020002215169370174,39.63999938964844,46.535499572753906,48.38750076293945,56.96950149536133,43.66450119018555,57.314998626708984,1770125355,881215806,X6-tool2,0.06880015310601748,1.6011713161887198,45.692966623524924,0.023930872371841234,-0.027677025631701355,-0.07980605844069658,0.03773021697998047
2026-02-03 21:29:16.005043,1770125355,997879097,1,220358,0,1770125356,1225488,2,228878,0,1770125356,4541440,3,225500,0,1770125355,987893224,4,235020,0,1770125355,991211365,5,218068,25,1770125355,994556176,6,227736,0,-0.00010657414532033727,2.886587142944336,44.999610900878906,-0.00029992524650879204,-0.0006023230962455273,0.0020002215169370174,39.63999938964844,46.535499572753906,48.38750076293945,56.96950149536133,43.66450119018555,57.314998626708984,1770125355,981309472,X6-tool2,0.039497769172783095,1.5936174065334319,45.68007907247266,0.023252704318835807,-0.027728323154018422,-0.07967034608216077,0.03976154327392578
2026-02-03 21:29:16.040155,1770125356,37896462,1,220358,0,1770125356,21233376,2,228878,0,1770125356,24567157,3,225500,0,1770125356,27895448,4,235020,0,1770125356,31235979,5,218062,-27,1770125356,34526740,6,227736,0,-0.00010657414532033727,2.886587142944336,44.999610900878906,-0.00029992524650879204,-0.0006023230962455273,0.0020002215169370174,39.63999938964844,46.535499572753906,48.38750076293945,56.96950149536133,43.6614990234375,57.314998626708984,1770125355,981309472,X6-tool2,0.039497769172783095,1.5936174065334319,45.68007907247266,0.023252704318835807,-0.027728323154018422,-0.07967034608216077,0.03976154327392578
2026-02-03 21:29:16.075364,1770125356,57876179,1,220358,0,1770125356,61229290,2,228878,0,1770125356,64541441,3,225500,0,1770125356,67900042,4,235020,0,1770125356,71211353,5,218068,6,1770125356,74561255,6,227736,0,-0.00010657414532033727,2.886587142944336,44.999610900878906,-0.00029992524650879204,-0.0006023230962455273,0.0020002215169370174,39.63999938964844,46.535499572753906,48.38750076293945,56.96950149536133,43.66450119018555,57.314998626708984,1770125355,981309472,X6-tool2,0.039497769172783095,1.5936174065334319,45.68007907247266,0.023252704318835807,-0.027728323154018422,-0.07967034608216077,0.03976154327392578
2026-02-03 21:29:16.110453,1770125356,97896653,1,220358,0,1770125356,101231374,2,228878,0,1770125356,104562805,3,225500,0,1770125356,107899997,4,235020,0,1770125356,91213541,5,218068,30,1770125356,94573122,6,227736,0,-0.00010657414532033727,2.886587142944336,44.999610900878906,-0.00029992524650879204,-0.0006023230962455273,0.0020002215169370174,39.63999938964844,46.535499572753906,48.38750076293945,56.96950149536133,43.66450119018555,57.314998626708984,1770125356,81199387,X6-tool2,0.10093124339263881,1.6003346533790777,45.76095051202093,0.02364487831041946,-0.026910377672857203,-0.07981107211252293,0.039745647460222244
2026-02-03 21:29:16.146222,1770125356,137900028,1,220358,0,1770125356,141231019,2,228878,0,1770125356,144560500,3,225500,0,1770125356,127899514,4,235020,0,1770125356,131229125,5,218062,-14,1770125356,134562756,6,227736,0,-0.00010657414532033727,2.886587142944336,44.999610900878906,-0.00029992524650879204,-0.0006023230962455273,0.0020002215169370174,39.63999938964844,46.535499572753906,48.38750076293945,56.96950149536133,43.6614990234375,57.314998626708984,1770125356,81199387,X6-tool2,0.10093124339263881,1.6003346533790777,45.76095051202093,0.02364487831041946,-0.026910377672857203,-0.07981107211252293,0.039745647460222244
2026-02-03 21:29:16.181290,1770125356,177984042,1,220358,0,1770125356,161228446,2,228878,0,1770125356,164560727,3,225500,0,1770125356,167901268,4,235020,0,1770125356,171228949,5,218068,0,1770125356,174563610,6,227736,0,-0.00010657414532033727,2.886587142944336,44.999610900878906,-0.00029992524650879204,-0.0006023230962455273,0.0020002215169370174,39.63999938964844,46.535499572753906,48.38750076293945,56.96950149536133,43.6614990234375,57.314998626708984,1770125356,81199387,X6-tool2,0.10093124339263881,1.6003346533790777,45.76095051202093,0.02364487831041946,-0.026910377672857203,-0.07981107211252293,0.039745647460222244
2026-02-03 21:29:16.217738,1770125356,197902489,1,220358,0,1770125356,201227940,2,228878,0,1770125356,204565601,3,225500,0,1770125356,207913062,4,235020,0,1770125356,211231044,5,218062,10,1770125356,214575915,6,227736,0,-0.00010657414532033727,2.886587142944336,44.999610900878906,-0.00029992524650879204,-0.0006023230962455273,0.0020002215169370174,39.63999938964844,46.535499572753906,48.38750076293945,56.96950149536133,43.66450119018555,57.314998626708984,1770125356,181242013,X6-tool2,0.07210904306121538,1.677036389777126,45.70843834731987,0.023368928564909124,-0.027892297305361233,-0.07977839105520888,0.03928565979003906
2026-02-03 21:29:16.253507,1770125356,237894303,1,220358,0,1770125356,241240624,2,228878,0,1770125356,244602506,3,225500,0,1770125356,248046837,4,235020,0,1770125356,251264648,5,218062,-27,1770125356,234578792,6,227736,0,-0.00010657414532033727,2.886587142944336,44.999610900878906,-0.00029992524650879204,-0.0006023230962455273,0.0020002215169370174,39.63999938964844,46.535499572753906,48.38750076293945,56.96950149536133,43.6614990234375,57.314998626708984,1770125356,181242013,X6-tool2,0.07210904306121538,1.677036389777126,45.70843834731987,0.023368928564909124,-0.027892297305361233,-0.07977839105520888,0.03928565979003906
2026-02-03 21:29:16.288794,1770125356,277884898,1,220358,0,1770125356,281214519,2,228878,0,1770125356,284578310,3,225500,0,1770125356,287901461,4,235020,0,1770125356,271243975,5,218068,0,1770125356,274547746,6,227736,0,-0.00010657414532033727,2.886587142944336,44.999610900878906,-0.00029992524650879204,-0.0006023230962455273,0.0020002215169370174,39.63999938964844,46.535499572753906,48.38750076293945,56.96950149536133,43.66450119018555,57.314998626708984,1770125356,281103379,X6-tool2,0.11820182248151308,1.6309464488480876,45.77227586127226,0.023456144040480666,-0.02645601158970772,-0.07972630632225455,0.04026635363698006
2026-02-03 21:29:16.323971,1770125356,317901322,1,220358,0,1770125356,321214133,2,228878,0,1770125356,304545687,3,225500,0,1770125356,307915648,4,235020,0,1770125356,311210659,5,218062,0,1770125356,314562681,6,227736,0,-0.00010657414532033727,2.886587142944336,44.999610900878906,-0.00029992524650879204,-0.0006023230962455273,0.0020002215169370174,39.63999938964844,46.535499572753906,48.38750076293945,56.96950149536133,43.6614990234375,57.314998626708984,1770125356,281103379,X6-tool2,0.11820182248151308,1.6309464488480876,45.77227586127226,0.023456144040480666,-0.02645601158970772,-0.07972630632225455,0.04026635363698006
2026-02-03 21:29:16.359472,1770125356,357928056,1,220358,0,1770125356,341234350,2,228878,0,1770125356,344563891,3,225500,0,1770125356,347900923,4,235020,0,1770125356,351231554,5,218062,-28,1770125356,354547775,6,227736,0,-0.00010657414532033727,2.886587142944336,44.999610900878906,-0.00029992524650879204,-0.0006023230962455273,0.0020002215169370174,39.63999938964844,46.535499572753906,48.38750076293945,56.96950149536133,43.6614990234375,57.314998626708984,1770125356,281103379,X6-tool2,0.11820182248151308,1.6309464488480876,45.77227586127226,0.023456144040480666,-0.02645601158970772,-0.07972630632225455,0.04026635363698006
2026-02-03 21:29:16.394748,1770125356,377890143,1,220358,0,1770125356,381233924,2,228878,0,1770125356,384545086,3,225500,0,1770125356,387880637,4,235020,0,1770125356,391210838,5,218068,27,1770125356,374562082,6,227736,0,-0.00010657414532033727,2.886587142944336,44.999610900878906,-0.00029992524650879204,-0.0006023230962455273,0.0020002215169370174,39.63999938964844,46.535499572753906,48.38750076293945,56.96950149536133,43.66450119018555,57.314998626708984,1770125356,381098144,X6-tool2,0.09322827229992836,1.6970881868803789,45.76542186398361,0.02329112071265133,-0.026336020000372048,-0.07983001982871116,0.0419413261115551
2026-02-03 21:29:16.430337,1770125356,417899808,1,220358,0,1770125356,421233409,2,228878,0,1770125356,424603550,3,225500,0,1770125356,427875271,4,235020,0,1770125356,411229895,5,218062,6,1770125356,414541586,6,227736,0,-0.00010657414532033727,2.886587142944336,44.999610900878906,-0.00029992524650879204,-0.0006023230962455273,0.0020002215169370174,39.63999938964844,46.535499572753906,48.38750076293945,56.96950149536133,43.6614990234375,57.314998626708984,1770125356,381098144,X6-tool2,0.09322827229992836,1.6970881868803789,45.76542186398361,0.02329112071265133,-0.026336020000372048,-0.07983001982871116,0.0419413261115551
2026-02-03 21:29:16.465407,1770125356,457887962,1,220358,0,1770125356,461237113,2,228878,0,1770125356,464547454,3,225500,0,1770125356,447943658,4,235020,0,1770125356,451268020,5,218062,-35,1770125356,454581411,6,227736,0,-0.00010657414532033727,2.886587142944336,44.999610900878906,-0.00029992524650879204,-0.0006023230962455273,0.0020002215169370174,39.63999938964844,46.535499572753906,48.38750076293945,56.96950149536133,43.6614990234375,57.314998626708984,1770125356,381098144,X6-tool2,0.09322827229992836,1.6970881868803789,45.76542186398361,0.02329112071265133,-0.026336020000372048,-0.07983001982871116,0.0419413261115551
2026-02-03 21:29:16.500465,1770125356,497902566,1,220358,0,1770125356,481237240,2,228878,0,1770125356,484544171,3,225500,0,1770125356,487898513,4,235020,0,1770125356,491214994,5,218068,13,1770125356,494543715,6,227736,0,-0.00010657414532033727,2.886587142944336,44.999610900878906,-0.00029992524650879204,-0.0006023230962455273,0.0020002215169370174,39.63999938964844,46.535499572753906,48.38750076293945,56.96950149536133,43.66450119018555,57.314998626708984,1770125356,481119120,X6-tool2,0.10160357941470508,1.6753069951021136,45.75548155694455,0.02383839907243296,-0.026479606434138485,-0.07981325454615583,0.03704261779785156
2026-02-03 21:29:16.535878,1770125356,517957433,1,220358,0,1770125356,521231574,2,228878,0,1770125356,524568876,3,225500,0,1770125356,527913107,4,235020,0,1770125356,531240238,5,218062,0,1770125356,534564739,6,227736,0,-0.00010657414532033727,2.886587142944336,44.999610900878906,-0.00029992524650879204,-0.0006023230962455273,0.0020002215169370174,39.63999938964844,46.535499572753906,48.38750076293945,56.96950149536133,43.6614990234375,57.314998626708984,1770125356,481119120,X6-tool2,0.10160357941470508,1.6753069951021136,45.75548155694455,0.02383839907243296,-0.026479606434138485,-0.07981325454615583,0.03704261779785156
2026-02-03 21:29:16.571132,1770125356,557898088,1,220358,0,1770125356,561214889,2,228878,0,1770125356,564562590,3,225500,0,1770125356,567912141,4,235020,0,1770125356,551233445,5,218062,-17,1770125356,554563617,6,227736,0,-0.00010657414532033727,2.886587142944336,44.999610900878906,-0.00029992524650879204,-0.0006023230962455273,0.0020002215169370174,39.63999938964844,46.535499572753906,48.38750076293945,56.96950149536133,43.6614990234375,57.314998626708984,1770125356,481119120,X6-tool2,0.10160357941470508,1.6753069951021136,45.75548155694455,0.02383839907243296,-0.026479606434138485,-0.07981325454615583,0.03704261779785156
2026-02-03 21:29:16.606482,1770125356,597895902,1,220358,0,1770125356,601210053,2,228878,0,1770125356,604563894,3,225500,0,1770125356,587899548,4,235020,0,1770125356,591230410,5,218068,5,1770125356,594544191,6,227736,0,-0.00010657414532033727,2.886587142944336,44.999610900878906,-0.00029992524650879204,-0.0006023230962455273,0.0020002215169370174,39.63999938964844,46.535499572753906,48.38750076293945,56.96950149536133,43.66450119018555,57.314998626708984,1770125356,581183476,X6-tool2,0.14174986348937801,1.5812352899239073,45.78743750659165,0.023108708593018244,-0.026647901655235277,-0.07971878127404716,0.04164377972483635
2026-02-03 21:29:16.641812,1770125356,637893016,1,220358,0,1770125356,641235148,2,228878,0,1770125356,624561762,3,225500,0,1770125356,627899983,4,235020,0,1770125356,631227624,5,218062,1,1770125356,634562515,6,227736,0,-0.00010657414532033727,2.886587142944336,44.999610900878906,-0.00029992524650879204,-0.0006023230962455273,0.0020002215169370174,39.63999938964844,46.535499572753906,48.38750076293945,56.96950149536133,43.66450119018555,57.314998626708984,1770125356,581183476,X6-tool2,0.14174986348937801,1.5812352899239073,45.78743750659165,0.023108708593018244,-0.026647901655235277,-0.07971878127404716,0.04164377972483635
2026-02-03 21:29:16.677161,1770125356,657903623,1,220358,0,1770125356,661224444,2,228878,0,1770125356,664567816,3,225500,0,1770125356,667891047,4,235020,0,1770125356,671212948,5,218062,-20,1770125356,674576659,6,227736,0,-0.00010657414532033727,2.886587142944336,44.999610900878906,-0.00029992524650879204,-0.0006023230962455273,0.0020002215169370174,39.63999938964844,46.535499572753906,48.38750076293945,56.96950149536133,43.6614990234375,57.314998626708984,1770125356,581183476,X6-tool2,0.14174986348937801,1.5812352899239073,45.78743750659165,0.023108708593018244,-0.026647901655235277,-0.07971878127404716,0.04164377972483635
2026-02-03 21:29:16.712613,1770125356,697909868,1,220358,0,1770125356,701232209,2,228878,0,1770125356,704576650,3,225500,0,1770125356,707906131,4,235020,0,1770125356,711234073,5,218062,25,1770125356,694679987,6,227736,-3,-0.00010657414532033727,2.886587142944336,44.999610900878906,-0.00029992524650879204,-0.0006023230962455273,0.0020002215169370174,39.63999938964844,46.535499572753906,48.38750076293945,56.96950149536133,43.66450119018555,57.314998626708984,1770125356,681145612,X6-tool2,0.20107635275708707,1.6321198551376426,45.865538193815375,0.0227645193767787,-0.025819211802193473,-0.07989005923338073,0.03939755633473396
2026-02-03 21:29:16.747699,1770125356,737900722,1,220358,0,1770125356,741214823,2,228878,0,1770125356,744571044,3,225500,0,1770125356,727902028,4,235020,0,1770125356,731232330,5,218062,-9,1770125356,734564531,6,227736,0,-0.00010657414532033727,2.886587142944336,44.999610900878906,-0.00029992524650879204,-0.0006023230962455273,0.0020002215169370174,39.63999938964844,46.535499572753906,48.38750076293945,56.96950149536133,43.6614990234375,57.314998626708984,1770125356,681145612,X6-tool2,0.20107635275708707,1.6321198551376426,45.865538193815375,0.0227645193767787,-0.025819211802193473,-0.07989005923338073,0.03939755633473396
2026-02-03 21:29:16.783376,1770125356,777876006,1,220358,0,1770125356,781217158,2,228878,0,1770125356,764546572,3,225500,0,1770125356,767894643,4,235020,0,1770125356,771228744,5,218062,0,1770125356,774566225,6,227736,0,-0.00010657414532033727,2.886587142944336,44.999610900878906,-0.00029992524650879204,-0.0006023230962455273,0.0020002215169370174,39.63999938964844,46.535499572753906,48.38750076293945,56.96950149536133,43.6614990234375,57.314998626708984,1770125356,781169167,X6-tool2,0.041689353919201165,1.6347339382223316,45.66569398711089,0.02296580583242435,-0.027666952954004346,-0.07991423114775824,0.038321495056152344
2026-02-03 21:29:16.818456,1770125356,817874711,1,220358,0,1770125356,801209205,2,228878,0,1770125356,804544976,3,225500,0,1770125356,807895987,4,235020,0,1770125356,811255038,5,218062,24,1770125356,814539849,6,227736,0,-0.00010657414532033727,2.886587142944336,44.999610900878906,-0.00029992524650879204,-0.0006023230962455273,0.0020002215169370174,39.63999938964844,46.535499572753906,48.38750076293945,56.96950149536133,43.66450119018555,57.314998626708984,1770125356,781169167,X6-tool2,0.041689353919201165,1.6347339382223316,45.66569398711089,0.02296580583242435,-0.027666952954004346,-0.07991423114775824,0.038321495056152344
2026-02-03 21:29:16.853683,1770125356,837895598,1,220358,0,1770125356,841210569,2,228878,0,1770125356,844565250,3,225500,0,1770125356,847878461,4,235020,0,1770125356,851208783,5,218062,-20,1770125356,834544206,6,227736,0,-0.00010657414532033727,2.886587142944336,44.999610900878906,-0.00029992524650879204,-0.0006023230962455273,0.0020002215169370174,39.63999938964844,46.535499572753906,48.38750076293945,56.96950149536133,43.6614990234375,57.314998626708984,1770125356,781169167,X6-tool2,0.041689353919201165,1.6347339382223316,45.66569398711089,0.02296580583242435,-0.027666952954004346,-0.07991423114775824,0.038321495056152344
2026-02-03 21:29:16.889111,1770125356,877880422,1,220358,0,1770125356,881232453,2,228878,0,1770125356,884545824,3,225500,0,1770125356,887879296,4,235020,0,1770125356,871227650,5,218062,-13,1770125356,874561141,6,227736,0,-0.00010657414532033727,2.886587142944336,44.999610900878906,-0.00029992524650879204,-0.0006023230962455273,0.0020002215169370174,39.63999938964844,46.535499572753906,48.38750076293945,56.96950149536133,43.6614990234375,57.314998626708984,1770125356,881111423,X6-tool2,0.1444000742599602,1.6529612673905478,45.80145622920285,0.023527761634199746,-0.02619055869882086,-0.07988276289620032,0.04110654070973396
2026-02-03 21:29:16.924239,1770125356,917894656,1,220358,0,1770125356,921232217,2,228878,0,1770125356,904562012,3,225500,0,1770125356,907880753,4,235020,0,1770125356,911230594,5,218062,22,1770125356,914564265,6,227736,0,-0.00010657414532033727,2.886587142944336,44.999610900878906,-0.00029992524650879204,-0.0006023230962455273,0.0020002215169370174,39.63999938964844,46.535499572753906,48.38750076293945,56.96950149536133,43.6614990234375,57.314998626708984,1770125356,881111423,X6-tool2,0.1444000742599602,1.6529612673905478,45.80145622920285,0.023527761634199746,-0.02619055869882086,-0.07988276289620032,0.04110654070973396
2026-02-03 21:29:16.959859,1770125356,957898621,1,220358,0,1770125356,941241125,2,228878,0,1770125356,944563416,3,225500,0,1770125356,947944757,4,235020,0,1770125356,951233418,5,218062,-26,1770125356,954561249,6,227736,0,-0.00010657414532033727,2.886587142944336,44.999610900878906,-0.00029992524650879204,-0.0006023230962455273,0.0020002215169370174,39.63999938964844,46.535499572753906,48.38750076293945,56.96950149536133,43.6614990234375,57.314998626708984,1770125356,881111423,X6-tool2,0.1444000742599602,1.6529612673905478,45.80145622920285,0.023527761634199746,-0.02619055869882086,-0.07988276289620032,0.04110654070973396
2026-02-03 21:29:16.995101,1770125356,977901318,1,220358,0,1770125356,981327549,2,228878,0,1770125356,984561930,3,225500,0,1770125356,987899021,4,235020,0,1770125356,991226042,5,218068,21,1770125356,994545744,6,227736,0,-0.00010657414532033727,2.886587142944336,44.999610900878906,-0.00029992524650879204,-0.0006023230962455273,0.0020002215169370174,39.63999938964844,46.535499572753906,48.38750076293945,56.96950149536133,43.66450119018555,57.314998626708984,1770125356,980885649,X6-tool2,0.16643086749120106,1.6771566507419937,45.821917738250015,0.0233363480116265,-0.026216078007487494,-0.07986067196332915,0.04066785052418709
2026-02-03 21:29:17.030251,1770125357,17894082,1,220358,0,1770125357,21233343,2,228878,0,1770125357,24561465,3,225500,0,1770125357,27898966,4,235020,0,1770125357,11233660,5,218062,15,1770125357,14566781,6,227736,0,-0.00010657414532033727,2.886587142944336,44.999610900878906,-0.00029992524650879204,-0.0006023230962455273,0.0020002215169370174,39.63999938964844,46.535499572753906,48.38750076293945,56.96950149536133,43.6614990234375,57.314998626708984,1770125356,980885649,X6-tool2,0.16643086749120106,1.6771566507419937,45.821917738250015,0.0233363480116265,-0.026216078007487494,-0.07986067196332915,0.04066785052418709
2026-02-03 21:29:17.065428,1770125357,57897566,1,220358,0,1770125357,61199118,2,228878,0,1770125357,64563749,3,225500,0,1770125357,47899213,4,235020,0,1770125357,51229224,5,218062,-35,1770125357,54564365,6,227736,0,-0.00010657414532033727,2.886587142944336,44.999610900878906,-0.00029992524650879204,-0.0006023230962455273,0.0020002215169370174,39.63999938964844,46.535499572753906,48.38750076293945,56.96950149536133,43.6614990234375,57.314998626708984,1770125356,980885649,X6-tool2,0.16643086749120106,1.6771566507419937,45.821917738250015,0.0233363480116265,-0.026216078007487494,-0.07986067196332915,0.04066785052418709
2026-02-03 21:29:17.100743,1770125357,97890231,1,220358,0,1770125357,81213455,2,228878,0,1770125357,84626516,3,225500,0,1770125357,87877817,4,235020,0,1770125357,91236218,5,218062,30,1770125357,94545290,6,227736,0,-0.00010657414532033727,2.886587142944336,44.999610900878906,-0.00029992524650879204,-0.0006023230962455273,0.0020002215169370174,39.63999938964844,46.535499572753906,48.38750076293945,56.96950149536133,43.66450119018555,57.314998626708984,1770125357,81158015,X6-tool2,0.11061013275970134,1.5985075246840674,45.7793757476759,0.022781280511487353,-0.026350210801536465,-0.07985340490494575,0.03812599182128906
2026-02-03 21:29:17.136934,1770125357,117875698,1,220358,0,1770125357,121211149,2,228878,0,1770125357,124604290,3,225500,0,1770125357,127904991,4,235020,0,1770125357,131242333,5,218062,-9,1770125357,134566144,6,227736,0,-0.00010657414532033727,2.886587142944336,44.999610900878906,-0.00029992524650879204,-0.0006023230962455273,0.0020002215169370174,39.63999938964844,46.535499572753906,48.38750076293945,56.96950149536133,43.6614990234375,57.314998626708984,1770125357,81158015,X6-tool2,0.11061013275970134,1.5985075246840674,45.7793757476759,0.022781280511487353,-0.026350210801536465,-0.07985340490494575,0.03812599182128906
2026-02-03 21:29:17.172262,1770125357,157905742,1,220358,0,1770125357,161241823,2,228878,0,1770125357,164572964,3,225500,0,1770125357,167898866,4,235020,0,1770125357,171235727,5,218068,13,1770125357,154569421,6,227736,0,-0.00010657414532033727,2.886587142944336,44.999610900878906,-0.00029992524650879204,-0.0006023230962455273,0.0020002215169370174,39.63999938964844,46.535499572753906,48.38750076293945,56.96950149536133,43.6614990234375,57.314998626708984,1770125357,81158015,X6-tool2,0.11061013275970134,1.5985075246840674,45.7793757476759,0.022781280511487353,-0.026350210801536465,-0.07985340490494575,0.03812599182128906
2026-02-03 21:29:17.207580,1770125357,197899696,1,220358,0,1770125357,201229528,2,228878,0,1770125357,204569319,3,225500,0,1770125357,187886033,4,235020,0,1770125357,191231444,5,218062,18,1770125357,194546655,6,227736,0,-0.00010657414532033727,2.886587142944336,44.999610900878906,-0.00029992524650879204,-0.0006023230962455273,0.0020002215169370174,39.63999938964844,46.535499572753906,48.38750076293945,56.96950149536133,43.6614990234375,57.314998626708984,1770125357,181212441,X6-tool2,0.07642742284841894,1.653416582898633,45.72130598782687,0.023153710149883763,-0.026907766472254152,-0.07983573949404618,0.04048633575439453
2026-02-03 21:29:17.243340,1770125357,237881191,1,220358,0,1770125357,241287232,2,228878,0,1770125357,224569636,3,225500,0,1770125357,227908617,4,235020,0,1770125357,231242108,5,218062,-27,1770125357,234565840,6,227736,0,-0.00010657414532033727,2.886587142944336,44.999610900878906,-0.00029992524650879204,-0.0006023230962455273,0.0020002215169370174,39.63999938964844,46.535499572753906,48.38750076293945,56.96950149536133,43.6614990234375,57.314998626708984,1770125357,181212441,X6-tool2,0.07642742284841894,1.653416582898633,45.72130598782687,0.023153710149883763,-0.026907766472254152,-0.07983573949404618,0.04048633575439453
2026-02-03 21:29:17.278709,1770125357,277907885,1,220358,0,1770125357,261254499,2,228878,0,1770125357,264550880,3,225500,0,1770125357,267915341,4,235020,0,1770125357,271264173,5,218068,25,1770125357,274550434,6,227736,0,-0.00010657414532033727,2.886587142944336,44.999610900878906,-0.00029992524650879204,-0.0006023230962455273,0.0020002215169370174,39.63999938964844,46.535499572753906,48.38750076293945,56.96950149536133,43.6614990234375,57.314998626708984,1770125357,181212441,X6-tool2,0.07642742284841894,1.653416582898633,45.72130598782687,0.023153710149883763,-0.026907766472254152,-0.07983573949404618,0.04048633575439453
2026-02-03 21:29:17.313937,1770125357,297910052,1,220358,0,1770125357,301261313,2,228878,0,1770125357,304580645,3,225500,0,1770125357,307927276,4,235020,0,1770125357,311234217,5,218062,-8,1770125357,294594671,6,227736,0,-0.00010657414532033727,2.886587142944336,44.999610900878906,-0.00029992524650879204,-0.0006023230962455273,0.0020002215169370174,39.63999938964844,46.535499572753906,48.38750076293945,56.96950149536133,43.6614990234375,57.314998626708984,1770125357,281055176,X6-tool2,0.051755838080282335,1.649389520165552,45.70793640123689,0.023548876712777722,-0.027486441904992942,-0.07975734326558881,0.04126739501953125
2026-02-03 21:29:17.349820,1770125357,337900477,1,220358,0,1770125357,341258768,2,228878,0,1770125357,344544999,3,225500,0,1770125357,347902650,4,235020,0,1770125357,331234724,5,218062,-29,1770125357,334590845,6,227736,0,-0.00010657414532033727,2.886587142944336,44.999610900878906,-0.00029992524650879204,-0.0006023230962455273,0.0020002215169370174,39.63999938964844,46.535499572753906,48.38750076293945,56.96950149536133,43.6614990234375,57.314998626708984,1770125357,281055176,X6-tool2,0.051755838080282335,1.649389520165552,45.70793640123689,0.023548876712777722,-0.027486441904992942,-0.07975734326558881,0.04126739501953125
2026-02-03 21:29:17.385662,1770125357,377922311,1,220358,0,1770125357,381208402,2,228878,0,1770125357,384580083,3,225500,0,1770125357,367881147,4,235020,0,1770125357,371256318,5,218062,28,1770125357,374584970,6,227736,0,-0.00010657414532033727,2.886587142944336,44.999610900878906,-0.00029992524650879204,-0.0006023230962455273,0.0020002215169370174,39.63999938964844,46.535499572753906,48.38750076293945,56.96950149536133,43.6614990234375,57.314998626708984,1770125357,381119152,X6-tool2,0.10229728434145345,1.658189561332025,45.71642368941899,0.02334630260037337,-0.026911593077823665,-0.07975696756118719,0.039920490235090256
2026-02-03 21:29:17.420972,1770125357,417885975,1,220358,0,1770125357,401576409,2,228878,0,1770125357,404575930,3,225500,0,1770125357,407897622,4,235020,0,1770125357,411238263,5,218062,-12,1770125357,414578864,6,227736,0,-0.00010657414532033727,2.886587142944336,44.999610900878906,-0.00029992524650879204,-0.0006023230962455273,0.0020002215169370174,39.63999938964844,46.535499572753906,48.38750076293945,56.96950149536133,43.6614990234375,57.314998626708984,1770125357,381119152,X6-tool2,0.10229728434145345,1.658189561332025,45.71642368941899,0.02334630260037337,-0.026911593077823665,-0.07975696756118719,0.039920490235090256
2026-02-03 21:29:17.457475,1770125357,437901972,1,220358,0,1770125357,441235854,2,228878,0,1770125357,444566825,3,225500,0,1770125357,447904116,4,235020,0,1770125357,451235687,5,218068,12,1770125357,454568218,6,227736,0,-0.00010657414532033727,2.886587142944336,44.999610900878906,-0.00029992524650879204,-0.0006023230962455273,0.0020002215169370174,39.63999938964844,46.535499572753906,48.38750076293945,56.96950149536133,43.6614990234375,57.314998626708984,1770125357,381119152,X6-tool2,0.10229728434145345,1.658189561332025,45.71642368941899,0.02334630260037337,-0.026911593077823665,-0.07975696756118719,0.039920490235090256
2026-02-03 21:29:17.493361,1770125357,477879157,1,220358,0,1770125357,481230788,2,228878,0,1770125357,484556839,3,225500,0,1770125357,487899250,4,235020,0,1770125357,491235021,5,218062,12,1770125357,474612486,6,227736,0,-0.00010657414532033727,2.886587142944336,44.999610900878906,-0.00029992524650879204,-0.0006023230962455273,0.0020002215169370174,39.63999938964844,46.535499572753906,48.38750076293945,56.96950149536133,43.6614990234375,57.314998626708984,1770125357,482256278,X6-tool2,0.22804620934732164,1.5783887637835579,45.853424100645995,0.02302751422324709,-0.026649814364963494,-0.07980512159719759,0.040951091796159744
2026-02-03 21:29:17.528785,1770125357,517878881,1,220369,3,1770125357,521257132,2,228994,28,1770125357,524545703,3,225214,-73,1770125357,527920985,4,234673,-97,1770125357,511236988,5,218062,0,1770125357,514595590,6,227708,-12,-0.01617712713778019,2.8657643795013428,44.99510955810547,-0.00029992524650879204,-0.0006023230962455273,0.0020002215169370174,39.64550018310547,46.5629997253418,48.316001892089844,56.89250183105469,43.6614990234375,57.30099868774414,1770125357,482256278,X6-tool2,0.22804620934732164,1.5783887637835579,45.853424100645995,0.02302751422324709,-0.026649814364963494,-0.07980512159719759,0.040951091796159744
2026-02-03 21:29:17.563887,1770125357,557877135,1,220380,9,1770125357,561255017,2,229224,67,1770125357,544573080,3,225066,-78,1770125357,547918122,4,234448,-114,1770125357,551213573,5,218057,0,1770125357,554584504,6,227609,-39,-0.03710935264825821,2.8412363529205322,44.98920440673828,-0.009205637499690056,-0.004724648781120777,-0.0006548164528794587,39.64550018310547,46.59349822998047,48.24449920654297,56.79600143432617,43.659000396728516,57.287498474121094,1770125357,482256278,X6-tool2,0.22804620934732164,1.5783887637835579,45.853424100645995,0.02302751422324709,-0.026649814364963494,-0.07980512159719759,0.040951091796159744
2026-02-03 21:29:17.599643,1770125357,597877739,1,220391,7,1770125357,581226984,2,229307,45,1770125357,584546285,3,224648,-113,1770125357,587922176,4,233965,-141,1770125357,591216217,5,218051,-16,1770125357,594586718,6,227483,-33,-0.08104842901229858,2.7672619819641113,44.978271484375,0.00256878393702209,-0.017732197418808937,-0.008007838390767574,39.65399932861328,46.708499908447266,48.069000244140625,56.56549835205078,43.659000396728516,57.2239990234375,1770125357,580916884,X6-tool2,0.15259343395632305,1.6617986813600025,45.7511777151559,0.02304717959985643,-0.029230457552452866,-0.07903292700366148,0.04100735858082771
2026-02-03 21:29:17.635228,1770125357,617881517,1,220408,10,1770125357,621254828,2,229559,80,1770125357,624546529,3,224061,-165,1770125357,627919600,4,233476,-114,1770125357,631236111,5,218051,0,1770125357,634588233,6,227324,-33,-0.12903961539268494,2.6915323734283447,44.95915985107422,-0.003977553453296423,-0.00983592588454485,-0.014749513007700443,39.665000915527344,46.80500030517578,47.82149887084961,56.301998138427734,43.65599822998047,57.141998291015625,1770125357,580916884,X6-tool2,0.15259343395632305,1.6617986813600025,45.7511777151559,0.02304717959985643,-0.029230457552452866,-0.07903292700366148,0.04100735858082771
2026-02-03 21:29:17.670357,1770125357,657881711,1,220430,13,1770125357,661256762,2,229768,62,1770125357,664545883,3,223671,-102,1770125357,667920025,4,232976,-129,1770125357,651244899,5,218051,0,1770125357,654586210,6,227252,-34,-0.17183612287044525,2.616039514541626,44.947349548339844,-0.003952986095100641,0.005059584975242615,-0.0034489280078560114,39.67599868774414,46.92300033569336,47.574501037597656,56.07099914550781,43.65599822998047,57.073001861572266,1770125357,580916884,X6-tool2,0.15259343395632305,1.6617986813600025,45.7511777151559,0.02304717959985643,-0.029230457552452866,-0.07903292700366148,0.04100735858082771
2026-02-03 21:29:17.706163,1770125357,697877255,1,220485,13,1770125357,701229827,2,230043,48,1770125357,704543098,3,223198,-106,1770125357,687921422,4,232701,-144,1770125357,691242293,5,218051,0,1770125357,694587494,6,227109,-31,-0.22146180272102356,2.5296154022216797,44.93517303466797,-0.0033225480001419783,-0.00012827623868361115,-0.004220979753881693,39.70349884033203,47.0629997253418,47.34349822998047,55.810001373291016,43.65599822998047,57.00149917602539,1770125357,680903289,X6-tool2,-0.015927185699850993,1.6284869741685797,45.72855065158573,0.022445744872141536,-0.030737772715835065,-0.07719682796795077,0.04247729107737541
2026-02-03 21:29:17.741253,1770125357,737883060,1,220573,25,1770125357,721229974,2,230169,67,1770125357,724564575,3,222946,-133,1770125357,727918826,4,232141,-119,1770125357,731294857,5,218051,0,1770125357,734587379,6,226956,-50,-0.2510013282299042,2.488311767578125,44.925174713134766,-0.010001547634601593,-0.009951082989573479,-0.015367312356829643,39.720001220703125,47.11800003051758,47.23649978637695,55.6619987487793,43.65599822998047,56.96849822998047,1770125357,680903289,X6-tool2,-0.015927185699850993,1.6284869741685797,45.72855065158573,0.022445744872141536,-0.030737772715835065,-0.07719682796795077,0.04247729107737541
2026-02-03 21:29:17.777047,1770125357,757889837,1,220589,8,1770125357,761229788,2,230499,59,1770125357,764542039,3,222435,-109,1770125357,767920930,4,231685,-115,1770125357,771212532,5,218051,0,1770125357,774582893,6,226829,-31,-0.2973652482032776,2.3979954719543457,44.91594696044922,-0.01611396111547947,0.00592824025079608,0.0038235869724303484,39.75550079345703,47.277000427246094,46.95349884033203,55.4119987487793,43.65599822998047,56.894500732421875,1770125357,680903289,X6-tool2,-0.015927185699850993,1.6284869741685797,45.72855065158573,0.022445744872141536,-0.030737772715835065,-0.07719682796795077,0.04247729107737541
2026-02-03 21:29:17.812668,1770125357,797874981,1,220649,17,1770125357,801252932,2,230790,87,1770125357,804541393,3,222017,-112,1770125357,807915975,4,231147,-147,1770125357,811288326,5,218057,0,1770125357,794588820,6,226752,-38,-0.33997833728790283,2.3180429935455322,44.904239654541016,-0.013408863916993141,-0.0023017870262265205,0.0005301175406202674,39.785499572753906,47.409000396728516,46.75299835205078,55.17850112915039,43.65599822998047,56.823001861572266,1770125357,781081945,X6-tool2,-0.15584531344827363,1.5525415795703255,45.6569188047579,0.02401937713747973,-0.03476618752541938,-0.07536732697656147,0.046319007873535156
2026-02-03 21:29:17.847988,1770125357,837894285,1,220693,15,1770125357,841262717,2,231053,57,1770125357,844548898,3,221627,-97,1770125357,827962072,4,230900,-131,1770125357,831230493,5,218057,0,1770125357,834582804,6,226609,-38,-0.39125576615333557,2.225987434387207,44.8919563293457,0.0010405153734609485,-0.02181081846356392,-0.00120701699052006,39.807498931884766,47.56549835205078,46.547000885009766,54.90950012207031,43.659000396728516,56.75149917602539,1770125357,781081945,X6-tool2,-0.15584531344827363,1.5525415795703255,45.6569188047579,0.02401937713747973,-0.03476618752541938,-0.07536732697656147,0.046319007873535156
2026-02-03 21:29:17.883853,1770125357,877875850,1,220759,13,1770125357,881257641,2,231361,72,1770125357,864542035,3,221364,-142,1770125357,867917876,4,230400,-134,1770125357,871232847,5,218068,0,1770125357,874584649,6,226456,-38,-0.41370612382888794,2.1863598823547363,44.88294982910156,-0.0027544829063117504,-0.02956964634358883,-0.012778816744685173,39.829498291015625,47.62300109863281,46.45100021362305,54.78300094604492,43.659000396728516,56.71049880981445,1770125357,881737841,X6-tool2,-0.30997309642836884,1.4414167514520848,45.60290770016621,0.02379071052743213,-0.036710578505432294,-0.07405252552618731,0.03762022778391838
2026-02-03 21:29:17.919570,1770125357,917876304,1,220814,7,1770125357,901253608,2,231471,61,1770125357,904541069,3,220913,-112,1770125357,907917681,4,229889,-130,1770125357,911212472,5,218073,0,1770125357,914584283,6,226313,-32,-0.46014901995658875,2.0979466438293457,44.8715705871582,0.004414997063577175,-0.02947711944580078,-0.0029339005704969168,39.85449981689453,47.777000427246094,46.21500015258789,54.53300094604492,43.66450119018555,56.638999938964844,1770125357,881737841,X6-tool2,-0.30997309642836884,1.4414167514520848,45.60290770016621,0.02379071052743213,-0.036710578505432294,-0.07405252552618731,0.03762022778391838
2026-02-03 21:29:17.954800,1770125357,937896531,1,220831,10,1770125357,941254372,2,231713,68,1770125357,944565123,3,220463,-99,1770125357,947962655,4,229400,-106,1770125357,951235376,5,218090,0,1770125357,934586570,6,226230,-37,-0.507140040397644,2.019259452819824,44.85239028930664,0.0003424818569328636,-0.019446369260549545,-0.007791243493556976,39.87649917602539,47.88949966430664,45.972999572753906,54.275001525878906,43.675498962402344,56.5620002746582,1770125357,881737841,X6-tool2,-0.30997309642836884,1.4414167514520848,45.60290770016621,0.02379071052743213,-0.036710578505432294,-0.07405252552618731,0.03762022778391838
2026-02-03 21:29:17.990764,1770125357,977897646,1,220886,22,1770125357,981256527,2,231987,63,1770125357,984562278,3,220012,-119,1770125357,987982569,4,228950,-111,1770125357,971231933,5,218095,10,1770125357,974584494,6,226115,-29,-0.5516673922538757,1.9415032863616943,44.840415954589844,-0.0022995080798864365,-0.022250313311815262,0.0011569504858925939,39.90399932861328,48.02149963378906,45.75899887084961,54.04399871826172,43.678001403808594,56.50450134277344,1770125357,981011007,X6-tool2,-0.4229048988874943,1.347351788022418,45.55093224548475,0.02270688944165301,-0.038938005277466305,-0.0734786522787452,0.038931529968976974
2026-02-03 21:29:18.025996,1770125358,17876520,1,220990,10,1770125358,21226941,2,232251,68,1770125358,24543642,3,219573,-106,1770125358,7916216,4,228730,-111,1770125358,11231577,5,218117,0,1770125358,14612059,6,226000,-22,-0.5932857394218445,1.8670521974563599,44.82855224609375,-0.022166132926940918,-0.010161316953599453,0.003949715755879879,39.95600128173828,48.14799880981445,45.52799987792969,53.824501037597656,43.68899917602539,56.446998596191406,1770125357,981011007,X6-tool2,-0.4229048988874943,1.347351788022418,45.55093224548475,0.02270688944165301,-0.038938005277466305,-0.0734786522787452,0.038931529968976974
2026-02-03 21:29:18.061112,1770125358,57876324,1,221094,33,1770125358,41254368,2,232421,87,1770125358,44542649,3,219359,-102,1770125358,47935471,4,228203,-145,1770125358,51234512,5,218156,11,1770125358,54585363,6,225895,-31,-0.6189219951629639,1.8256053924560547,44.82313919067383,-0.022166132926940918,-0.010161316953599453,0.003949715755879879,39.97800064086914,48.22200012207031,45.42399978637695,53.70100021362305,43.69449996948242,56.42499923706055,1770125357,981011007,X6-tool2,-0.4229048988874943,1.347351788022418,45.55093224548475,0.02270688944165301,-0.038938005277466305,-0.0734786522787452,0.038931529968976974
2026-02-03 21:29:18.096755,1770125358,77898641,1,221138,30,1770125358,81255223,2,232718,66,1770125358,84570754,3,218985,-92,1770125358,87922915,4,227686,-76,1770125358,91214076,5,218172,9,1770125358,94583957,6,225775,-31,-0.6713608503341675,1.7310948371887207,44.811641693115234,-0.023261768743395805,-0.038346804678440094,5.5700722441542894e-05,40.029998779296875,48.39500045776367,45.2234992980957,53.43450164794922,43.708499908447266,56.364498138427734,1770125358,82209723,X6-tool2,-0.5259526739088236,1.2525564117630479,45.393427332714424,0.022403921034816383,-0.04308505023686672,-0.07343949892060675,0.028272947296500206
2026-02-03 21:29:18.132504,1770125358,117877736,1,221237,15,1770125358,121255977,2,233015,74,1770125358,124543918,3,218595,-107,1770125358,127916699,4,227236,-119,1770125358,131231200,5,218221,0,1770125358,114584564,6,225709,-30,-0.7170923352241516,1.6513092517852783,44.79645538330078,-0.025642937049269676,-0.0437418557703495,-0.019435638561844826,40.079498291015625,48.527000427246094,45.034000396728516,53.192501068115234,43.73550033569336,56.30149841308594,1770125358,82209723,X6-tool2,-0.5259526739088236,1.2525564117630479,45.393427332714424,0.022403921034816383,-0.04308505023686672,-0.07343949892060675,0.028272947296500206
2026-02-03 21:29:18.167704,1770125358,157895950,1,221287,15,1770125358,161257301,2,233306,85,1770125358,164561402,3,218101,-122,1770125358,147916496,4,227000,-114,1770125358,151288797,5,218249,10,1770125358,154585239,6,225599,-18,-0.7622910737991333,1.5716925859451294,44.78377914428711,-0.02331787906587124,-0.03600281476974487,-0.0076755923219025135,40.10449981689453,48.66699981689453,44.80849838256836,52.95949935913086,43.755001068115234,56.246498107910156,1770125358,82209723,X6-tool2,-0.5259526739088236,1.2525564117630479,45.393427332714424,0.022403921034816383,-0.04308505023686672,-0.07343949892060675,0.028272947296500206
2026-02-03 21:29:18.203529,1770125358,197885554,1,221342,14,1770125358,201253865,2,233646,85,1770125358,184567239,3,217853,-109,1770125358,187915581,4,226527,-128,1770125358,191211002,5,218309,13,1770125358,194582333,6,225533,-14,-0.7870504260063171,1.5299468040466309,44.78020477294922,-0.018924176692962646,-0.024439308792352676,0.0019054225413128734,40.11800003051758,48.7495002746582,44.6879997253418,52.84400177001953,43.77949905395508,56.22999954223633,1770125358,181041188,X6-tool2,-0.5347814504112325,1.100678282394838,45.417744210662626,0.02195955534018661,-0.04528088441057399,-0.07355754712177942,0.048798561096191406
2026-02-03 21:29:18.239588,1770125358,237893959,1,221424,23,1770125358,221227322,2,233822,101,1770125358,224560314,3,217452,-97,1770125358,227921865,4,226044,-117,1770125358,231227136,5,218375,25,1770125358,234586587,6,225434,-28,-0.839362382888794,1.442084789276123,44.77094268798828,-0.01574714668095112,-0.03201182931661606,0.02411593310534954,40.14849853515625,48.919498443603516,44.46549987792969,52.596500396728516,43.79600143432617,56.19150161743164,1770125358,181041188,X6-tool2,-0.5347814504112325,1.100678282394838,45.417744210662626,0.02195955534018661,-0.04528088441057399,-0.07355754712177942,0.048798561096191406
2026-02-03 21:29:18.274806,1770125358,257939886,1,221462,25,1770125358,261259177,2,234097,74,1770125358,264586168,3,217046,-99,1770125358,267938299,4,225566,-116,1770125358,271285510,5,218430,21,1770125358,254602614,6,225396,-18,-0.8856448531150818,1.3596365451812744,44.76057052612305,-0.01574714668095112,-0.03201182931661606,0.02411593310534954,40.19200134277344,49.07600021362305,44.259498596191406,52.36600112915039,43.82899856567383,56.14500045776367,1770125358,181041188,X6-tool2,-0.5347814504112325,1.100678282394838,45.417744210662626,0.02195955534018661,-0.04528088441057399,-0.07355754712177942,0.048798561096191406
2026-02-03 21:29:18.310950,1770125358,297950410,1,221578,36,1770125358,301245491,2,234382,54,1770125358,304614942,3,216606,-92,1770125358,307938324,4,225005,-154,1770125358,291290227,5,218469,19,1770125358,294605779,6,225286,-29,-0.9367212057113647,1.2751539945602417,44.74420166015625,-0.023206066340208054,-0.03230215981602669,0.014010707847774029,40.25,49.221500396728516,44.04800033569336,52.108001708984375,43.8650016784668,56.09000015258789,1770125358,282189434,X6-tool2,-0.8565241014831558,0.8658266019308284,45.22011144383639,0.019880177380282762,-0.0474248065628548,-0.07346345976085039,0.03937085345387459
2026-02-03 21:29:18.346745,1770125358,337996424,1,221671,19,1770125358,341245675,2,234613,63,1770125358,344614627,3,216233,-83,1770125358,327931491,4,224742,-124,1770125358,331286822,5,218540,21,1770125358,334598393,6,225181,-25,-0.9931179881095886,1.1947377920150757,44.72201919555664,-0.03316212072968483,-0.04097805544734001,-0.008493254892528057,40.29650115966797,49.342498779296875,43.84450149536133,51.830501556396484,43.9005012512207,56.037498474121094,1770125358,282189434,X6-tool2,-0.8565241014831558,0.8658266019308284,45.22011144383639,0.019880177380282762,-0.0474248065628548,-0.07346345976085039,0.03937085345387459
2026-02-03 21:29:18.382381,1770125358,377950598,1,221737,12,1770125358,381245780,2,234937,80,1770125358,364614444,3,216046,-96,1770125358,367938885,4,224390,-84,1770125358,371285356,5,218666,38,1770125358,374605437,6,225099,-16,-1.0111044645309448,1.1618454456329346,44.71662139892578,-0.031155085191130638,-0.03246935456991196,-0.008932029828429222,40.3129997253418,49.40299987792969,43.75400161743164,51.73699951171875,43.92250061035156,56.015499114990234,1770125358,381015850,X6-tool2,-0.8499601579581942,0.8040754647989845,45.265016033686464,0.018697967687586716,-0.04794075748011167,-0.0738640905492205,0.04391257092356682
2026-02-03 21:29:18.417746,1770125358,397949636,1,221770,17,1770125358,401270237,2,235096,88,1770125358,404614068,3,215656,-105,1770125358,407961489,4,223945,-120,1770125358,411286001,5,218721,16,1770125358,414603132,6,225016,-22,-1.048085331916809,1.0858540534973145,44.71163558959961,-0.015725797042250633,-0.016782399266958237,0.005877208895981312,40.34600067138672,49.564998626708984,43.56449890136719,51.550498962402344,43.97200012207031,55.97700119018555,1770125358,381015850,X6-tool2,-0.8499601579581942,0.8040754647989845,45.265016033686464,0.018697967687586716,-0.04794075748011167,-0.0738640905492205,0.04391257092356682
2026-02-03 21:29:18.453515,1770125358,437948670,1,221869,19,1770125358,441270301,2,235443,65,1770125358,444616832,3,215206,-111,1770125358,447937694,4,223418,-123,1770125358,451286515,5,218820,16,1770125358,434613839,6,224978,-18,-1.1008104085922241,0.998275637626648,44.69863510131836,-0.015725797042250633,-0.016782399266958237,0.005877208895981312,40.39550018310547,49.73249816894531,43.34749984741211,51.29750061035156,44.027000427246094,55.93600082397461,1770125358,381015850,X6-tool2,-0.8499601579581942,0.8040754647989845,45.265016033686464,0.018697967687586716,-0.04794075748011167,-0.0738640905492205,0.04391257092356682
2026-02-03 21:29:18.489265,1770125358,477949444,1,221973,26,1770125358,481271375,2,235778,93,1770125358,484615917,3,214783,-102,1770125358,487939808,4,222935,-117,1770125358,471288582,5,218870,27,1770125358,474600843,6,224868,-22,-1.1514804363250732,0.9076363444328308,44.68351364135742,-0.015725797042250633,-0.016782399266958237,0.005877208895981312,40.4474983215332,49.90299987792969,43.127498626708984,51.03950119018555,44.06549835205078,55.88100051879883,1770125358,482355086,X6-tool2,-1.0497480928475074,0.6316298470167548,45.134825365987446,0.017826223782838838,-0.04914575643970439,-0.07406139386411478,0.036677997559309006
2026-02-03 21:29:18.524328,1770125358,517950539,1,222083,24,1770125358,521272380,2,236085,68,1770125358,504585514,3,214601,-97,1770125358,507939185,4,222709,-116,1770125358,511287326,5,218996,20,1770125358,514605497,6,224758,-16,-1.1940492391586304,0.8242678642272949,44.67084884643555,-0.0025688032619655132,-0.0025478859897702932,-0.0030325392726808786,40.502498626708984,50.064998626708984,42.9379997253418,50.81399917602539,44.128501892089844,55.82600021362305,1770125358,482355086,X6-tool2,-1.0497480928475074,0.6316298470167548,45.134825365987446,0.017826223782838838,-0.04914575643970439,-0.07406139386411478,0.036677997559309006
2026-02-03 21:29:18.559823,1770125358,557939573,1,222182,27,1770125358,541244187,2,236245,94,1770125358,544690918,3,214239,-92,1770125358,547935279,4,222215,-129,1770125358,551285040,5,219106,37,1770125358,554599942,6,224681,-16,-1.219192385673523,0.7843547463417053,44.6633415222168,-0.005324099212884903,-0.011841202154755592,-0.008761348202824593,40.52750015258789,50.138999938964844,42.84749984741211,50.69350051879883,44.1505012512207,55.80699920654297,1770125358,482355086,X6-tool2,-1.0497480928475074,0.6316298470167548,45.134825365987446,0.017826223782838838,-0.04914575643970439,-0.07406139386411478,0.036677997559309006
2026-02-03 21:29:18.595178,1770125358,577924570,1,222215,14,1770125358,581238991,2,236591,87,1770125358,584583952,3,213860,-102,1770125358,587937764,4,221748,-126,1770125358,591285085,5,219210,22,1770125358,594610706,6,224615,-16,-1.2700462341308594,0.6966649889945984,44.65195083618164,0.013830984011292458,-0.02126414142549038,-0.00868426263332367,40.56850051879883,50.317501068115234,42.66899871826172,50.451499938964844,44.21099853515625,55.770999908447266,1770125358,581005411,X6-tool2,-1.119372866145563,0.4863270627138239,45.07749969277012,0.016615923516595146,-0.05152886534085521,-0.07470228021528115,0.03936958312988281
2026-02-03 21:29:18.630750,1770125358,617949474,1,222341,32,1770125358,621244665,2,236909,51,1770125358,624614917,3,213486,-102,1770125358,627939508,4,221369,-102,1770125358,611360812,5,219260,21,1770125358,614599773,6,224572,-22,-1.3129078149795532,0.6192613840103149,44.64101028442383,0.002011778997257352,-0.010987945832312107,-0.005381732247769833,40.631500244140625,50.4739990234375,42.465999603271484,50.2400016784668,44.260501861572266,55.733001708984375,1770125358,581005411,X6-tool2,-1.119372866145563,0.4863270627138239,45.07749969277012,0.016615923516595146,-0.05152886534085521,-0.07470228021528115,0.03936958312988281
2026-02-03 21:29:18.666478,1770125358,657936679,1,222424,27,1770125358,661245550,2,237178,71,1770125358,664614691,3,213107,-99,1770125358,647938715,4,221155,-109,1770125358,651254106,5,219359,24,1770125358,654602768,6,224495,-17,-1.353537678718567,0.546750545501709,44.62904739379883,0.0052429991774261,-0.005519579630345106,-0.0023030093871057034,40.67300033569336,50.617000579833984,42.287498474121094,50.0369987487793,44.310001373291016,55.69449996948242,1770125358,581005411,X6-tool2,-1.119372866145563,0.4863270627138239,45.07749969277012,0.016615923516595146,-0.05152886534085521,-0.07470228021528115,0.03936958312988281
2026-02-03 21:29:18.702229,1770125358,697944873,1,222550,27,1770125358,701244184,2,237480,69,1770125358,684624428,3,212893,-113,1770125358,687933499,4,220704,-123,1770125358,691285290,5,219463,26,1770125358,694598192,6,224423,-12,-1.3751424551010132,0.5104777812957764,44.62183380126953,-0.004730452783405781,-0.0005899413954466581,-0.0077934879809618,40.708499908447266,50.68550109863281,42.191001892089844,49.93000030517578,44.33700180053711,55.67499923706055,1770125358,681718267,X6-tool2,-1.1681830714443389,0.36494534015632146,45.096460043378734,0.01742387296369749,-0.05244330039592815,-0.07477760897378995,0.03568553924560547
2026-02-03 21:29:18.737299,1770125358,717948500,1,222610,29,1770125358,721270041,2,237629,80,1770125358,724574513,3,212509,-103,1770125358,727934884,4,220177,-127,1770125358,731287395,5,219584,34,1770125358,734600346,6,224335,-27,-1.4287142753601074,0.4289858639240265,44.60414123535156,-0.014734727330505848,-0.005256994627416134,-0.013831921853125095,40.76599884033203,50.83649826049805,41.990501403808594,49.676998138427734,44.38949966430664,55.63949966430664,1770125358,681718267,X6-tool2,-1.1681830714443389,0.36494534015632146,45.096460043378734,0.01742387296369749,-0.05244330039592815,-0.07477760897378995,0.03568553924560547
2026-02-03 21:29:18.772877,1770125358,757950405,1,222764,32,1770125358,761277486,2,238008,85,1770125358,764615537,3,212113,-95,1770125358,767940088,4,219749,-105,1770125358,771286159,5,219705,27,1770125358,754605103,6,224291,-20,-1.4745739698410034,0.34262892603874207,44.59048080444336,-0.025158409029245377,0.0005324498051777482,-0.019872164353728294,40.84299850463867,51.01250076293945,41.78450012207031,49.44350051879883,44.45249938964844,55.592498779296875,1770125358,681718267,X6-tool2,-1.1681830714443389,0.36494534015632146,45.096460043378734,0.01742387296369749,-0.05244330039592815,-0.07477760897378995,0.03568553924560547
2026-02-03 21:29:18.808026,1770125358,797949829,1,222891,31,1770125358,801270590,2,238387,91,1770125358,804616321,3,211772,-84,1770125358,787938665,4,219529,-102,1770125358,791286056,5,219771,36,1770125358,794605507,6,224209,-20,-1.5182600021362305,0.25719544291496277,44.579803466796875,-0.025158409029245377,0.0005324498051777482,-0.019872164353728294,40.90650177001953,51.19649887084961,41.60049819946289,49.2239990234375,44.51599884033203,55.55149841308594,1770125358,780999703,X6-tool2,-1.2421934566596409,0.29914518290343267,44.99854597878946,0.014427940401922558,-0.05552273943573345,-0.07521229105272752,0.03930346295237541
2026-02-03 21:29:18.843952,1770125358,837908953,1,223017,30,1770125358,841230134,2,238722,85,1770125358,824613798,3,211608,-79,1770125358,827935639,4,219095,-98,1770125358,831285241,5,219891,27,1770125358,834587622,6,224143,-15,-1.54033362865448,0.2150653749704361,44.575252532958984,-0.016753656789660454,-0.004651018884032965,-0.02354280650615692,40.94200134277344,51.290000915527344,41.52349853515625,49.117000579833984,44.55400085449219,55.53499984741211,1770125358,780999703,X6-tool2,-1.2421934566596409,0.29914518290343267,44.99854597878946,0.014427940401922558,-0.05552273943573345,-0.07521229105272752,0.03930346295237541
2026-02-03 21:29:18.880007,1770125358,877937837,1,223160,38,1770125358,861228301,2,238898,84,1770125358,864564252,3,211267,-79,1770125358,867934644,4,218650,-64,1770125358,871285345,5,220023,44,1770125358,874602206,6,224088,-11,-1.5860145092010498,0.13510912656784058,44.56266784667969,-0.01826983503997326,-0.021541953086853027,-0.02419275790452957,41.002498626708984,51.45750045776367,41.36149978637695,48.89699935913086,44.60100173950195,55.50199890136719,1770125358,780999703,X6-tool2,-1.2421934566596409,0.29914518290343267,44.99854597878946,0.014427940401922558,-0.05552273943573345,-0.07521229105272752,0.03930346295237541
2026-02-03 21:29:18.915973,1770125358,897949344,1,223220,28,1770125358,901283546,2,239216,90,1770125358,904620297,3,210905,-98,1770125358,907921818,4,218238,-100,1770125358,911286479,5,220177,46,1770125358,914604710,6,224028,-9,-1.6308329105377197,0.05662931874394417,44.55168533325195,-0.01826983503997326,-0.021541953086853027,-0.02419275790452957,41.07099914550781,51.627498626708984,41.18600082397461,48.68550109863281,44.67499923706055,55.4744987487793,1770125358,889565061,X6-tool2,-1.3241898533779515,0.08566519204628643,45.01461566959197,0.012595009635449543,-0.05659486065374295,-0.0759958169713828,0.04238700866699219
2026-02-03 21:29:18.951136,1770125358,937949239,1,223319,27,1770125358,941268740,2,239562,77,1770125358,944585191,3,210520,-90,1770125358,947938632,4,217771,-113,1770125358,931286276,5,220276,48,1770125358,934601458,6,224006,-8,-1.6790382862091064,-0.02303977869451046,44.53916549682617,-0.01634543389081955,-0.0007119897636584938,-0.02313583716750145,41.12049865722656,51.79800033569336,40.98550033569336,48.4630012512207,44.76850128173828,55.45000076293945,1770125358,889565061,X6-tool2,-1.3241898533779515,0.08566519204628643,45.01461566959197,0.012595009635449543,-0.05659486065374295,-0.0759958169713828,0.04238700866699219
2026-02-03 21:29:18.986840,1770125358,977950493,1,223440,29,1770125358,981275254,2,239903,76,1770125358,984614815,3,210152,-85,1770125358,967938520,4,217518,-135,1770125358,971285411,5,220413,42,1770125358,974604502,6,223951,-8,-1.7320045232772827,-0.10255125164985657,44.52124786376953,-0.023458978161215782,-0.006387787871062756,-0.027814095839858055,41.180999755859375,51.954498291015625,40.80149841308594,48.21849822998047,44.83700180053711,55.42250061035156,1770125358,889565061,X6-tool2,-1.3241898533779515,0.08566519204628643,45.01461566959197,0.012595009635449543,-0.05659486065374295,-0.0759958169713828,0.04238700866699219
2026-02-03 21:29:19.022840,1770125359,17949097,1,223555,39,1770125359,21250599,2,240227,89,1770125359,4615683,3,209976,-90,1770125359,7941764,4,217051,-108,1770125359,11287135,5,220633,62,1770125359,14606796,6,223896,-12,-1.7586238384246826,-0.1463399976491928,44.51371383666992,-0.009770374745130539,-0.006847520358860493,-0.03325719013810158,41.202999114990234,52.04800033569336,40.7135009765625,48.095001220703125,44.891998291015625,55.40850067138672,1770125358,989128907,X6-tool2,-1.4012417711204577,-0.06820732272849003,44.967787835354756,0.012797074112654919,-0.05822024284800925,-0.07658387633373523,0.03895251080393791
2026-02-03 21:29:19.058183,1770125359,37949694,1,223627,35,1770125359,41273866,2,240408,82,1770125359,44617347,3,209619,-86,1770125359,47938638,4,216672,-96,1770125359,51286329,5,220781,26,1770125359,54607000,6,223830,-14,-1.8005911111831665,-0.2211693674325943,44.501312255859375,-0.013716275803744793,0.011418264359235764,-0.044461943209171295,41.27450180053711,52.209999084472656,40.53499984741211,47.891998291015625,44.99100112915039,55.378501892089844,1770125358,989128907,X6-tool2,-1.4012417711204577,-0.06820732272849003,44.967787835354756,0.012797074112654919,-0.05822024284800925,-0.07658387633373523,0.03895251080393791
2026-02-03 21:29:19.093873,1770125359,77950819,1,223759,37,1770125359,81276310,2,240771,97,1770125359,84615831,3,209257,-89,1770125359,87939303,4,216260,-109,1770125359,91280044,5,220941,43,1770125359,74605978,6,223808,-11,-1.8409959077835083,-0.29926785826683044,44.492183685302734,-0.019072024151682854,0.015474638901650906,-0.03314616158604622,41.34049987792969,52.39149856567383,40.35649871826172,47.696998596191406,45.05950164794922,55.35100173950195,1770125359,88941873,X6-tool2,-1.6215625744408082,-0.2217550029319511,44.80010654444138,0.010647471429509198,-0.059999856160892026,-0.07752801548484146,0.028476715087890625
2026-02-03 21:29:19.129897,1770125359,117947693,1,223857,18,1770125359,121228304,2,241172,107,1770125359,124599676,3,208922,-78,1770125359,127908167,4,215771,-140,1770125359,111255921,5,221028,46,1770125359,114614202,6,223764,-7,-1.8888248205184937,-0.3821394145488739,44.4806022644043,-0.005536860320717096,0.011982839554548264,-0.022427236661314964,41.38949966430664,52.58100128173828,40.18349838256836,47.47700119018555,45.144500732421875,55.32899856567383,1770125359,88941873,X6-tool2,-1.6215625744408082,-0.2217550029319511,44.80010654444138,0.010647471429509198,-0.059999856160892026,-0.07752801548484146,0.028476715087890625
2026-02-03 21:29:19.166045,1770125359,157901428,1,223962,31,1770125359,161229599,2,241556,94,1770125359,164563570,3,208619,-75,1770125359,147927334,4,215574,-108,1770125359,151260685,5,221215,36,1770125359,154587536,6,223715,-12,-1.918123722076416,-0.428398460149765,44.47227478027344,0.007843478582799435,0.004681610967963934,-0.024598732590675354,41.41450119018555,52.682498931884766,40.0984992980957,47.345001220703125,45.199501037597656,55.31800079345703,1770125359,88941873,X6-tool2,-1.6215625744408082,-0.2217550029319511,44.80010654444138,0.010647471429509198,-0.059999856160892026,-0.07752801548484146,0.028476715087890625
2026-02-03 21:29:19.202165,1770125359,197899822,1,224149,61,1770125359,201228063,2,241930,85,1770125359,184657587,3,208438,-92,1770125359,188052368,4,215156,-111,1770125359,191256289,5,221380,45,1770125359,194585781,6,223649,-16,-1.957681655883789,-0.508874237537384,44.46307373046875,0.01609017327427864,-0.0006829164922237396,-0.019136682152748108,41.486000061035156,52.8745002746582,39.946998596191406,47.150001525878906,45.27399826049805,55.28799819946289,1770125359,187753328,X6-tool2,-1.66921589694504,-0.40367167565265594,44.7668565071919,0.011027455308572146,-0.06217813443159962,-0.07747607665871029,0.04328950121998787
2026-02-03 21:29:19.237128,1770125359,217902119,1,224253,28,1770125359,221252720,2,242100,81,1770125359,224566721,3,208092,-93,1770125359,227918613,4,214667,-136,1770125359,231251244,5,221556,48,1770125359,234585785,6,223588,-13,-2.0052638053894043,-0.5934228301048279,44.44748306274414,-0.009028634987771511,-0.010831034742295742,-0.041219718754291534,41.587501525878906,53.061500549316406,39.77399826049805,46.919498443603516,45.36149978637695,55.255001068115234,1770125359,187753328,X6-tool2,-1.66921589694504,-0.40367167565265594,44.7668565071919,0.011027455308572146,-0.06217813443159962,-0.07747607665871029,0.04328950121998787
2026-02-03 21:29:19.272914,1770125359,257899803,1,224363,29,1770125359,261254194,2,242441,99,1770125359,264566086,3,207686,-100,1770125359,267907897,4,214200,-113,1770125359,271256338,5,221743,42,1770125359,254588012,6,223561,-14,-2.0591907501220703,-0.6730288863182068,44.42609786987305,-0.010748099535703659,-0.006687153596431017,-0.04645249992609024,41.64250183105469,53.22100067138672,39.57899856567383,46.669498443603516,45.45800018310547,55.227500915527344,1770125359,187753328,X6-tool2,-1.66921589694504,-0.40367167565265594,44.7668565071919,0.011027455308572146,-0.06217813443159962,-0.07747607665871029,0.04328950121998787
2026-02-03 21:29:19.307870,1770125359,297959638,1,224489,29,1770125359,301255199,2,242836,118,1770125359,304565910,3,207339,-80,1770125359,287921944,4,214030,-80,1770125359,291323445,5,221836,45,1770125359,294651356,6,223533,-5,-2.1025753021240234,-0.7493909597396851,44.41667556762695,-0.01722734421491623,0.005450769327580929,-0.028762709349393845,41.705501556396484,53.407501220703125,39.39250183105469,46.4744987487793,45.548500061035156,55.2135009765625,1770125359,286993254,X6-tool2,-1.7279948022524314,-0.49275683606718845,44.7405101959042,0.009939997517228245,-0.06421875055425631,-0.07817194271863294,0.042603492736816406
2026-02-03 21:29:19.343900,1770125359,337902612,1,224643,32,1770125359,341226383,2,243221,102,1770125359,324567127,3,207169,-75,1770125359,327921278,4,213679,-109,1770125359,331256919,5,222056,51,1770125359,334586461,6,223511,-10,-2.1416923999786377,-0.8264877200126648,44.41191482543945,-0.01832326501607895,0.017491012811660767,-0.014670761302113533,41.782501220703125,53.611000061035156,39.22200012207031,46.29899978637695,45.65850067138672,55.20249938964844,1770125359,286993254,X6-tool2,-1.7279948022524314,-0.49275683606718845,44.7405101959042,0.009939997517228245,-0.06421875055425631,-0.07817194271863294,0.042603492736816406
2026-02-03 21:29:19.379444,1770125359,377895096,1,224753,27,1770125359,361226220,2,243424,85,1770125359,364564361,3,206862,-77,1770125359,367923023,4,213206,-136,1770125359,371325194,5,222281,51,1770125359,374586275,6,223473,0,-2.1654233932495117,-0.8674477934837341,44.40491485595703,-0.01832326501607895,0.017491012811660767,-0.014670761302113533,41.8125,53.707000732421875,39.14500045776367,46.18899917602539,45.7135009765625,55.19150161743164,1770125359,286993254,X6-tool2,-1.7279948022524314,-0.49275683606718845,44.7405101959042,0.009939997517228245,-0.06421875055425631,-0.07817194271863294,0.042603492736816406
2026-02-03 21:29:19.414689,1770125359,397899453,1,224819,33,1770125359,401228575,2,243814,106,1770125359,404619256,3,206554,-77,1770125359,407954427,4,212728,-134,1770125359,411235688,5,222495,48,1770125359,394585542,6,223451,-13,-2.217665195465088,-0.951893150806427,44.38874053955078,0.00030811349279247224,0.008074632845818996,-0.019130544736981392,41.87049865722656,53.902000427246094,38.99150085449219,45.95249938964844,45.82600021362305,55.17250061035156,1770125359,386750859,X6-tool2,-1.8383796736854074,-0.6008850667132355,44.64325213317117,0.009252737300150669,-0.06648779345660322,-0.07866353494138734,0.040625572204589844
2026-02-03 21:29:19.450654,1770125359,437922578,1,225000,58,1770125359,441255599,2,244254,117,1770125359,444560390,3,206224,-83,1770125359,447922651,4,212327,-110,1770125359,431231005,5,222599,54,1770125359,434586066,6,223418,-1,-2.2681100368499756,-1.0384458303451538,44.37544631958008,-0.0018886909820139408,-0.00832608062773943,-0.027908392250537872,41.96099853515625,54.11349868774414,38.829498291015625,45.724998474121094,45.93000030517578,55.15599822998047,1770125359,386750859,X6-tool2,-1.8383796736854074,-0.6008850667132355,44.64325213317117,0.009252737300150669,-0.06648779345660322,-0.07866353494138734,0.040625572204589844
2026-02-03 21:29:19.486484,1770125359,477926872,1,225137,30,1770125359,481254523,2,244644,93,1770125359,484620034,3,205889,-70,1770125359,467918548,4,212119,-110,1770125359,471286160,5,222852,63,1770125359,474652941,6,223380,-5,-2.289663553237915,-1.081301212310791,44.370574951171875,-0.0018886909820139408,-0.00832608062773943,-0.027908392250537872,41.9995002746582,54.2234992980957,38.7495002746582,45.62300109863281,45.993499755859375,55.14500045776367,1770125359,386750859,X6-tool2,-1.8383796736854074,-0.6008850667132355,44.64325213317117,0.009252737300150669,-0.06648779345660322,-0.07866353494138734,0.040625572204589844
2026-02-03 21:29:19.523970,1770125359,517897826,1,225280,42,1770125359,521229477,2,244990,102,1770125359,504564721,3,205735,-82,1770125359,507919333,4,211679,-120,1770125359,511231474,5,223077,65,1770125359,514587225,6,223363,0,-2.3376009464263916,-1.160359263420105,44.357818603515625,0.012491615489125252,-0.005393852014094591,-0.02179940976202488,42.0625,54.41849899291992,38.582000732421875,45.4114990234375,46.11149978637695,55.13399887084961,1770125359,486103925,X6-tool2,-2.000145711583262,-0.8866495640191219,44.55775835243609,0.008393760536491372,-0.06821374850164764,-0.07982385176120305,0.042942047119140625
2026-02-03 21:29:19.560046,1770125359,557887091,1,225467,55,1770125359,541255425,2,245182,99,1770125359,544564916,3,205400,-82,1770125359,547920737,4,211245,-127,1770125359,551230478,5,223341,58,1770125359,554585609,6,223336,-10,-2.388418197631836,-1.2360901832580566,44.34002685546875,0.003374006599187851,-0.005808246321976185,-0.03909466043114662,42.14250183105469,54.59149932861328,38.425498962402344,45.186500549316406,46.23500061035156,55.12049865722656,1770125359,486103925,X6-tool2,-2.000145711583262,-0.8866495640191219,44.55775835243609,0.008393760536491372,-0.06821374850164764,-0.07982385176120305,0.042942047119140625
2026-02-03 21:29:19.595623,1770125359,577893558,1,225555,43,1770125359,581254859,2,245621,99,1770125359,584561620,3,205049,-83,1770125359,587939331,4,210877,-90,1770125359,591231463,5,223594,67,1770125359,594590094,6,223314,0,-2.433396577835083,-1.3169752359390259,44.32984161376953,-0.015312273055315018,0.0057606627233326435,-0.03600300848484039,42.23849868774414,54.803001403808594,38.24449920654297,44.986000061035156,46.35850143432617,55.109500885009766,1770125359,585513650,X6-tool2,-2.066710171334078,-0.9442871241105779,44.56383062485686,0.005771101631524087,-0.06904239634269617,-0.08141628701728677,0.04573218151926994
2026-02-03 21:29:19.630910,1770125359,617898042,1,225775,35,1770125359,621254943,2,246083,104,1770125359,624582774,3,204686,-90,1770125359,627921456,4,210701,-2,1770125359,611232079,5,223748,76,1770125359,614618811,6,223308,-3,-2.4748005867004395,-1.3967697620391846,44.3228645324707,-0.03529462590813637,0.02529757283627987,-0.04144221171736717,42.3484992980957,55.022499084472656,38.07400131225586,44.801998138427734,46.50450134277344,55.10100173950195,1770125359,585513650,X6-tool2,-2.066710171334078,-0.9442871241105779,44.56383062485686,0.005771101631524087,-0.06904239634269617,-0.08141628701728677,0.04573218151926994
2026-02-03 21:29:19.666700,1770125359,657911586,1,225786,0,1770125359,661227868,2,246033,-6,1770125359,664564499,3,204675,5,1770125359,647940143,4,210718,10,1770125359,651256384,5,223522,-75,1770125359,654652515,6,222863,-102,-2.4125471115112305,-1.4488099813461304,44.31383514404297,-0.015011928044259548,0.04899026080965996,0.005727909505367279,42.354000091552734,55.12699890136719,37.97249984741211,44.81850051879883,46.39149856567383,54.878501892089844,1770125359,585513650,X6-tool2,-2.066710171334078,-0.9442871241105779,44.56383062485686,0.005771101631524087,-0.06904239634269617,-0.08141628701728677,0.04573218151926994
2026-02-03 21:29:19.702511,1770125359,697895761,1,225780,0,1770125359,701255082,2,245967,-13,1770125359,684561086,3,204708,18,1770125359,687921277,4,210828,40,1770125359,691232068,5,223116,-106,1770125359,694596619,6,222402,-132,-2.3824093341827393,-1.458919644355774,44.30258560180664,-0.013517707586288452,0.028946276754140854,0.0039277770556509495,42.35100173950195,55.112998962402344,37.974998474121094,44.826499938964844,46.28450012207031,54.76850128173828,1770125359,684957406,X6-tool2,-2.0980365627701105,-1.0673749709992568,44.53789199804415,0.004011588802142498,-0.0702012731900007,-0.08061651966071971,0.04561583325266838
2026-02-03 21:29:19.737750,1770125359,717922248,1,225780,0,1770125359,721231269,2,245918,-26,1770125359,724575910,3,204736,12,1770125359,727933501,4,211064,55,1770125359,731219282,5,222682,-108,1770125359,734581934,6,221902,-124,-2.2934091091156006,-1.467463493347168,44.29180145263672,-0.011921191588044167,0.025738079100847244,0.008567784912884235,42.35100173950195,55.08000183105469,37.99449920654297,44.936500549316406,46.073001861572266,54.527000427246094,1770125359,684957406,X6-tool2,-2.0980365627701105,-1.0673749709992568,44.53789199804415,0.004011588802142498,-0.0702012731900007,-0.08061651966071971,0.04561583325266838
2026-02-03 21:29:19.773751,1770125359,757874482,1,225775,0,1770125359,761254093,2,245770,-25,1770125359,764543184,3,204807,0,1770125359,767917166,4,211289,48,1770125359,771282317,5,222242,-113,1770125359,754661011,6,221655,-137,-2.2000787258148193,-1.466455340385437,44.276573181152344,-0.006273456383496523,0.025603575631976128,-0.010362371802330017,42.3484992980957,55.00600051879883,38.03850173950195,45.054500579833984,45.867000579833984,54.27450180053711,1770125359,684957406,X6-tool2,-2.0980365627701105,-1.0673749709992568,44.53789199804415,0.004011588802142498,-0.0702012731900007,-0.08061651966071971,0.04561583325266838
2026-02-03 21:29:19.809412,1770125359,797879406,1,225769,0,1770125359,801227318,2,245594,-53,1770125359,804546499,3,204890,32,1770125359,807917980,4,211558,72,1770125359,791294174,5,221984,-126,1770125359,794587745,6,221133,-131,-2.105792999267578,-1.4712789058685303,44.2608757019043,-0.01400070171803236,0.021437276154756546,-0.004656387493014336,42.34550094604492,54.94850158691406,38.051998138427734,45.16699981689453,45.622501373291016,54.01350021362305,1770125359,784432901,X6-tool2,-2.052547660703126,-1.1016396515187088,44.446216578540316,0.006144184781566197,-0.06753041197138018,-0.07793030178837954,0.04335784912109375
2026-02-03 21:29:19.844469,1770125359,837895131,1,225775,0,1770125359,841253812,2,245490,-25,1770125359,824561486,3,204906,10,1770125359,827917067,4,211663,53,1770125359,831233228,5,221484,-100,1770125359,834585619,6,220638,-118,-2.0576794147491455,-1.4638688564300537,44.25351333618164,-0.031207945197820663,0.006349689327180386,-0.007013190537691116,42.3484992980957,54.89350128173828,38.08250045776367,45.23849868774414,45.471500396728516,53.89250183105469,1770125359,784432901,X6-tool2,-2.052547660703126,-1.1016396515187088,44.446216578540316,0.006144184781566197,-0.06753041197138018,-0.07793030178837954,0.04335784912109375
2026-02-03 21:29:19.880487,1770125359,877874215,1,225775,0,1770125359,861227759,2,245424,-40,1770125359,864541680,3,205010,36,1770125359,867916481,4,211932,68,1770125359,871290492,5,221072,-108,1770125359,874584444,6,220150,-119,-1.9655369520187378,-1.4680548906326294,44.23936080932617,-0.029666440561413765,0.010239684954285622,-0.010658024810254574,42.34550094604492,54.84149932861328,38.106998443603516,45.354000091552734,45.26850128173828,53.64250183105469,1770125359,784432901,X6-tool2,-2.052547660703126,-1.1016396515187088,44.446216578540316,0.006144184781566197,-0.06753041197138018,-0.07793030178837954,0.04335784912109375
2026-02-03 21:29:19.916176,1770125359,897896082,1,225775,0,1770125359,901384143,2,245303,-37,1770125359,904673775,3,205071,16,1770125359,908048596,4,212162,62,1770125359,911340407,5,220671,-91,1770125359,914715258,6,219688,-118,-1.8745299577713013,-1.4660102128982544,44.22773742675781,-0.021307718008756638,0.008254794403910637,-0.01897217333316803,42.3484992980957,54.78099822998047,38.15650177001953,45.483001708984375,45.070499420166016,53.409000396728516,1770125359,883956047,X6-tool2,-1.7576590980105793,-1.2155944947145256,44.544098801488246,0.007053119117466932,-0.06390101216127417,-0.07522839941460513,0.04065672680735588
2026-02-03 21:29:19.951251,1770125359,937879836,1,225725,-19,1770125359,941253698,2,245127,-36,1770125359,944566229,3,205148,15,1770125359,947916760,4,212426,67,1770125359,931228284,5,220446,-119,1770125359,934582845,6,219441,-123,-1.7804739475250244,-1.4587814807891846,44.21342086791992,-0.009544964879751205,0.013506435789167881,-0.016968928277492523,42.32350158691406,54.69850158691406,38.1974983215332,45.61750030517578,44.85350036621094,53.16749954223633,1770125359,883956047,X6-tool2,-1.7576590980105793,-1.2155944947145256,44.544098801488246,0.007053119117466932,-0.06390101216127417,-0.07522839941460513,0.04065672680735588
2026-02-03 21:29:19.986957,1770125359,977935131,1,225742,0,1770125359,981255102,2,245023,-27,1770125359,984628813,3,205241,21,1770125359,967948147,4,212563,47,1770125359,971342668,5,219985,-128,1770125359,974650969,6,218969,-119,-1.6904388666152954,-1.45574951171875,44.1990852355957,-0.023029254749417305,0.00581967132166028,-0.019449636340141296,42.332000732421875,54.630001068115234,38.23350143432617,45.74100112915039,44.62300109863281,52.93149948120117,1770125359,983515423,X6-tool2,-1.5977961552082507,-1.195118769712628,44.504723635229034,0.006573750959822687,-0.06090780112442649,-0.0726418209581369,0.03855736926198006
2026-02-03 21:29:20.022579,1770125360,17877145,1,225742,0,1770125360,21251556,2,244924,-27,1770125360,4615430,3,205280,18,1770125360,7945701,4,212805,56,1770125360,11231213,5,219562,-98,1770125360,14581864,6,218458,-124,-1.6379127502441406,-1.4584574699401855,44.19232940673828,-0.014110688120126724,0.003292868612334132,-0.01743978261947632,42.32899856567383,54.608001708984375,38.257999420166016,45.8125,44.50749969482422,52.79399871826172,1770125359,983515423,X6-tool2,-1.5977961552082507,-1.195118769712628,44.504723635229034,0.006573750959822687,-0.06090780112442649,-0.0726418209581369,0.03855736926198006
2026-02-03 21:29:20.057825,1770125360,37902902,1,225747,0,1770125360,41282133,2,244874,-25,1770125360,44617234,3,205373,31,1770125360,47986086,4,213085,82,1770125360,51295317,5,219150,-101,1770125360,54651278,6,217958,-114,-1.5488303899765015,-1.4631267786026,44.17640686035156,-0.011273805052042007,3.9414990169461817e-05,-0.0246350709348917,42.33449935913086,54.55849838256836,38.29899978637695,45.92250061035156,44.310001373291016,52.54949951171875,1770125359,983515423,X6-tool2,-1.5977961552082507,-1.195118769712628,44.504723635229034,0.006573750959822687,-0.06090780112442649,-0.0726418209581369,0.03855736926198006
2026-02-03 21:29:20.093804,1770125360,77903106,1,225753,8,1770125360,81254508,2,244770,-25,1770125360,84561509,3,205466,23,1770125360,87951060,4,213376,81,1770125360,91235411,5,218699,-107,1770125360,74583905,6,217722,-120,-1.4513849020004272,-1.4611400365829468,44.165767669677734,0.0009770883480086923,0.0015389847103506327,-0.024139367043972015,42.337501525878906,54.50600051879883,38.3484992980957,46.07099914550781,44.0984992980957,52.30799865722656,1770125360,82774338,X6-tool2,-1.4560171658126417,-1.2901916288666702,44.40306390342602,0.006857565914268429,-0.05782268124110733,-0.07038937619650087,0.04840850830078125
2026-02-03 21:29:20.129125,1770125360,117895871,1,225753,0,1770125360,121253802,2,244655,-27,1770125360,124542813,3,205560,26,1770125360,127919774,4,213684,75,1770125360,111230138,5,218474,-104,1770125360,114585050,6,217249,-112,-1.3515605926513672,-1.4555493593215942,44.157325744628906,-0.0028922068886458874,0.000538791879080236,-0.008015426807105541,42.337501525878906,54.45100021362305,38.39250183105469,46.23550033569336,43.86750030517578,52.07149887084961,1770125360,82774338,X6-tool2,-1.4560171658126417,-1.2901916288666702,44.40306390342602,0.006857565914268429,-0.05782268124110733,-0.07038937619650087,0.04840850830078125
2026-02-03 21:29:20.164082,1770125360,157876785,1,225764,0,1770125360,161251966,2,244583,-19,1770125360,144544610,3,205604,20,1770125360,147897331,4,213849,75,1770125360,151243123,5,218090,-84,1770125360,154582894,6,216788,-118,-1.3062901496887207,-1.454811692237854,44.150943756103516,-0.0028922068886458874,0.000538791879080236,-0.008015426807105541,42.34000015258789,54.42399978637695,38.41749954223633,46.30149841308594,43.77149963378906,51.95600128173828,1770125360,82774338,X6-tool2,-1.4560171658126417,-1.2901916288666702,44.40306390342602,0.006857565914268429,-0.05782268124110733,-0.07038937619650087,0.04840850830078125
2026-02-03 21:29:20.200017,1770125360,197897169,1,225769,5,1770125360,181226963,2,244528,-27,1770125360,184568485,3,205708,23,1770125360,187923006,4,214135,59,1770125360,191232897,5,217711,-91,1770125360,194584748,6,216304,-123,-1.2031108140945435,-1.4534316062927246,44.14443588256836,0.016610506922006607,0.01669113151729107,0.00011984312732238322,42.34299850463867,54.38800048828125,38.46699905395508,46.4744987487793,43.582000732421875,51.714500427246094,1770125360,182192304,X6-tool2,-1.2453861731687728,-1.3446045375677935,44.412807243969006,0.00540155566650351,-0.05377429399168551,-0.06860398091728778,0.03877289965748787
2026-02-03 21:29:20.235250,1770125360,217877336,1,225780,10,1770125360,221226638,2,244451,-18,1770125360,224635269,3,205790,18,1770125360,227945490,4,214365,64,1770125360,231230231,5,217249,-130,1770125360,234582862,6,215810,-119,-1.1158605813980103,-1.4594165086746216,44.127193450927734,0.02143046073615551,0.011397921480238438,-0.005822159815579653,42.35100173950195,54.34400177001953,38.510501861572266,46.58150100708008,43.38399887084961,51.472999572753906,1770125360,182192304,X6-tool2,-1.2453861731687728,-1.3446045375677935,44.412807243969006,0.00540155566650351,-0.05377429399168551,-0.06860398091728778,0.03877289965748787
2026-02-03 21:29:20.270670,1770125360,257879441,1,225791,0,1770125360,261228342,2,244385,-14,1770125360,264564323,3,205878,17,1770125360,267918265,4,214618,61,1770125360,251240508,5,216996,-137,1770125360,254582450,6,215563,-117,-1.0225770473480225,-1.4625920057296753,44.11243438720703,0.022856561467051506,-0.01768992841243744,0.008939158171415329,42.35649871826172,54.29999923706055,38.554500579833984,46.71099853515625,43.128501892089844,51.22850036621094,1770125360,182192304,X6-tool2,-1.2453861731687728,-1.3446045375677935,44.412807243969006,0.00540155566650351,-0.05377429399168551,-0.06860398091728778,0.03877289965748787
2026-02-03 21:29:20.306799,1770125360,297879805,1,225813,6,1770125360,301225436,2,244292,-27,1770125360,304541387,3,205955,19,1770125360,287917921,4,214750,70,1770125360,291213663,5,216623,-90,1770125360,294555934,6,215096,-116,-0.9334190487861633,-1.4693530797958374,44.09943389892578,0.030173227190971375,-0.022433195263147354,0.009606007486581802,42.36750030517578,54.272499084472656,38.59600067138672,46.83449935913086,42.94200134277344,50.994998931884766,1770125360,281704469,X6-tool2,-1.0257684330948598,-1.4289947048319067,44.30573719012122,0.007230205690511082,-0.053182548599574414,-0.06619004675490091,0.039147377014160156
2026-02-03 21:29:20.342093,1770125360,337909110,1,225851,11,1770125360,341254401,2,244221,-21,1770125360,324566305,3,205988,16,1770125360,328047296,4,215052,83,1770125360,331237327,5,216255,-95,1770125360,334590528,6,214656,-112,-0.8416475057601929,-1.4655362367630005,44.089576721191406,0.03343736752867699,-0.00811134185642004,0.011924107559025288,42.38650131225586,54.22600173950195,38.631500244140625,46.98550033569336,42.757999420166016,50.775001525878906,1770125360,281704469,X6-tool2,-1.0257684330948598,-1.4289947048319067,44.30573719012122,0.007230205690511082,-0.053182548599574414,-0.06619004675490091,0.039147377014160156
2026-02-03 21:29:20.377611,1770125360,357877807,1,225884,15,1770125360,361252958,2,244182,-20,1770125360,364544429,3,206093,31,1770125360,367904620,4,215365,50,1770125360,371239981,5,215859,-106,1770125360,374583903,6,214195,-118,-0.7954571843147278,-1.4652637243270874,44.08442687988281,0.0273518618196249,-0.0010386761277914047,0.016797484830021858,42.40299987792969,54.207000732421875,38.653499603271484,47.05950164794922,42.66450119018555,50.662498474121094,1770125360,281704469,X6-tool2,-1.0257684330948598,-1.4289947048319067,44.30573719012122,0.007230205690511082,-0.053182548599574414,-0.06619004675490091,0.039147377014160156
2026-02-03 21:29:20.413660,1770125360,397873951,1,225945,10,1770125360,401226422,2,244105,-29,1770125360,404546183,3,206197,26,1770125360,407919455,4,215673,76,1770125360,411214626,5,215453,-97,1770125360,394581880,6,213964,-113,-0.6976293325424194,-1.4651681184768677,44.07526397705078,0.023087793961167336,-0.0042267306707799435,0.024280432611703873,42.43349838256836,54.17399978637695,38.708499908447266,47.221500396728516,42.452999114990234,50.42900085449219,1770125360,381351985,X6-tool2,-0.8285622636836205,-1.5561095306571773,44.299106014408004,0.006246614219485232,-0.050433944121772246,-0.06531284478249795,0.03945986554026604
2026-02-03 21:29:20.449389,1770125360,437900485,1,225994,12,1770125360,441256187,2,243929,-51,1770125360,444569658,3,206301,26,1770125360,447917339,4,215931,71,1770125360,431233663,5,215266,-92,1770125360,434584274,6,213470,-117,-0.6026337146759033,-1.4624723196029663,44.057464599609375,0.026147624477744102,0.0006569806137122214,0.00790308229625225,42.45800018310547,54.11050033569336,38.76350021362305,47.35900115966797,42.26350021362305,50.18199920654297,1770125360,381351985,X6-tool2,-0.8285622636836205,-1.5561095306571773,44.299106014408004,0.006246614219485232,-0.050433944121772246,-0.06531284478249795,0.03945986554026604
2026-02-03 21:29:20.485250,1770125360,478028940,1,226033,10,1770125360,481258641,2,243869,-19,1770125360,484580802,3,206395,21,1770125360,468051936,4,216085,74,1770125360,471350947,5,214893,-104,1770125360,474716668,6,212997,-121,-0.5581603646278381,-1.455805778503418,44.04716873168945,0.02298387885093689,0.007121835369616747,-0.003156179329380393,42.46649932861328,54.06100082397461,38.78799819946289,47.42499923706055,42.17300033569336,50.06650161743164,1770125360,480845010,X6-tool2,-0.5394378615728455,-1.461331005464485,44.31024930711014,0.00560146543691842,-0.04836363280723438,-0.0640696934327254,0.04154396057128906
2026-02-03 21:29:20.520586,1770125360,517884234,1,226099,16,1770125360,501227198,2,243820,-24,1770125360,504549669,3,206433,21,1770125360,507917030,4,216409,80,1770125360,511233381,5,214481,-105,1770125360,514559763,6,212531,-113,-0.4612867534160614,-1.4575854539871216,44.03618240356445,0.021638981997966766,0.00900949351489544,0.006178383715450764,42.496498107910156,54.03099822998047,38.834999084472656,47.58150100708008,41.96950149536133,49.830501556396484,1770125360,480845010,X6-tool2,-0.5394378615728455,-1.461331005464485,44.31024930711014,0.00560146543691842,-0.04836363280723438,-0.0640696934327254,0.04154396057128906
2026-02-03 21:29:20.556285,1770125360,537901921,1,226137,16,1770125360,541232462,2,243748,-20,1770125360,544550833,3,206554,40,1770125360,547919554,4,216749,88,1770125360,551209906,5,214041,-113,1770125360,554584397,6,212075,-117,-0.36029285192489624,-1.4530549049377441,44.02690887451172,0.01016178261488676,0.01797202229499817,0.023415133357048035,42.52949905395508,53.9900016784668,38.87900161743164,47.7599983215332,41.75550079345703,49.59700012207031,1770125360,480845010,X6-tool2,-0.5394378615728455,-1.461331005464485,44.31024930711014,0.00560146543691842,-0.04836363280723438,-0.0640696934327254,0.04154396057128906
2026-02-03 21:29:20.591216,1770125360,577877185,1,226219,15,1770125360,581254817,2,243644,-30,1770125360,584543228,3,206735,33,1770125360,587918159,4,217057,46,1770125360,571232413,5,213843,-105,1770125360,574584224,6,211860,-114,-0.2687111496925354,-1.4485979080200195,44.01496505737305,0.008673222735524178,-0.004146429244428873,0.0115177221596241,42.570499420166016,53.94300079345703,38.96649932861328,47.91400146484375,41.551998138427734,49.37699890136719,1770125360,581101226,X6-tool2,-0.3014814165431732,-1.6229876381911619,44.24138577846016,0.003751104430931775,-0.04860427909896463,-0.06266218303419652,0.03740246966481209
2026-02-03 21:29:20.627050,1770125360,617873979,1,226291,26,1770125360,621253681,2,243539,-23,1770125360,624548022,3,206812,12,1770125360,607941486,4,217172,58,1770125360,611230987,5,213497,-88,1770125360,614584148,6,211393,-123,-0.1790948510169983,-1.4470218420028687,43.997066497802734,0.014132597483694553,-0.005294653587043285,-0.011024846695363522,42.60649871826172,53.88800048828125,39.032501220703125,48.045501708984375,41.37900161743164,49.14350128173828,1770125360,581101226,X6-tool2,-0.3014814165431732,-1.6229876381911619,44.24138577846016,0.003751104430931775,-0.04860427909896463,-0.06266218303419652,0.03740246966481209
2026-02-03 21:29:20.662528,1770125360,657918554,1,226373,24,1770125360,661228305,2,243463,-20,1770125360,644561289,3,206856,19,1770125360,647917170,4,217408,69,1770125360,651227991,5,213140,-85,1770125360,654583043,6,210921,-111,-0.13773536682128906,-1.4493151903152466,43.98701095581055,0.014132597483694553,-0.005294653587043285,-0.011024846695363522,42.6254997253418,53.86600112915039,39.04349899291992,48.097999572753906,41.28850173950195,49.028499603271484,1770125360,581101226,X6-tool2,-0.3014814165431732,-1.6229876381911619,44.24138577846016,0.003751104430931775,-0.04860427909896463,-0.06266218303419652,0.03740246966481209
2026-02-03 21:29:20.697858,1770125360,677874221,1,226412,14,1770125360,681253992,2,243435,-13,1770125360,684541674,3,206955,29,1770125360,687916235,4,217749,95,1770125360,691233626,5,212739,-108,1770125360,694586677,6,210449,-112,-0.043888118118047714,-1.4521613121032715,43.97035217285156,0.008680434897542,0.002161364071071148,-0.01991829089820385,42.66699981689453,53.827999114990234,39.087501525878906,48.237998962402344,41.106998443603516,48.7864990234375,1770125360,680843692,X6-tool2,-0.07258167921766427,-1.5306422546699892,44.31233017921074,0.0015643307620631058,-0.04699420377450461,-0.06204294099402311,0.04211648181080818
2026-02-03 21:29:20.733266,1770125360,717895025,1,226467,15,1770125360,721253276,2,243380,-13,1770125360,724560858,3,207076,32,1770125360,727923109,4,218079,90,1770125360,731215600,5,212360,-106,1770125360,714584504,6,210223,-118,0.053850237280130386,-1.450461983680725,43.960227966308594,0.008835396729409695,0.009046316146850586,-0.006101901177316904,42.69449996948242,53.79750061035156,39.14500045776367,48.4109992980957,40.90650177001953,48.55849838256836,1770125360,680843692,X6-tool2,-0.07258167921766427,-1.5306422546699892,44.31233017921074,0.0015643307620631058,-0.04699420377450461,-0.06204294099402311,0.04211648181080818
2026-02-03 21:29:20.768771,1770125360,757892270,1,226533,18,1770125360,761251961,2,243342,-11,1770125360,764543352,3,207224,23,1770125360,767919673,4,218430,90,1770125360,751248357,5,212168,-99,1770125360,754583948,6,209795,-102,0.15048232674598694,-1.4484230279922485,43.954139709472656,0.021468624472618103,0.0035283644683659077,0.013568180613219738,42.727500915527344,53.778499603271484,39.21649932861328,48.595001220703125,40.714500427246094,48.34450149536133,1770125360,680843692,X6-tool2,-0.07258167921766427,-1.5306422546699892,44.31233017921074,0.0015643307620631058,-0.04699420377450461,-0.06204294099402311,0.04211648181080818
2026-02-03 21:29:20.803747,1770125360,797874204,1,226653,31,1770125360,801254745,2,243298,-7,1770125360,784541209,3,207263,20,1770125360,787917040,4,218595,77,1770125360,791256892,5,211816,-94,1770125360,794584803,6,209366,-117,0.19522517919540405,-1.4484435319900513,43.94948959350586,0.021468624472618103,0.0035283644683659077,0.013568180613219738,42.755001068115234,53.76750183105469,39.2495002746582,48.67449951171875,40.62950134277344,48.2400016784668,1770125360,781063778,X6-tool2,0.07565329605686026,-1.6789775816064192,44.18659665223727,0.0021158609838693144,-0.0478480055303333,-0.060400335597303366,0.04243214800953865
