TCliu030506/rrc_ws/src/x6_pkg/x6_control_python/record/record_20260114_161550.csv
timestamp,out_1_header.stamp.sec,out_1_header.stamp.nanosec,out_1_header.frame_id,out_1_val,out_1_speed,out_2_header.stamp.sec,out_2_header.stamp.nanosec,out_2_header.frame_id,out_2_val,out_2_speed,out_3_header.stamp.sec,out_3_header.stamp.nanosec,out_3_header.frame_id,out_3_val,out_3_speed,out_4_header.stamp.sec,out_4_header.stamp.nanosec,out_4_header.frame_id,out_4_val,out_4_speed,out_5_header.stamp.sec,out_5_header.stamp.nanosec,out_5_header.frame_id,out_5_val,out_5_speed,out_6_header.stamp.sec,out_6_header.stamp.nanosec,out_6_header.frame_id,out_6_val,out_6_speed,x6position_pose_rp[0],x6position_pose_rp[1],x6position_pose_rp[2],x6position_pose_rp[3],x6position_pose_rp[4],x6position_pose_rp[5],x6position_joints[0],x6position_joints[1],x6position_joints[2],x6position_joints[3],x6position_joints[4],x6position_joints[5],aimooe_coord_header.stamp.sec,aimooe_coord_header.stamp.nanosec,aimooe_coord_header.frame_id,aimooe_coord_position.x,aimooe_coord_position.y,aimooe_coord_position.z,aimooe_coord_orientation.x,aimooe_coord_orientation.y,aimooe_coord_orientation.z,aimooe_coord_mean_error
2026-01-14 16:15:26.805434,1768378526,789194423,1,171799,0,1768378526,792550568,2,169294,0,1768378526,795877802,3,175117,0,1768378526,799214705,4,171733,0,1768378526,802542189,5,169497,0,1768378526,785886780,6,157819,0,0.08977337926626205,2.732905149459839,39.001075744628906,0.005384544376283884,-0.0006005858303979039,-0.0006425100145861506,27.676210403442383,31.79349708557129,34.77933120727539,42.147003173828125,33.760250091552734,40.399532318115234,1768378526,804570485,X6-tool2,0.4005257140496894,2.5967199904374296,39.095499253876376,-0.009973764643017581,0.031967901465378326,0.03658926263502647,0.06517251580953598
2026-01-14 16:15:26.841523,1768378526,829211871,1,171799,0,1768378526,832550895,2,169294,0,1768378526,835884980,3,175117,0,1768378526,839224823,4,171733,0,1768378526,822545744,5,169497,0,1768378526,825886528,6,157819,0,0.08977337926626205,2.732905149459839,39.001075744628906,0.005384544376283884,-0.0006005858303979039,-0.0006425100145861506,27.676210403442383,31.79349708557129,34.77933120727539,42.147003173828125,33.760250091552734,40.399532318115234,1768378526,804570485,X6-tool2,0.4005257140496894,2.5967199904374296,39.095499253876376,-0.009973764643017581,0.031967901465378326,0.03658926263502647,0.06517251580953598
2026-01-14 16:15:26.878103,1768378526,869212368,1,171799,0,1768378526,872568983,2,169294,0,1768378526,875878346,3,175117,0,1768378526,859235438,4,171733,0,1768378526,862543800,5,169497,0,1768378526,865899735,6,157819,0,0.08977337926626205,2.732905149459839,39.001075744628906,0.005384544376283884,-0.0006005858303979039,-0.0006425100145861506,27.676210403442383,31.79349708557129,34.77933120727539,42.147003173828125,33.760250091552734,40.399532318115234,1768378526,804570485,X6-tool2,0.4005257140496894,2.5967199904374296,39.095499253876376,-0.009973764643017581,0.031967901465378326,0.03658926263502647,0.06517251580953598
2026-01-14 16:15:26.914074,1768378526,909218996,1,171799,0,1768378526,912543079,2,169294,0,1768378526,895883630,3,175117,0,1768378526,899235115,4,171733,0,1768378526,902550658,5,169497,0,1768378526,905902953,6,157819,0,0.08977337926626205,2.732905149459839,39.001075744628906,0.005384544376283884,-0.0006005858303979039,-0.0006425100145861506,27.676210403442383,31.79349708557129,34.77933120727539,42.147003173828125,33.760250091552734,40.399532318115234,1768378526,904287753,X6-tool2,0.409019931084842,2.627084699376439,39.05898429699291,-0.009406494167168671,0.031671343238020476,0.03648897031304761,0.06705697625875473
2026-01-14 16:15:26.950994,1768378526,949217474,1,171799,0,1768378526,932566934,2,169294,0,1768378526,935890548,3,175117,0,1768378526,939231632,4,171733,0,1768378526,942556136,5,169497,0,1768378526,945899900,6,157819,0,0.08977337926626205,2.732905149459839,39.001075744628906,0.005384544376283884,-0.0006005858303979039,-0.0006425100145861506,27.676210403442383,31.79349708557129,34.77933120727539,42.147003173828125,33.760250091552734,40.399532318115234,1768378526,904287753,X6-tool2,0.409019931084842,2.627084699376439,39.05898429699291,-0.009406494167168671,0.031671343238020476,0.03648897031304761,0.06705697625875473
2026-01-14 16:15:26.986926,1768378526,969214837,1,171799,0,1768378526,972566262,2,169294,0,1768378526,975884965,3,175117,0,1768378526,979232810,4,171733,0,1768378526,982548003,5,169497,0,1768378526,985894227,6,157819,0,0.08977337926626205,2.732905149459839,39.001075744628906,0.005384544376283884,-0.0006005858303979039,-0.0006425100145861506,27.676210403442383,31.79349708557129,34.77933120727539,42.147003173828125,33.760250091552734,40.399532318115234,1768378526,904287753,X6-tool2,0.409019931084842,2.627084699376439,39.05898429699291,-0.009406494167168671,0.031671343238020476,0.03648897031304761,0.06705697625875473
2026-01-14 16:15:27.023537,1768378527,9195564,1,171799,0,1768378527,12555348,2,169294,0,1768378527,15884792,3,175117,0,1768378527,19221386,4,171733,0,1768378527,22553970,5,169497,0,1768378527,5884270,6,157819,0,0.08977337926626205,2.732905149459839,39.001075744628906,0.005384544376283884,-0.0006005858303979039,-0.0006425100145861506,27.676210403442383,31.79349708557129,34.77933120727539,42.147003173828125,33.760250091552734,40.399532318115234,1768378527,4302572,X6-tool2,0.4146423880379967,2.6316300810370645,39.10341140922477,-0.009513911972630334,0.03184276712237711,0.0365169899746826,0.06621837615966797
2026-01-14 16:15:27.058971,1768378527,49214941,1,171799,0,1768378527,52550665,2,169294,0,1768378527,55885290,3,175117,0,1768378527,39221960,4,171733,0,1768378527,42549404,5,169497,0,1768378527,45885888,6,157819,0,0.08977337926626205,2.732905149459839,39.001075744628906,0.005384544376283884,-0.0006005858303979039,-0.0006425100145861506,27.676210403442383,31.79349708557129,34.77933120727539,42.147003173828125,33.760250091552734,40.399532318115234,1768378527,4302572,X6-tool2,0.4146423880379967,2.6316300810370645,39.10341140922477,-0.009513911972630334,0.03184276712237711,0.0365169899746826,0.06621837615966797
2026-01-14 16:15:27.094947,1768378527,89221799,1,171799,0,1768378527,92556913,2,169294,0,1768378527,75879983,3,175117,0,1768378527,79221007,4,171733,0,1768378527,82574262,5,169497,0,1768378527,85888305,6,157819,0,0.08977337926626205,2.732905149459839,39.001075744628906,0.005384544376283884,-0.0006005858303979039,-0.0006425100145861506,27.676210403442383,31.79349708557129,34.77933120727539,42.147003173828125,33.760250091552734,40.399532318115234,1768378527,4302572,X6-tool2,0.4146423880379967,2.6316300810370645,39.10341140922477,-0.009513911972630334,0.03184276712237711,0.0365169899746826,0.06621837615966797
2026-01-14 16:15:27.131483,1768378527,129196505,1,171799,0,1768378527,112552336,2,169294,0,1768378527,115883360,3,175117,0,1768378527,119222124,4,171733,0,1768378527,122572419,5,169497,0,1768378527,125885712,6,157819,0,0.08977337926626205,2.732905149459839,39.001075744628906,0.005384544376283884,-0.0006005858303979039,-0.0006425100145861506,27.676210403442383,31.79349708557129,34.77933120727539,42.147003173828125,33.760250091552734,40.399532318115234,1768378527,104431145,X6-tool2,0.459673626995269,2.60467526984029,39.02962494159169,-0.009775693967022226,0.030647653495777243,0.03661301420812361,0.06490325927734375
2026-01-14 16:15:27.168564,1768378527,149196929,1,171799,0,1768378527,152565004,2,169294,0,1768378527,155885178,3,175117,0,1768378527,159224322,4,171733,0,1768378527,162568096,5,169497,0,1768378527,165894530,6,157819,0,0.08977337926626205,2.732905149459839,39.001075744628906,0.005384544376283884,-0.0006005858303979039,-0.0006425100145861506,27.676210403442383,31.79349708557129,34.77933120727539,42.147003173828125,33.760250091552734,40.399532318115234,1768378527,104431145,X6-tool2,0.459673626995269,2.60467526984029,39.02962494159169,-0.009775693967022226,0.030647653495777243,0.03661301420812361,0.06490325927734375
2026-01-14 16:15:27.204156,1768378527,189194486,1,171799,0,1768378527,192563581,2,169294,0,1768378527,195888275,3,175117,0,1768378527,199234179,4,171733,0,1768378527,202554343,5,169497,0,1768378527,185888473,6,157819,0,0.08977337926626205,2.732905149459839,39.001075744628906,0.005384544376283884,-0.0006005858303979039,-0.0006425100145861506,27.676210403442383,31.79349708557129,34.77933120727539,42.147003173828125,33.760250091552734,40.399532318115234,1768378527,104431145,X6-tool2,0.459673626995269,2.60467526984029,39.02962494159169,-0.009775693967022226,0.030647653495777243,0.03661301420812361,0.06490325927734375
2026-01-14 16:15:27.240653,1768378527,229197024,1,171799,0,1768378527,232542808,2,169294,0,1768378527,235892302,3,175117,0,1768378527,239224426,4,171733,0,1768378527,222551986,5,169497,0,1768378527,225891750,6,157819,0,0.08977337926626205,2.732905149459839,39.001075744628906,0.005384544376283884,-0.0006005858303979039,-0.0006425100145861506,27.676210403442383,31.79349708557129,34.77933120727539,42.147003173828125,33.760250091552734,40.399532318115234,1768378527,204525676,X6-tool2,0.42241784276573935,2.595028237388616,39.060202664673156,-0.009901837842518576,0.03127951209461912,0.03668231437778786,0.06649112701416016
2026-01-14 16:15:27.276001,1768378527,259219820,1,171777,-146,1768378527,262541843,2,169195,-221,1768378527,265909429,3,175117,0,1768378527,269195761,4,171601,-93,1768378527,272568816,5,169113,-264,1768378527,255886796,6,157819,0,0.08977337926626205,2.732905149459839,39.001075744628906,0.005384544376283884,-0.0006005858303979039,-0.0006425100145861506,27.676210403442383,31.79349708557129,34.77933120727539,42.147003173828125,33.760250091552734,40.399532318115234,1768378527,204525676,X6-tool2,0.42241784276573935,2.595028237388616,39.060202664673156,-0.009901837842518576,0.03127951209461912,0.03668231437778786,0.06649112701416016
2026-01-14 16:15:27.312507,1768378527,299223367,1,171167,-149,1768378527,302555801,2,168376,-197,1768378527,305870074,3,175117,0,1768378527,309197188,4,171140,-135,1768378527,292572720,5,168596,-250,1768378527,295902353,6,157341,-118,0.131959930062294,2.684149980545044,39.155616760253906,0.10536886006593704,0.45452880859375,-0.06716374307870865,27.984209060668945,32.277496337890625,34.77933120727539,42.493003845214844,34.14425277709961,40.619529724121094,1768378527,304625077,X6-tool2,0.36633016753180114,2.6375219310705966,39.15272185786587,-0.010836104199072941,0.03072891032560963,0.033403045920228025,0.06726010888814926
2026-01-14 16:15:27.348116,1768378527,339223894,1,170574,-150,1768378527,342572629,2,167563,-213,1768378527,345903603,3,175111,0,1768378527,329206011,4,170909,-130,1768378527,332549626,5,167531,-265,1768378527,335887040,6,156808,-131,0.14263971149921417,2.5913193225860596,39.425228118896484,0.3904492259025574,1.4377208948135376,-0.34623607993125916,28.59920883178711,33.11249542236328,34.77933120727539,42.971004486083984,35.194252014160156,41.14152908325195,1768378527,304625077,X6-tool2,0.36633016753180114,2.6375219310705966,39.15272185786587,-0.010836104199072941,0.03072891032560963,0.033403045920228025,0.06726010888814926
2026-01-14 16:15:27.383478,1768378527,379237182,1,169980,-159,1768378527,382568386,2,166761,-196,1768378527,365886086,3,175111,0,1768378527,369221190,4,170480,-104,1768378527,372570824,5,166509,-249,1768378527,375886757,6,156264,-130,0.13291813433170319,2.49670672416687,39.688682556152344,0.6346241235733032,2.2788586616516113,-0.5778185725212097,29.203208923339844,33.93049621582031,34.78533172607422,43.40000534057617,36.23725128173828,41.696529388427734,1768378527,304625077,X6-tool2,0.36633016753180114,2.6375219310705966,39.15272185786587,-0.010836104199072941,0.03072891032560963,0.033403045920228025,0.06726010888814926
2026-01-14 16:15:27.419377,1768378527,399234145,1,169678,-122,1768378527,402559039,2,166366,-188,1768378527,405884373,3,175106,0,1768378527,409249938,4,170085,-95,1768378527,412573461,5,165454,-266,1768378527,415886625,6,155737,-131,0.12191733717918396,2.399400234222412,39.93754196166992,0.8518845438957214,3.038309335708618,-0.7912077903747559,29.797208786010742,34.72149658203125,34.79033279418945,43.795005798339844,37.27625274658203,42.21853256225586,1768378527,404520862,X6-tool2,0.03329152220832634,2.670565316492699,39.68861525819578,-0.020966380352618965,0.025524724188865443,0.021489488725755953,0.07396984100341797
2026-01-14 16:15:27.455410,1768378527,439223822,1,169096,-134,1768378527,442552186,2,165536,-230,1768378527,445903731,3,175106,0,1768378527,449203013,4,169662,-120,1768378527,452568989,5,164410,-262,1768378527,435886538,6,155495,-129,0.11713171005249023,2.3501815795898438,40.06320571899414,0.9431120753288269,3.399855136871338,-0.8876433372497559,30.104209899902344,35.12249755859375,34.79033279418945,43.99800491333008,37.803253173828125,42.481529235839844,1768378527,404520862,X6-tool2,0.03329152220832634,2.670565316492699,39.68861525819578,-0.020966380352618965,0.025524724188865443,0.021489488725755953,0.07396984100341797
2026-01-14 16:15:27.491970,1768378527,479236430,1,168492,-164,1768378527,482567554,2,164713,-207,1768378527,485880347,3,175100,0,1768378527,489216031,4,169211,-134,1768378527,472567832,5,163900,-249,1768378527,475883715,6,154990,-113,0.12228865921497345,2.243757486343384,40.32264709472656,1.1552681922912598,4.0825653076171875,-1.0248475074768066,30.676210403442383,35.96849822998047,34.796329498291016,44.4430046081543,38.847251892089844,42.98752975463867,1768378527,404520862,X6-tool2,0.03329152220832634,2.670565316492699,39.68861525819578,-0.020966380352618965,0.025524724188865443,0.021489488725755953,0.07396984100341797
2026-01-14 16:15:27.529030,1768378527,519217847,1,167866,-157,1768378527,522552551,2,163894,-180,1768378527,525879434,3,175095,0,1768378527,509243326,4,168997,-106,1768378527,512573069,5,162834,-276,1768378527,515887403,6,154468,-139,0.12738417088985443,2.1455750465393066,40.5716667175293,1.252104640007019,4.703901290893555,-1.1658505201339722,31.318208694458008,36.77549743652344,34.80133056640625,44.88300323486328,39.87425231933594,43.481529235839844,1768378527,504344903,X6-tool2,-0.039114126367986994,2.4637299503849754,40.33605597902981,-0.0449386331913612,0.033681753394210555,0.014186183900296719,0.07378673553466797
2026-01-14 16:15:27.564923,1768378527,559227574,1,167261,-153,1768378527,562572468,2,163081,-205,1768378527,545909729,3,175095,0,1768378527,549230852,4,168569,-117,1768378527,552571787,5,161801,-273,1768378527,555882870,6,153929,-119,0.11864284425973892,2.045976161956787,40.824974060058594,1.3745070695877075,5.274954795837402,-1.2607783079147339,31.90620994567871,37.59449768066406,34.80133056640625,45.311004638671875,40.93425369262695,44.01953125,1768378527,504344903,X6-tool2,-0.039114126367986994,2.4637299503849754,40.33605597902981,-0.0449386331913612,0.033681753394210555,0.014186183900296719,0.07378673553466797
2026-01-14 16:15:27.602457,1768378527,599239062,1,166674,-112,1768378527,582627264,2,162653,-232,1768378527,585884495,3,175089,0,1768378527,589243160,4,168107,-111,1768378527,592588015,5,160757,-279,1768378527,595910298,6,153402,-132,0.11475083976984024,1.9472709894180298,41.08528137207031,1.4601179361343384,5.793586254119873,-1.3135676383972168,32.499210357666016,38.43449783325195,34.80733108520508,45.773006439208984,41.97825241088867,44.56953048706055,1768378527,504344903,X6-tool2,-0.039114126367986994,2.4637299503849754,40.33605597902981,-0.0449386331913612,0.033681753394210555,0.014186183900296719,0.07378673553466797
2026-01-14 16:15:27.638796,1768378527,619210894,1,166377,-166,1768378527,622569409,2,161829,-200,1768378527,625918144,3,175084,-5,1768378527,629210076,4,167662,-88,1768378527,632564890,5,159697,-266,1768378527,635891954,6,152902,-125,0.11672534793615341,1.8448231220245361,41.333187103271484,1.5273191928863525,6.286619663238525,-1.368355631828308,33.098209381103516,39.25849533081055,34.81233215332031,46.2180061340332,43.03225326538086,45.07453155517578,1768378527,604420435,X6-tool2,-0.12527196841242322,2.14090745586495,40.90545199802997,-0.06994698838522755,0.04114581397475487,0.00815684016475754,0.06698989868164062
2026-01-14 16:15:27.674730,1768378527,659214822,1,165767,-155,1768378527,662572007,2,160994,-207,1768378527,665897710,3,175084,0,1768378527,669194932,4,167283,-107,1768378527,672547657,5,158665,-251,1768378527,655887138,6,152655,-107,0.11018017679452896,1.7865196466445923,41.44926834106445,1.5585256814956665,6.505603313446045,-1.402785062789917,33.400211334228516,39.665496826171875,34.81233215332031,46.39900588989258,43.56025314331055,45.316532135009766,1768378527,604420435,X6-tool2,-0.12527196841242322,2.14090745586495,40.90545199802997,-0.06994698838522755,0.04114581397475487,0.00815684016475754,0.06698989868164062
2026-01-14 16:15:27.709975,1768378527,699214659,1,165135,-133,1768378527,702552083,2,160164,-212,1768378527,705880047,3,175078,0,1768378527,709199900,4,166877,-119,1768378527,692578192,5,158126,-261,1768378527,695898376,6,152155,-125,0.10349955409765244,1.6700834035873413,41.687721252441406,1.5822510719299316,6.914030075073242,-1.4402518272399902,34.021209716796875,40.50049591064453,34.81233215332031,46.79400634765625,44.59225082397461,45.8055305480957,1768378527,704550467,X6-tool2,-0.1329769276639203,1.7866067973130317,41.58218875273561,-0.09149147514231164,0.044201704556451796,0.005369104464925941,0.07290109246969223
2026-01-14 16:15:27.746802,1768378527,739218716,1,164542,-131,1768378527,742564181,2,159324,-182,1768378527,745901995,3,175073,-10,1768378527,729212314,4,166663,-117,1768378527,732562709,5,157072,-274,1768378527,735886603,6,151628,-143,0.09622810781002045,1.5582107305526733,41.93239974975586,1.5859359502792358,7.298897743225098,-1.4517282247543335,34.642208099365234,41.34649658203125,34.81833267211914,47.21700668334961,45.64725112915039,46.321529388427734,1768378527,704550467,X6-tool2,-0.1329769276639203,1.7866067973130317,41.58218875273561,-0.09149147514231164,0.044201704556451796,0.005369104464925941,0.07290109246969223
2026-01-14 16:15:27.782161,1768378527,779234814,1,163960,-148,1768378527,762567654,2,158917,-172,1768378527,765878958,3,175073,0,1768378527,769203731,4,166190,-129,1768378527,772548126,5,156039,-271,1768378527,775886950,6,151100,-129,0.09524678438901901,1.4629424810409546,42.179588317871094,1.5702141523361206,7.674165725708008,-1.4229841232299805,35.229209899902344,42.17049789428711,34.82332992553711,47.690006256103516,46.70225143432617,46.854530334472656,1768378527,704550467,X6-tool2,-0.1329769276639203,1.7866067973130317,41.58218875273561,-0.09149147514231164,0.044201704556451796,0.005369104464925941,0.07290109246969223
2026-01-14 16:15:27.817833,1768378527,799223027,1,163647,-111,1768378527,802552741,2,158082,-232,1768378527,805913816,3,175073,0,1768378527,809290331,4,165762,-108,1768378527,812571754,5,154968,-260,1768378527,815888717,6,150584,-130,0.08729693293571472,1.3549964427947998,42.41856384277344,1.5433686971664429,8.009485244750977,-1.3938919305801392,35.828208923339844,43.005496978759766,34.82332992553711,48.118003845214844,47.76725387573242,47.37052917480469,1768378527,804529235,X6-tool2,-0.18089181203415736,1.4793962631334745,42.11071157164031,-0.1097028289064044,0.04396179768186397,0.0049008014928281435,0.06967544555664062
2026-01-14 16:15:27.854303,1768378527,839215124,1,163021,-154,1768378527,842552318,2,157236,-207,1768378527,845905653,3,175067,0,1768378527,849235767,4,165333,-109,1768378527,852549330,5,153907,-276,1768378527,835884030,6,150353,-113,0.08316674083471298,1.2997596263885498,42.54014587402344,1.506172776222229,8.159041404724121,-1.3760383129119873,36.1522102355957,43.433494567871094,34.82933044433594,48.33800506591797,48.28925323486328,47.63452911376953,1768378527,804529235,X6-tool2,-0.18089181203415736,1.4793962631334745,42.11071157164031,-0.1097028289064044,0.04396179768186397,0.0049008014928281435,0.06967544555664062
2026-01-14 16:15:27.889324,1768378527,879235152,1,162411,-153,1768378527,882555976,2,156396,-191,1768378527,885889020,3,175062,0,1768378527,869217510,4,165119,-101,1768378527,872544624,5,153397,-264,1768378527,875920159,6,149865,-121,0.08078980445861816,1.187394618988037,42.77082824707031,1.450796127319336,8.45962905883789,-1.332585096359253,36.762210845947266,44.268497467041016,34.82933044433594,48.76100540161133,49.350250244140625,48.117530822753906,1768378527,804529235,X6-tool2,-0.18089181203415736,1.4793962631334745,42.11071157164031,-0.1097028289064044,0.04396179768186397,0.0049008014928281435,0.06967544555664062
2026-01-14 16:15:27.925721,1768378527,919227449,1,161796,-148,1768378527,922572214,2,155583,-218,1768378527,905891573,3,175062,0,1768378527,909197656,4,164674,-102,1768378527,912570612,5,152331,-263,1768378527,915906476,6,149365,-131,0.08238734304904938,1.0803509950637817,43.00111770629883,1.3535244464874268,8.736809730529785,-1.2737963199615479,37.39421081542969,45.09849548339844,34.83433151245117,49.20600509643555,50.38825225830078,48.601531982421875,1768378527,904494571,X6-tool2,-0.12196686233518618,1.1281669231094071,42.63146018253731,-0.12380247608584391,0.04009839811622016,0.005835246368476834,0.06529394537210464
2026-01-14 16:15:27.961732,1768378527,959227276,1,161213,-146,1768378527,942558237,2,155149,-237,1768378527,945899671,3,175056,-5,1768378527,949229264,4,164295,-107,1768378527,952559358,5,151276,-271,1768378527,955901543,6,148832,-140,0.0586119070649147,0.964748203754425,43.22710037231445,1.2888137102127075,8.946950912475586,-1.1955885887145996,37.970211029052734,45.93849563598633,34.84033203125,49.58500671386719,51.4482536315918,49.123531341552734,1768378527,904494571,X6-tool2,-0.12196686233518618,1.1281669231094071,42.63146018253731,-0.12380247608584391,0.04009839811622016,0.005835246368476834,0.06529394537210464
2026-01-14 16:15:27.998354,1768378527,979223150,1,160906,-175,1768378527,982559564,2,154303,-192,1768378527,985885687,3,175051,0,1768378527,989218802,4,163872,-118,1768378527,992548405,5,150233,-264,1768378527,995882399,6,148315,-122,0.04319078102707863,0.8557111620903015,43.4571418762207,1.1813760995864868,9.149935722351074,-1.0916833877563477,38.569210052490234,46.78449630737305,34.84532928466797,50.00800323486328,52.49725341796875,49.65053176879883,1768378527,904494571,X6-tool2,-0.12196686233518618,1.1281669231094071,42.63146018253731,-0.12380247608584391,0.04009839811622016,0.005835246368476834,0.06529394537210464
2026-01-14 16:15:28.034552,1768378528,19222947,1,160269,-134,1768378528,22550671,2,153463,-229,1768378528,25885615,3,175040,0,1768378528,29214818,4,163400,-126,1768378528,32563093,5,149167,-248,1768378528,15903294,6,148063,-123,0.04063735902309418,0.8067837357521057,43.569339752197266,1.1051009893417358,9.259760856628418,-1.049196720123291,38.893211364746094,47.191497802734375,34.8513298034668,50.23300552368164,53.024253845214844,49.90353012084961,1768378528,4250361,X6-tool2,-0.17875972560589645,0.9075302560822947,43.09732064285594,-0.13118150640791024,0.03522869822467374,0.008786448849144932,0.06846269220113754
2026-01-14 16:15:28.070734,1768378528,59215664,1,159670,-140,1768378528,62547577,2,152639,-218,1768378528,65900722,3,175034,-5,1768378528,69214566,4,162966,-93,1768378528,52558116,5,148656,-238,1768378528,55882650,6,147568,-123,0.048616133630275726,0.7075017094612122,43.796913146972656,0.9623189568519592,9.478716850280762,-0.919084370136261,39.50920867919922,48.02549743652344,34.85633087158203,50.72200393676758,54.09025192260742,50.39152908325195,1768378528,4250361,X6-tool2,-0.17875972560589645,0.9075302560822947,43.09732064285594,-0.13118150640791024,0.03522869822467374,0.008786448849144932,0.06846269220113754
2026-01-14 16:15:28.106226,1768378528,99222181,1,159060,-123,1768378528,102549595,2,151776,-200,1768378528,85889155,3,175029,0,1768378528,89222299,4,162757,-101,1768378528,92559073,5,147596,-249,1768378528,95901708,6,147090,-125,0.03508788347244263,0.5890628695487976,44.0145378112793,0.8300286531448364,9.616344451904297,-0.7894525527954102,40.11320877075195,48.88249588012695,34.867332458496094,51.12300491333008,55.13425064086914,50.880531311035156,1768378528,104452736,X6-tool2,-0.22467019815602496,0.6661391302238922,43.701997308726,-0.13801664132549776,0.029970307790439514,0.01366877065811754,0.06653785705566406
2026-01-14 16:15:28.142651,1768378528,139222558,1,158467,-160,1768378528,122540398,2,151370,-199,1768378528,125888362,3,175018,-5,1768378528,129211536,4,162361,-108,1768378528,132574211,5,146519,-277,1768378528,135910555,6,146580,-124,0.017824674025177956,0.47777265310287476,44.226707458496094,0.6856058835983276,9.736991882324219,-0.6523090600967407,40.70621109008789,49.71749496459961,34.87833023071289,51.519004821777344,56.183250427246094,51.37553024291992,1768378528,104452736,X6-tool2,-0.22467019815602496,0.6661391302238922,43.701997308726,-0.13801664132549776,0.029970307790439514,0.01366877065811754,0.06653785705566406
2026-01-14 16:15:28.178911,1768378528,159195701,1,158159,-142,1768378528,162532245,2,150535,-232,1768378528,165883349,3,175001,-1,1768378528,169213243,4,161933,-116,1768378528,172567368,5,145503,-263,1768378528,175899952,6,146047,-133,-0.00043201990774832666,0.3763461410999298,44.44365692138672,0.5107142925262451,9.842857360839844,-0.4956735372543335,41.31620788574219,50.55249786376953,34.89533233642578,51.94700622558594,57.238250732421875,51.902530670166016,1768378528,104452736,X6-tool2,-0.22467019815602496,0.6661391302238922,43.701997308726,-0.13801664132549776,0.029970307790439514,0.01366877065811754,0.06653785705566406
2026-01-14 16:15:28.214875,1768378528,199222849,1,157527,-147,1768378528,202548993,2,149678,-211,1768378528,205883006,3,174979,-10,1768378528,209296333,4,161505,-105,1768378528,212570025,5,144432,-270,1768378528,195857633,6,145794,-124,-0.005956870969384909,0.32680362462997437,44.555694580078125,0.39619237184524536,9.89191722869873,-0.4105156660079956,41.65620803833008,50.98149490356445,34.90633010864258,52.183006286621094,57.75425338745117,52.171531677246094,1768378528,204401102,X6-tool2,-0.2732254201519688,0.46771392271239076,44.20300545710442,-0.1416424502514656,0.0218352580780771,0.01902251533132428,0.06693807989358902
2026-01-14 16:15:28.251898,1768378528,239221166,1,156912,-134,1768378528,242567700,2,148837,-208,1768378528,245888924,3,174952,0,1768378528,249234268,4,161082,-109,1768378528,232574799,5,143915,-262,1768378528,235880322,6,145305,-103,-0.026676936075091362,0.21627666056156158,44.76467514038086,0.22757704555988312,9.948983192443848,-0.2407202273607254,42.255210876464844,51.832496643066406,34.93333053588867,52.58400344848633,58.825252532958984,52.67753219604492,1768378528,204401102,X6-tool2,-0.2732254201519688,0.46771392271239076,44.20300545710442,-0.1416424502514656,0.0218352580780771,0.01902251533132428,0.06693807989358902
2026-01-14 16:15:28.289243,1768378528,279223763,1,156434,-21,1768378528,282546876,2,148134,-74,1768378528,285886471,3,174930,-3,1768378528,269189860,4,160889,-51,1768378528,272571845,5,143163,-50,1768378528,275919880,6,145190,-9,-0.006693382281810045,0.0916006863117218,44.949256896972656,0.06900287419557571,10.023636817932129,-0.06866853684186935,42.848209381103516,52.66249465942383,34.95532989501953,52.991004943847656,59.87425231933594,53.01253128051758,1768378528,204401102,X6-tool2,-0.2732254201519688,0.46771392271239076,44.20300545710442,-0.1416424502514656,0.0218352580780771,0.01902251533132428,0.06693807989358902
2026-01-14 16:15:28.326998,1768378528,319220060,1,156379,-1,1768378528,322572405,2,148052,-4,1768378528,325888448,3,174913,-10,1768378528,309236429,4,160840,-10,1768378528,312563423,5,143108,0,1768378528,315905616,6,145184,0,0.0011937114177271724,0.004817767534404993,44.9991340637207,0.023853829130530357,9.979968070983887,-0.034231532365083694,43.09621047973633,53.01949691772461,34.97732925415039,53.04000473022461,60.13825225830078,53.03453063964844,1768378528,304415179,X6-tool2,-0.29153186980341006,0.18588904443971688,44.62386680250703,-0.14378563287107013,0.015658901333275355,0.026750706115336007,0.0748952254652977
2026-01-14 16:15:28.363156,1768378528,359221117,1,156379,0,1768378528,362575232,2,148046,0,1768378528,345885691,3,174902,-7,1768378528,349233776,4,160840,0,1768378528,352553109,5,143102,0,1768378528,355901694,6,145184,0,0.001299233641475439,-0.0011181014124304056,45.001686096191406,0.03893524408340454,9.96430778503418,-0.037191566079854965,43.09621047973633,53.04149627685547,34.99433135986328,53.04000473022461,60.149253845214844,53.03453063964844,1768378528,304415179,X6-tool2,-0.29153186980341006,0.18588904443971688,44.62386680250703,-0.14378563287107013,0.015658901333275355,0.026750706115336007,0.0748952254652977
2026-01-14 16:15:28.398327,1768378528,379205030,1,156379,0,1768378528,382571585,2,148046,0,1768378528,385888598,3,174891,0,1768378528,389233603,4,160840,0,1768378528,392554026,5,143102,0,1768378528,395899931,6,145184,0,0.001299233641475439,-0.0011181014124304056,45.001686096191406,0.04692388325929642,9.959967613220215,-0.04530590400099754,43.09621047973633,53.04149627685547,35.005332946777344,53.04000473022461,60.155250549316406,53.03453063964844,1768378528,304415179,X6-tool2,-0.29153186980341006,0.18588904443971688,44.62386680250703,-0.14378563287107013,0.015658901333275355,0.026750706115336007,0.0748952254652977
2026-01-14 16:15:28.434753,1768378528,419224038,1,156379,0,1768378528,422551022,2,148046,0,1768378528,425885456,3,174880,0,1768378528,429212179,4,160840,0,1768378528,432548573,5,143102,0,1768378528,415882624,6,145184,0,0.001299233641475439,-0.0011181014124304056,45.001686096191406,0.04692388325929642,9.959967613220215,-0.04530590400099754,43.09621047973633,53.04149627685547,35.01033020019531,53.04000473022461,60.155250549316406,53.03453063964844,1768378528,404281862,X6-tool2,-0.28897692102674444,0.08208785316745823,44.701447045635575,-0.1449619738212728,0.015531901557981525,0.02976670946375365,0.07006486505270004
2026-01-14 16:15:28.470739,1768378528,459220865,1,156379,0,1768378528,462545708,2,148046,0,1768378528,465885483,3,174869,-8,1768378528,469210266,4,160840,0,1768378528,452556287,5,143102,0,1768378528,455879961,6,145184,0,0.001299233641475439,-0.0011181014124304056,45.001686096191406,0.05408983677625656,9.954312324523926,-0.05258559808135033,43.09621047973633,53.04149627685547,35.021331787109375,53.04000473022461,60.155250549316406,53.03453063964844,1768378528,404281862,X6-tool2,-0.28897692102674444,0.08208785316745823,44.701447045635575,-0.1449619738212728,0.015531901557981525,0.02976670946375365,0.07006486505270004
2026-01-14 16:15:28.506610,1768378528,499213552,1,156379,0,1768378528,502541565,2,148046,0,1768378528,505878429,3,174858,0,1768378528,489210180,4,160840,0,1768378528,492547784,5,143102,0,1768378528,495878938,6,145184,0,0.001299233641475439,-0.0011181014124304056,45.001686096191406,0.0612497553229332,9.94865608215332,-0.05985905975103378,43.09621047973633,53.04149627685547,35.03232955932617,53.04000473022461,60.155250549316406,53.03453063964844,1768378528,504322381,X6-tool2,-0.27075217760226256,0.13979072491633565,44.62258994188392,-0.14378845235213286,0.014876265886280493,0.02998328442680364,0.07120037078857422
2026-01-14 16:15:28.541701,1768378528,539229849,1,156379,0,1768378528,522541939,2,148046,0,1768378528,525876353,3,174853,0,1768378528,529190586,4,160840,0,1768378528,532550981,5,143102,0,1768378528,535876904,6,145184,0,0.001299233641475439,-0.0011181014124304056,45.001686096191406,0.06840492784976959,9.943000793457031,-0.06712744385004044,43.09621047973633,53.04149627685547,35.043331146240234,53.04000473022461,60.155250549316406,53.03453063964844,1768378528,504322381,X6-tool2,-0.27075217760226256,0.13979072491633565,44.62258994188392,-0.14378845235213286,0.014876265886280493,0.02998328442680364,0.07120037078857422
2026-01-14 16:15:28.578622,1768378528,559215582,1,156379,0,1768378528,562541676,2,148046,0,1768378528,565857329,3,174847,0,1768378528,569209314,4,160840,0,1768378528,572545688,5,143102,0,1768378528,575879112,6,145184,0,0.001299233641475439,-0.0011181014124304056,45.001686096191406,0.07555537670850754,9.937345504760742,-0.07439076900482178,43.09621047973633,53.04149627685547,35.04933166503906,53.04000473022461,60.155250549316406,53.03453063964844,1768378528,504322381,X6-tool2,-0.27075217760226256,0.13979072491633565,44.62258994188392,-0.14378845235213286,0.014876265886280493,0.02998328442680364,0.07120037078857422
2026-01-14 16:15:28.614749,1768378528,599219620,1,156379,0,1768378528,602597675,2,148046,0,1768378528,605882457,3,174842,0,1768378528,609194711,4,160840,0,1768378528,612551025,5,143102,-5,1768378528,595915677,6,145184,0,0.001299233641475439,-0.0011181014124304056,45.001686096191406,0.07555537670850754,9.937345504760742,-0.07439076900482178,43.09621047973633,53.04149627685547,35.0543327331543,53.04000473022461,60.155250549316406,53.03453063964844,1768378528,604263437,X6-tool2,-0.2759505703460377,0.12992293898094862,44.68930777900504,-0.1436112432760105,0.015176962706724594,0.030089077914774852,0.06871255487203598
2026-01-14 16:15:28.651303,1768378528,639229507,1,156379,0,1768378528,642599393,2,148046,0,1768378528,645894705,3,174836,0,1768378528,649262090,4,160840,0,1768378528,632563119,5,143102,0,1768378528,635928624,6,145184,0,0.001299233641475439,-0.0011181014124304056,45.001686096191406,0.08270108699798584,9.931690216064453,-0.08164903521537781,43.09621047973633,53.04149627685547,35.06032943725586,53.04000473022461,60.155250549316406,53.03453063964844,1768378528,604263437,X6-tool2,-0.2759505703460377,0.12992293898094862,44.68930777900504,-0.1436112432760105,0.015176962706724594,0.030089077914774852,0.06871255487203598
2026-01-14 16:15:28.689959,1768378528,679224864,1,156379,0,1768378528,682598949,2,148046,0,1768378528,685893072,3,174831,-7,1768378528,689262967,4,160840,0,1768378528,672561576,5,143102,0,1768378528,675929761,6,145184,0,0.001299233641475439,-0.0011181014124304056,45.001686096191406,0.08270108699798584,9.931690216064453,-0.08164903521537781,43.09621047973633,53.04149627685547,35.065330505371094,53.04000473022461,60.155250549316406,53.03453063964844,1768378528,604263437,X6-tool2,-0.2759505703460377,0.12992293898094862,44.68930777900504,-0.1436112432760105,0.015176962706724594,0.030089077914774852,0.06871255487203598
2026-01-14 16:15:28.728138,1768378528,719228811,1,156379,0,1768378528,722600826,2,148046,0,1768378528,725895229,3,174825,0,1768378528,709262571,4,160840,0,1768378528,712563973,5,143102,0,1768378528,715931959,6,145184,0,0.001299233641475439,-0.0011181014124304056,45.001686096191406,0.08984208106994629,9.92603588104248,-0.08890224993228912,43.09621047973633,53.04149627685547,35.07133102416992,53.04000473022461,60.155250549316406,53.03453063964844,1768378528,704369969,X6-tool2,-0.27318863825711004,0.11628619287374922,44.676062465551205,-0.14394847932222252,0.015213531108229926,0.030186050573686268,0.07096131891012192
2026-01-14 16:15:28.765345,1768378528,759229918,1,156379,0,1768378528,762598954,2,148046,0,1768378528,745893933,3,174820,0,1768378528,749263528,4,160840,0,1768378528,752564241,5,143097,0,1768378528,755930625,6,145184,0,0.001299233641475439,-0.0011181014124304056,45.001686096191406,0.08984208106994629,9.92603588104248,-0.08890224993228912,43.09621047973633,53.04149627685547,35.076332092285156,53.04000473022461,60.16025161743164,53.03453063964844,1768378528,704369969,X6-tool2,-0.27318863825711004,0.11628619287374922,44.676062465551205,-0.14394847932222252,0.015213531108229926,0.030186050573686268,0.07096131891012192
2026-01-14 16:15:28.801192,1768378528,799228265,1,156379,0,1768378528,782566176,2,148046,0,1768378528,785908830,3,174820,0,1768378528,789263505,4,160840,0,1768378528,792571408,5,143097,0,1768378528,795931473,6,145184,0,0.001299233641475439,-0.0011181014124304056,45.001686096191406,0.08984208106994629,9.92603588104248,-0.08890224993228912,43.09621047973633,53.04149627685547,35.076332092285156,53.04000473022461,60.16025161743164,53.03453063964844,1768378528,704369969,X6-tool2,-0.27318863825711004,0.11628619287374922,44.676062465551205,-0.14394847932222252,0.015213531108229926,0.030186050573686268,0.07096131891012192
2026-01-14 16:15:28.837369,1768378528,819208068,1,156379,0,1768378528,822600804,2,148046,0,1768378528,825892396,3,174814,0,1768378528,829261422,4,160840,0,1768378528,832599666,5,143097,0,1768378528,835926249,6,145184,0,0.001299233641475439,-0.0011181014124304056,45.001686096191406,0.09766726195812225,9.921481132507324,-0.0968463197350502,43.09621047973633,53.04149627685547,35.082332611083984,53.04000473022461,60.16025161743164,53.03453063964844,1768378528,804291964,X6-tool2,-0.2902807636785871,0.10504455303223892,44.70143359473341,-0.14421297918884346,0.015732731010522957,0.030298726399620567,0.07103538513183594
2026-01-14 16:15:28.874576,1768378528,859256357,1,156379,0,1768378528,862602601,2,148046,0,1768378528,865921505,3,174809,0,1768378528,869264659,4,160840,0,1768378528,872572352,5,143097,0,1768378528,855899952,6,145184,0,0.001299233641475439,-0.0011181014124304056,45.001686096191406,0.09766726195812225,9.921481132507324,-0.0968463197350502,43.09621047973633,53.04149627685547,35.08732986450195,53.04000473022461,60.16025161743164,53.03453063964844,1768378528,804291964,X6-tool2,-0.2902807636785871,0.10504455303223892,44.70143359473341,-0.14421297918884346,0.015732731010522957,0.030298726399620567,0.07103538513183594
2026-01-14 16:15:28.910674,1768378528,899232293,1,156379,0,1768378528,902584708,2,148046,0,1768378528,905910411,3,174803,-8,1768378528,909224985,4,160840,0,1768378528,892565965,5,143097,0,1768378528,895911790,6,145184,0,0.001299233641475439,-0.0011181014124304056,45.001686096191406,0.09766726195812225,9.921481132507324,-0.0968463197350502,43.09621047973633,53.04149627685547,35.08732986450195,53.04000473022461,60.16025161743164,53.03453063964844,1768378528,904438607,X6-tool2,-0.2746709885885036,0.11511953921842909,44.668159671213374,-0.14376347065297246,0.01530726708746202,0.03029955578159715,0.07080522924661636
2026-01-14 16:15:28.947025,1768378528,939222360,1,156379,0,1768378528,942551333,2,148046,0,1768378528,945902318,3,174798,-6,1768378528,929195137,4,160840,0,1768378528,932554552,5,143097,0,1768378528,935883746,6,145184,0,0.001299233641475439,-0.0011181014124304056,45.001686096191406,0.1048004999756813,9.915827751159668,-0.10409070551395416,43.09621047973633,53.04149627685547,35.09333038330078,53.04000473022461,60.16025161743164,53.03453063964844,1768378528,904438607,X6-tool2,-0.2746709885885036,0.11511953921842909,44.668159671213374,-0.14376347065297246,0.01530726708746202,0.03029955578159715,0.07080522924661636
2026-01-14 16:15:28.982555,1768378528,979235627,1,156379,0,1768378528,962554157,2,148046,0,1768378528,965892581,3,174798,0,1768378528,969194444,4,160840,0,1768378528,972551439,5,143097,0,1768378528,975884483,6,145184,0,0.001299233641475439,-0.0011181014124304056,45.001686096191406,0.1048004999756813,9.915827751159668,-0.10409070551395416,43.09621047973633,53.04149627685547,35.098331451416016,53.04000473022461,60.16025161743164,53.03453063964844,1768378528,904438607,X6-tool2,-0.2746709885885036,0.11511953921842909,44.668159671213374,-0.14376347065297246,0.01530726708746202,0.03029955578159715,0.07080522924661636
2026-01-14 16:15:29.018622,1768378528,999230981,1,156379,0,1768378529,2551224,2,148046,0,1768378529,5865108,3,174792,0,1768378529,9216912,4,160840,0,1768378529,12570117,5,143097,0,1768378529,15882710,6,145184,0,0.001299233641475439,-0.0011181014124304056,45.001686096191406,0.11192794144153595,9.910173416137695,-0.111329086124897,43.09621047973633,53.04149627685547,35.104331970214844,53.04000473022461,60.16025161743164,53.03453063964844,1768378529,4367132,X6-tool2,-0.27195804025512177,0.1337551387880467,44.708114003723594,-0.14345571722970346,0.015360108034726754,0.030338835659044966,0.07152748107910156
2026-01-14 16:15:29.054458,1768378529,39225077,1,156379,0,1768378529,42545381,2,148046,0,1768378529,45903886,3,174792,0,1768378529,49214729,4,160840,0,1768378529,52550743,5,143097,0,1768378529,35880703,6,145184,0,0.001299233641475439,-0.0011181014124304056,45.001686096191406,0.11192794144153595,9.910173416137695,-0.111329086124897,43.09621047973633,53.04149627685547,35.104331970214844,53.04000473022461,60.16025161743164,53.03453063964844,1768378529,4367132,X6-tool2,-0.27195804025512177,0.1337551387880467,44.708114003723594,-0.14345571722970346,0.015360108034726754,0.030338835659044966,0.07152748107910156
2026-01-14 16:15:29.090932,1768378529,79236945,1,156379,0,1768378529,82548938,2,148052,0,1768378529,85890422,3,174787,0,1768378529,89213966,4,160840,0,1768378529,72551676,5,143097,0,1768378529,75881050,6,145184,0,0.0012704571709036827,0.0005006447318010032,45.0009880065918,0.1144736260175705,9.910135269165039,-0.11728604882955551,43.09621047973633,53.03549575805664,35.10932922363281,53.04000473022461,60.16025161743164,53.03453063964844,1768378529,4367132,X6-tool2,-0.27195804025512177,0.1337551387880467,44.708114003723594,-0.14345571722970346,0.015360108034726754,0.030338835659044966,0.07152748107910156
2026-01-14 16:15:29.129288,1768378529,119223292,1,156379,0,1768378529,122549525,2,148052,0,1768378529,125897599,3,174781,0,1768378529,109217720,4,160840,0,1768378529,112570714,5,143097,0,1768378529,115883327,6,145184,0,0.0012704571709036827,0.0005006447318010032,45.0009880065918,0.1144736260175705,9.910135269165039,-0.11728604882955551,43.09621047973633,53.03549575805664,35.10932922363281,53.04000473022461,60.16025161743164,53.03453063964844,1768378529,104628669,X6-tool2,-0.28673438030716886,0.1297126696893471,44.66868217366528,-0.14346971499265784,0.015502194205290566,0.03017563364269298,0.06891282647848129
2026-01-14 16:15:29.167074,1768378529,159229239,1,156379,0,1768378529,162551562,2,148052,0,1768378529,165884616,3,174781,0,1768378529,149210916,4,160840,0,1768378529,152556600,5,143097,0,1768378529,155879764,6,145184,0,0.0012704571709036827,0.0005006447318010032,45.0009880065918,0.1144736260175705,9.910135269165039,-0.11728604882955551,43.09621047973633,53.03549575805664,35.11532974243164,53.04000473022461,60.16025161743164,53.03453063964844,1768378529,104628669,X6-tool2,-0.28673438030716886,0.1297126696893471,44.66868217366528,-0.14346971499265784,0.015502194205290566,0.03017563364269298,0.06891282647848129
2026-01-14 16:15:29.202388,1768378529,199222415,1,156379,0,1768378529,182554646,2,148052,0,1768378529,185888810,3,174781,0,1768378529,189209183,4,160840,0,1768378529,192549887,5,143097,0,1768378529,195895291,6,145184,0,0.0012704571709036827,0.0005006447318010032,45.0009880065918,0.1144736260175705,9.910135269165039,-0.11728604882955551,43.09621047973633,53.03549575805664,35.11532974243164,53.04000473022461,60.16025161743164,53.03453063964844,1768378529,104628669,X6-tool2,-0.28673438030716886,0.1297126696893471,44.66868217366528,-0.14346971499265784,0.015502194205290566,0.03017563364269298,0.06891282647848129
2026-01-14 16:15:29.238095,1768378529,219220949,1,156379,0,1768378529,222551062,2,148052,0,1768378529,225886726,3,174776,0,1768378529,229216040,4,160840,0,1768378529,232549994,5,143097,0,1768378529,235881798,6,145184,0,0.0012704571709036827,0.0005006447318010032,45.0009880065918,0.12159893661737442,9.904483795166016,-0.12452033162117004,43.09621047973633,53.03549575805664,35.120330810546875,53.04000473022461,60.16025161743164,53.03453063964844,1768378529,204315425,X6-tool2,-0.2748954554606931,0.13191949534937947,44.65419861357121,-0.14343325153118702,0.01523320530941876,0.030254096026191956,0.07057603448629379
2026-01-14 16:15:29.274744,1768378529,259221316,1,156379,0,1768378529,262553400,2,148052,0,1768378529,265901424,3,174776,0,1768378529,269214047,4,160840,0,1768378529,272550241,5,143097,0,1768378529,255886632,6,145179,0,9.033088281285018e-05,0.001154317520558834,45.00156784057617,0.12159893661737442,9.904483795166016,-0.12452033162117004,43.09621047973633,53.03549575805664,35.120330810546875,53.04000473022461,60.16025161743164,53.03953170776367,1768378529,204315425,X6-tool2,-0.2748954554606931,0.13191949534937947,44.65419861357121,-0.14343325153118702,0.01523320530941876,0.030254096026191956,0.07057603448629379
2026-01-14 16:15:29.310466,1768378529,299218332,1,156379,0,1768378529,302549026,2,148052,0,1768378529,305920082,3,174771,0,1768378529,309197173,4,160840,0,1768378529,292561795,5,143097,0,1768378529,295882999,6,145179,0,9.033088281285018e-05,0.001154317520558834,45.00156784057617,0.12159893661737442,9.904483795166016,-0.12452033162117004,43.09621047973633,53.03549575805664,35.12533187866211,53.04000473022461,60.16025161743164,53.03953170776367,1768378529,304455277,X6-tool2,-0.2889754126108562,0.1326040628315767,44.67085342393278,-0.14335273798964043,0.015585906545674849,0.03019249787823365,0.07177162170410156
2026-01-14 16:15:29.346879,1768378529,339243160,1,156379,0,1768378529,342552873,2,148052,0,1768378529,345909498,3,174771,0,1768378529,329220358,4,160840,0,1768378529,332588703,5,143097,0,1768378529,335885755,6,145179,0,9.033088281285018e-05,0.001154317520558834,45.00156784057617,0.12159893661737442,9.904483795166016,-0.12452033162117004,43.09621047973633,53.03549575805664,35.12533187866211,53.04000473022461,60.16025161743164,53.03953170776367,1768378529,304455277,X6-tool2,-0.2889754126108562,0.1326040628315767,44.67085342393278,-0.14335273798964043,0.015585906545674849,0.03019249787823365,0.07177162170410156
2026-01-14 16:15:29.382492,1768378529,379237437,1,156379,0,1768378529,362553007,2,148052,0,1768378529,365904901,3,174771,0,1768378529,369214985,4,160840,0,1768378529,372568969,5,143097,0,1768378529,375887673,6,145179,0,9.033088281285018e-05,0.001154317520558834,45.00156784057617,0.12159893661737442,9.904483795166016,-0.12452033162117004,43.09621047973633,53.03549575805664,35.12533187866211,53.04000473022461,60.16025161743164,53.03953170776367,1768378529,304455277,X6-tool2,-0.2889754126108562,0.1326040628315767,44.67085342393278,-0.14335273798964043,0.015585906545674849,0.03019249787823365,0.07177162170410156
2026-01-14 16:15:29.418768,1768378529,399241281,1,156379,0,1768378529,402561184,2,148052,0,1768378529,405880047,3,174771,0,1768378529,409220162,4,160840,0,1768378529,412574586,5,143097,0,1768378529,415883089,6,145179,0,9.033088281285018e-05,0.001154317520558834,45.00156784057617,0.12159893661737442,9.904483795166016,-0.12452033162117004,43.09621047973633,53.03549575805664,35.12533187866211,53.04000473022461,60.16025161743164,53.03953170776367,1768378529,404414653,X6-tool2,-0.2865204879796527,0.10921929533587818,44.64131386184756,-0.1439437518011419,0.015488689482717534,0.030255105235483054,0.06836605072021484
2026-01-14 16:15:29.454887,1768378529,439237348,1,156379,0,1768378529,442539860,2,148052,0,1768378529,445915176,3,174765,0,1768378529,449195487,4,160840,0,1768378529,452559053,5,143097,0,1768378529,435861892,6,145179,0,9.033088281285018e-05,0.001154317520558834,45.00156784057617,0.12159893661737442,9.904483795166016,-0.12452033162117004,43.09621047973633,53.03549575805664,35.12533187866211,53.04000473022461,60.16025161743164,53.03953170776367,1768378529,404414653,X6-tool2,-0.2865204879796527,0.10921929533587818,44.64131386184756,-0.1439437518011419,0.015488689482717534,0.030255105235483054,0.06836605072021484
2026-01-14 16:15:29.491483,1768378529,479222884,1,156379,0,1768378529,482555638,2,148052,0,1768378529,485889602,3,174765,0,1768378529,489217615,4,160840,0,1768378529,472561006,5,143097,0,1768378529,475923272,6,145179,0,9.033088281285018e-05,0.001154317520558834,45.00156784057617,0.1278110295534134,9.897873878479004,-0.13129112124443054,43.09621047973633,53.03549575805664,35.13133239746094,53.04000473022461,60.16025161743164,53.03953170776367,1768378529,404414653,X6-tool2,-0.2865204879796527,0.10921929533587818,44.64131386184756,-0.1439437518011419,0.015488689482717534,0.030255105235483054,0.06836605072021484
2026-01-14 16:15:29.529547,1768378529,519221410,1,156379,0,1768378529,522552354,2,148052,0,1768378529,525924600,3,174765,0,1768378529,509210308,4,160840,0,1768378529,512659887,5,143097,0,1768378529,515909608,6,145179,0,9.033088281285018e-05,0.001154317520558834,45.00156784057617,0.1278110295534134,9.897873878479004,-0.13129112124443054,43.09621047973633,53.03549575805664,35.13133239746094,53.04000473022461,60.16025161743164,53.03953170776367,1768378529,512858104,X6-tool2,-0.28425326579731647,0.09941683256967332,44.66321829402617,-0.14411588202295175,0.015481284819889694,0.030378207890917098,0.07568073272705078
2026-01-14 16:15:29.565861,1768378529,559216457,1,156379,0,1768378529,562559422,2,148052,0,1768378529,545890012,3,174765,0,1768378529,549225236,4,160840,0,1768378529,552551080,5,143097,0,1768378529,555891154,6,145179,0,9.033088281285018e-05,0.001154317520558834,45.00156784057617,0.1278110295534134,9.897873878479004,-0.13129112124443054,43.09621047973633,53.03549575805664,35.13133239746094,53.04000473022461,60.16025161743164,53.03953170776367,1768378529,512858104,X6-tool2,-0.28425326579731647,0.09941683256967332,44.66321829402617,-0.14411588202295175,0.015481284819889694,0.030378207890917098,0.07568073272705078
2026-01-14 16:15:29.602666,1768378529,599228765,1,156379,0,1768378529,582547885,2,148052,0,1768378529,585891439,3,174765,0,1768378529,589220333,4,160845,0,1768378529,592609009,5,143097,0,1768378529,595892391,6,145179,0,-0.0010659071849659085,0.0004590779426507652,45.0009880065918,0.1278110295534134,9.897873878479004,-0.13129112124443054,43.09621047973633,53.03549575805664,35.13133239746094,53.035003662109375,60.16025161743164,53.03953170776367,1768378529,512858104,X6-tool2,-0.28425326579731647,0.09941683256967332,44.66321829402617,-0.14411588202295175,0.015481284819889694,0.030378207890917098,0.07568073272705078
2026-01-14 16:15:29.638928,1768378529,619304971,1,156379,0,1768378529,622556002,2,148052,0,1768378529,625907007,3,174765,0,1768378529,629200889,4,160845,0,1768378529,632569604,5,143097,0,1768378529,635890068,6,145179,0,-0.0010659071849659085,0.0004590779426507652,45.0009880065918,0.1278110295534134,9.897873878479004,-0.13129112124443054,43.09621047973633,53.03549575805664,35.13133239746094,53.035003662109375,60.16025161743164,53.03953170776367,1768378529,612133764,X6-tool2,-0.28184066973363175,0.11078832179337045,44.6722084887564,-0.14372527071186797,0.015395626387335291,0.030472712373494342,0.06868235021829605
2026-01-14 16:15:29.675217,1768378529,659263887,1,156379,0,1768378529,662574810,2,148052,0,1768378529,665917704,3,174765,0,1768378529,669237938,4,160845,0,1768378529,672553751,5,143097,0,1768378529,655905992,6,145179,0,-0.0010659071849659085,0.0004590779426507652,45.0009880065918,0.1278110295534134,9.897873878479004,-0.13129112124443054,43.09621047973633,53.03549575805664,35.13133239746094,53.035003662109375,60.16025161743164,53.03953170776367,1768378529,612133764,X6-tool2,-0.28184066973363175,0.11078832179337045,44.6722084887564,-0.14372527071186797,0.015395626387335291,0.030472712373494342,0.06868235021829605
2026-01-14 16:15:29.711253,1768378529,699237973,1,156379,0,1768378529,702557276,2,148052,0,1768378529,705903540,3,174765,0,1768378529,709224744,4,160845,0,1768378529,692574895,5,143097,0,1768378529,695908829,6,145179,0,-0.0010659071849659085,0.0004590779426507652,45.0009880065918,0.1278110295534134,9.897873878479004,-0.13129112124443054,43.09621047973633,53.03549575805664,35.13133239746094,53.035003662109375,60.16025161743164,53.03953170776367,1768378529,612133764,X6-tool2,-0.28184066973363175,0.11078832179337045,44.6722084887564,-0.14372527071186797,0.015395626387335291,0.030472712373494342,0.06868235021829605
2026-01-14 16:15:29.748070,1768378529,739224619,1,156379,0,1768378529,742573294,2,148052,5,1768378529,745891137,3,174765,0,1768378529,729237508,4,160845,0,1768378529,732572102,5,143097,0,1768378529,735906196,6,145179,0,-0.0010659071849659085,0.0004590779426507652,45.0009880065918,0.1278110295534134,9.897873878479004,-0.13129112124443054,43.09621047973633,53.03549575805664,35.13133239746094,53.035003662109375,60.16025161743164,53.03953170776367,1768378529,711658224,X6-tool2,-0.27700421910861234,0.11986796654356836,44.63266278550185,-0.14384650341533947,0.015299977839410202,0.03025226969472867,0.0677938461303711
2026-01-14 16:15:29.784440,1768378529,779243347,1,156379,0,1768378529,782578851,2,148052,0,1768378529,765892261,3,174765,0,1768378529,769239565,4,160845,0,1768378529,772554348,5,143097,0,1768378529,775903603,6,145179,0,-0.0010659071849659085,0.0004590779426507652,45.0009880065918,0.1278110295534134,9.897873878479004,-0.13129112124443054,43.09621047973633,53.03549575805664,35.13133239746094,53.035003662109375,60.16025161743164,53.03953170776367,1768378529,711658224,X6-tool2,-0.27700421910861234,0.11986796654356836,44.63266278550185,-0.14384650341533947,0.015299977839410202,0.03025226969472867,0.0677938461303711
2026-01-14 16:15:29.820853,1768378529,819210833,1,156379,0,1768378529,802572974,2,148052,0,1768378529,805868146,3,174765,0,1768378529,809238152,4,160845,0,1768378529,812573355,5,143097,0,1768378529,815906060,6,145179,0,-0.0010659071849659085,0.0004590779426507652,45.0009880065918,0.1278110295534134,9.897873878479004,-0.13129112124443054,43.09621047973633,53.03549575805664,35.13133239746094,53.035003662109375,60.16025161743164,53.03953170776367,1768378529,811021408,X6-tool2,-0.2615499916474073,0.11381362784950227,44.66527276154699,-0.1436219675022176,0.01497128737473223,0.030402877744696525,0.06910546869039536
2026-01-14 16:15:29.857933,1768378529,839239867,1,156379,0,1768378529,842644564,2,148052,0,1768378529,845907065,3,174765,0,1768378529,849236478,4,160845,0,1768378529,852553022,5,143097,0,1768378529,855902766,6,145179,0,-0.0010659071849659085,0.0004590779426507652,45.0009880065918,0.1278110295534134,9.897873878479004,-0.13129112124443054,43.09621047973633,53.03549575805664,35.13133239746094,53.035003662109375,60.16025161743164,53.03953170776367,1768378529,811021408,X6-tool2,-0.2615499916474073,0.11381362784950227,44.66527276154699,-0.1436219675022176,0.01497128737473223,0.030402877744696525,0.06910546869039536
2026-01-14 16:15:29.894626,1768378529,879237284,1,156379,0,1768378529,882549057,2,148052,0,1768378529,885907272,3,174765,0,1768378529,889183244,4,160845,0,1768378529,892565709,5,143097,0,1768378529,875905960,6,145179,0,-0.0010659071849659085,0.0004590779426507652,45.0009880065918,0.1278110295534134,9.897873878479004,-0.13129112124443054,43.09621047973633,53.03549575805664,35.13133239746094,53.035003662109375,60.16025161743164,53.03953170776367,1768378529,811021408,X6-tool2,-0.2615499916474073,0.11381362784950227,44.66527276154699,-0.1436219675022176,0.01497128737473223,0.030402877744696525,0.06910546869039536
2026-01-14 16:15:29.930825,1768378529,919216700,1,156379,0,1768378529,922576045,2,148052,0,1768378529,925881408,3,174765,0,1768378529,929236643,4,160845,0,1768378529,912629235,5,143097,0,1768378529,915902337,6,145179,0,-0.0010659071849659085,0.0004590779426507652,45.0009880065918,0.1278110295534134,9.897873878479004,-0.13129112124443054,43.09621047973633,53.03549575805664,35.13133239746094,53.035003662109375,60.16025161743164,53.03953170776367,1768378529,910352861,X6-tool2,-0.28798084096673654,0.10654809366762533,44.69217955770115,-0.14374213666321684,0.01561487913980713,0.03048525229221472,0.06725629419088364
2026-01-14 16:15:29.966973,1768378529,959256158,1,156379,0,1768378529,962574722,2,148052,0,1768378529,965881075,3,174765,0,1768378529,949211365,4,160845,0,1768378529,952567430,5,143097,0,1768378529,955900963,6,145179,0,-0.0010659071849659085,0.0004590779426507652,45.0009880065918,0.1278110295534134,9.897873878479004,-0.13129112124443054,43.09621047973633,53.03549575805664,35.13133239746094,53.035003662109375,60.16025161743164,53.03953170776367,1768378529,910352861,X6-tool2,-0.28798084096673654,0.10654809366762533,44.69217955770115,-0.14374213666321684,0.01561487913980713,0.03048525229221472,0.06725629419088364
2026-01-14 16:15:30.002632,1768378529,999223194,1,156379,0,1768378529,982575085,2,148052,0,1768378529,985868578,3,174765,0,1768378529,989223972,4,160845,0,1768378529,992560426,5,143097,0,1768378529,995906681,6,145179,0,-0.0010659071849659085,0.0004590779426507652,45.0009880065918,0.1278110295534134,9.897873878479004,-0.13129112124443054,43.09621047973633,53.03549575805664,35.13133239746094,53.035003662109375,60.16025161743164,53.03953170776367,1768378529,910352861,X6-tool2,-0.28798084096673654,0.10654809366762533,44.69217955770115,-0.14374213666321684,0.01561487913980713,0.03048525229221472,0.06725629419088364
2026-01-14 16:15:30.038842,1768378530,19315551,1,156379,0,1768378530,22538941,2,148052,0,1768378530,25878365,3,174765,0,1768378530,29211719,4,160845,0,1768378530,32569354,5,143097,0,1768378530,35890287,6,145179,0,-0.0010659071849659085,0.0004590779426507652,45.0009880065918,0.1278110295534134,9.897873878479004,-0.13129112124443054,43.09621047973633,53.03549575805664,35.13133239746094,53.035003662109375,60.16025161743164,53.03953170776367,1768378530,10012015,X6-tool2,-0.2744761758801077,0.12555067965038885,44.65626418956176,-0.14354589367778547,0.015246920083162288,0.030379393403595488,0.07053407281637192
2026-01-14 16:15:30.075126,1768378530,59223234,1,156379,0,1768378530,62577489,2,148052,0,1768378530,65952034,3,174765,0,1768378530,69218136,4,160845,0,1768378530,72572101,5,143097,0,1768378530,55905191,6,145179,0,-0.0010659071849659085,0.0004590779426507652,45.0009880065918,0.1278110295534134,9.897873878479004,-0.13129112124443054,43.09621047973633,53.03549575805664,35.13133239746094,53.035003662109375,60.16025161743164,53.03953170776367,1768378530,10012015,X6-tool2,-0.2744761758801077,0.12555067965038885,44.65626418956176,-0.14354589367778547,0.015246920083162288,0.030379393403595488,0.07053407281637192
2026-01-14 16:15:30.110961,1768378530,99235202,1,156379,0,1768378530,102552615,2,148052,0,1768378530,105901099,3,174765,0,1768378530,109195142,4,160845,0,1768378530,92571184,5,143097,0,1768378530,95881347,6,145179,0,-0.0010659071849659085,0.0004590779426507652,45.0009880065918,0.1278110295534134,9.897873878479004,-0.13129112124443054,43.09621047973633,53.03549575805664,35.13133239746094,53.035003662109375,60.16025161743164,53.03953170776367,1768378530,109283295,X6-tool2,-0.2871822766666525,0.12517859800263909,44.69507509271188,-0.14347530188991295,0.015659139273814876,0.030446709808740435,0.0708821639418602
2026-01-14 16:15:30.147228,1768378530,139237109,1,156379,0,1768378530,142538461,2,148052,0,1768378530,145897976,3,174765,0,1768378530,129234307,4,160845,0,1768378530,132544750,5,143097,0,1768378530,135921655,6,145179,0,-0.0010659071849659085,0.0004590779426507652,45.0009880065918,0.1278110295534134,9.897873878479004,-0.13129112124443054,43.09621047973633,53.03549575805664,35.13133239746094,53.035003662109375,60.16025161743164,53.03953170776367,1768378530,109283295,X6-tool2,-0.2871822766666525,0.12517859800263909,44.69507509271188,-0.14347530188991295,0.015659139273814876,0.030446709808740435,0.0708821639418602
2026-01-14 16:15:30.182510,1768378530,179235965,1,156379,0,1768378530,162580376,2,148052,0,1768378530,165883639,3,174765,0,1768378530,169213653,4,160845,0,1768378530,172568017,5,143097,0,1768378530,175907351,6,145179,0,-0.0010659071849659085,0.0004590779426507652,45.0009880065918,0.1278110295534134,9.897873878479004,-0.13129112124443054,43.09621047973633,53.03549575805664,35.13133239746094,53.035003662109375,60.16025161743164,53.03953170776367,1768378530,109283295,X6-tool2,-0.2871822766666525,0.12517859800263909,44.69507509271188,-0.14347530188991295,0.015659139273814876,0.030446709808740435,0.0708821639418602
2026-01-14 16:15:30.218780,1768378530,199236659,1,156379,0,1768378530,202572043,2,148052,0,1768378530,205884296,3,174765,0,1768378530,209206759,4,160845,0,1768378530,212554854,5,143097,0,1768378530,215902338,6,145179,0,-0.0010659071849659085,0.0004590779426507652,45.0009880065918,0.1278110295534134,9.897873878479004,-0.13129112124443054,43.09621047973633,53.03549575805664,35.13133239746094,53.035003662109375,60.16025161743164,53.03953170776367,1768378530,209040123,X6-tool2,-0.28444062535835546,0.11028107956134943,44.659729886748515,-0.14387289302330844,0.01550454979570411,0.030353618451995957,0.07028325647115707
2026-01-14 16:15:30.255010,1768378530,239213255,1,156379,0,1768378530,242547198,2,148052,0,1768378530,245898323,3,174765,0,1768378530,249207286,4,160845,0,1768378530,252552161,5,143097,0,1768378530,235907912,6,145179,0,-0.0010659071849659085,0.0004590779426507652,45.0009880065918,0.1278110295534134,9.897873878479004,-0.13129112124443054,43.09621047973633,53.03549575805664,35.13133239746094,53.035003662109375,60.16025161743164,53.03953170776367,1768378530,209040123,X6-tool2,-0.28444062535835546,0.11028107956134943,44.659729886748515,-0.14387289302330844,0.01550454979570411,0.030353618451995957,0.07028325647115707
2026-01-14 16:15:30.291259,1768378530,279179190,1,156379,0,1768378530,282578486,2,148052,0,1768378530,285893710,3,174765,0,1768378530,289211293,4,160845,0,1768378530,272570605,5,143097,0,1768378530,275905998,6,145179,0,-0.0010659071849659085,0.0004590779426507652,45.0009880065918,0.1278110295534134,9.897873878479004,-0.13129112124443054,43.09621047973633,53.03549575805664,35.13133239746094,53.035003662109375,60.16025161743164,53.03953170776367,1768378530,209040123,X6-tool2,-0.28444062535835546,0.11028107956134943,44.659729886748515,-0.14387289302330844,0.01550454979570411,0.030353618451995957,0.07028325647115707
2026-01-14 16:15:30.327392,1768378530,319240869,1,156379,0,1768378530,322573713,2,148052,0,1768378530,325844725,3,174765,0,1768378530,309212477,4,160845,0,1768378530,312553961,5,143097,0,1768378530,315901305,6,145179,0,-0.0010659071849659085,0.0004590779426507652,45.0009880065918,0.1278110295534134,9.897873878479004,-0.13129112124443054,43.09621047973633,53.03549575805664,35.13133239746094,53.035003662109375,60.16025161743164,53.03953170776367,1768378530,308468279,X6-tool2,-0.26888348336824325,0.11139589096000871,44.63778027838197,-0.14382747744201452,0.01515475474314668,0.030555360037782798,0.07243696600198746
2026-01-14 16:15:30.364647,1768378530,359221435,1,156379,0,1768378530,362576510,2,148052,0,1768378530,345899140,3,174765,0,1768378530,349241204,4,160845,0,1768378530,352565638,5,143097,0,1768378530,355919672,6,145179,0,-0.0010659071849659085,0.0004590779426507652,45.0009880065918,0.1278110295534134,9.897873878479004,-0.13129112124443054,43.09621047973633,53.03549575805664,35.13133239746094,53.035003662109375,60.16025161743164,53.03953170776367,1768378530,308468279,X6-tool2,-0.26888348336824325,0.11139589096000871,44.63778027838197,-0.14382747744201452,0.01515475474314668,0.030555360037782798,0.07243696600198746
2026-01-14 16:15:30.401807,1768378530,399229703,1,156379,0,1768378530,382552393,2,148052,0,1768378530,385886597,3,174765,0,1768378530,389220640,4,160845,0,1768378530,392573985,5,143097,0,1768378530,395888398,6,145179,0,-0.0010659071849659085,0.0004590779426507652,45.0009880065918,0.1278110295534134,9.897873878479004,-0.13129112124443054,43.09621047973633,53.03549575805664,35.13133239746094,53.035003662109375,60.16025161743164,53.03953170776367,1768378530,308468279,X6-tool2,-0.26888348336824325,0.11139589096000871,44.63778027838197,-0.14382747744201452,0.01515475474314668,0.030555360037782798,0.07243696600198746
2026-01-14 16:15:30.438545,1768378530,419331480,1,156379,0,1768378530,422584441,2,148052,0,1768378530,425882333,3,174765,0,1768378530,429223537,4,160845,0,1768378530,432552361,5,143097,0,1768378530,435919026,6,145179,0,-0.0010659071849659085,0.0004590779426507652,45.0009880065918,0.1278110295534134,9.897873878479004,-0.13129112124443054,43.09621047973633,53.03549575805664,35.13133239746094,53.035003662109375,60.16025161743164,53.03953170776367,1768378530,407877944,X6-tool2,-0.2804080728262371,0.11654495587996205,44.690172247797776,-0.14376275040480502,0.015494253766503733,0.030350472426008638,0.07138188928365707
2026-01-14 16:15:30.474551,1768378530,459225213,1,156379,0,1768378530,462549596,2,148052,0,1768378530,465896520,3,174765,0,1768378530,469216224,4,160845,0,1768378530,472553768,5,143097,0,1768378530,455881668,6,145179,0,-0.0010659071849659085,0.0004590779426507652,45.0009880065918,0.1278110295534134,9.897873878479004,-0.13129112124443054,43.09621047973633,53.03549575805664,35.13133239746094,53.035003662109375,60.16025161743164,53.03953170776367,1768378530,407877944,X6-tool2,-0.2804080728262371,0.11654495587996205,44.690172247797776,-0.14376275040480502,0.015494253766503733,0.030350472426008638,0.07138188928365707
2026-01-14 16:15:30.510926,1768378530,499226920,1,156379,0,1768378530,502553513,2,148052,0,1768378530,505866356,3,174765,0,1768378530,509218261,4,160845,0,1768378530,492557711,5,143097,0,1768378530,495884965,6,145179,0,-0.0010659071849659085,0.0004590779426507652,45.0009880065918,0.1278110295534134,9.897873878479004,-0.13129112124443054,43.09621047973633,53.03549575805664,35.13133239746094,53.035003662109375,60.16025161743164,53.03953170776367,1768378530,507467406,X6-tool2,-0.2654814724717023,0.0992554653866356,44.66030796266978,-0.14397691737940416,0.014986699750520159,0.030536818194905262,0.0696776732802391
2026-01-14 16:15:30.547513,1768378530,539220256,1,156379,0,1768378530,542575621,2,148052,0,1768378530,545894804,3,174765,0,1768378530,529226285,4,160845,0,1768378530,532551968,5,143097,0,1768378530,535873401,6,145179,0,-0.0010659071849659085,0.0004590779426507652,45.0009880065918,0.1278110295534134,9.897873878479004,-0.13129112124443054,43.09621047973633,53.03549575805664,35.13133239746094,53.035003662109375,60.16025161743164,53.03953170776367,1768378530,507467406,X6-tool2,-0.2654814724717023,0.0992554653866356,44.66030796266978,-0.14397691737940416,0.014986699750520159,0.030536818194905262,0.0696776732802391
2026-01-14 16:15:30.584394,1768378530,579220723,1,156379,0,1768378530,582622769,2,148052,0,1768378530,565883787,3,174765,0,1768378530,569216651,4,160845,0,1768378530,572548845,5,143097,0,1768378530,575884509,6,145179,0,-0.0010659071849659085,0.0004590779426507652,45.0009880065918,0.1278110295534134,9.897873878479004,-0.13129112124443054,43.09621047973633,53.03549575805664,35.13133239746094,53.035003662109375,60.16025161743164,53.03953170776367,1768378530,507467406,X6-tool2,-0.2654814724717023,0.0992554653866356,44.66030796266978,-0.14397691737940416,0.014986699750520159,0.030536818194905262,0.0696776732802391
2026-01-14 16:15:30.620025,1768378530,619218179,1,156379,0,1768378530,602548660,2,148052,0,1768378530,605877274,3,174765,0,1768378530,609217338,4,160845,0,1768378530,612556662,5,143097,0,1768378530,615889256,6,145179,0,-0.0010659071849659085,0.0004590779426507652,45.0009880065918,0.1278110295534134,9.897873878479004,-0.13129112124443054,43.09621047973633,53.03549575805664,35.13133239746094,53.035003662109375,60.16025161743164,53.03953170776367,1768378530,607077239,X6-tool2,-0.2700789012961382,0.11791489911672405,44.6421636040635,-0.1438138156575925,0.015100659060880312,0.030290546526420985,0.06735420227050781
2026-01-14 16:15:30.657362,1768378530,639219863,1,156379,0,1768378530,642552037,2,148052,0,1768378530,645882420,3,174765,0,1768378530,649194084,4,160845,0,1768378530,652492846,5,143097,0,1768378530,655882862,6,145179,0,-0.0010659071849659085,0.0004590779426507652,45.0009880065918,0.1278110295534134,9.897873878479004,-0.13129112124443054,43.09621047973633,53.03549575805664,35.13133239746094,53.035003662109375,60.16025161743164,53.03953170776367,1768378530,607077239,X6-tool2,-0.2700789012961382,0.11791489911672405,44.6421636040635,-0.1438138156575925,0.015100659060880312,0.030290546526420985,0.06735420227050781
2026-01-14 16:15:30.694325,1768378530,679213489,1,156379,0,1768378530,682552974,2,148052,0,1768378530,685884717,3,174765,0,1768378530,689214941,4,160845,0,1768378530,692545695,5,143097,0,1768378530,675885366,6,145179,0,-0.0010659071849659085,0.0004590779426507652,45.0009880065918,0.1278110295534134,9.897873878479004,-0.13129112124443054,43.09621047973633,53.03549575805664,35.13133239746094,53.035003662109375,60.16025161743164,53.03953170776367,1768378530,607077239,X6-tool2,-0.2700789012961382,0.11791489911672405,44.6421636040635,-0.1438138156575925,0.015100659060880312,0.030290546526420985,0.06735420227050781
2026-01-14 16:15:30.730756,1768378530,719216706,1,156379,0,1768378530,722550130,2,148052,0,1768378530,725877784,3,174825,18,1768378530,729218538,4,160845,0,1768378530,712550119,5,143097,0,1768378530,715888223,6,145184,0,-0.0010659071849659085,0.0004590779426507652,45.0009880065918,0.11112336814403534,9.910036087036133,-0.11571023613214493,43.09621047973633,53.03549575805664,35.104331970214844,53.035003662109375,60.16025161743164,53.03953170776367,1768378530,706596017,X6-tool2,-0.28117135662045173,0.12581357753403855,44.6538698256444,-0.14345800287109112,0.015400085647730093,0.03036669691680238,0.07020346075296402
2026-01-14 16:15:30.766478,1768378530,759221703,1,156379,0,1768378530,762548727,2,148052,0,1768378530,765868030,3,174853,-5,1768378530,749217071,4,160845,0,1768378530,752549135,5,143097,0,1768378530,755883539,6,145184,0,0.0001142881010309793,-0.00019459005852695554,45.00041198730469,0.05492277815937996,9.956233024597168,-0.058178309351205826,43.09621047973633,53.03549575805664,35.01633071899414,53.035003662109375,60.16025161743164,53.03453063964844,1768378530,706596017,X6-tool2,-0.28117135662045173,0.12581357753403855,44.6538698256444,-0.14345800287109112,0.015400085647730093,0.03036669691680238,0.07020346075296402
2026-01-14 16:15:30.801887,1768378530,799217470,1,156769,97,1768378530,782550131,2,148052,0,1768378530,785879774,3,174825,-11,1768378530,789216968,4,160845,0,1768378530,792528771,5,142432,-175,1768378530,795884076,6,145184,0,0.0001142881010309793,-0.00019459005852695554,45.00041198730469,0.22564969956874847,9.968029975891113,-0.0724700540304184,42.92020797729492,53.03549575805664,35.07133102416992,53.035003662109375,60.4952507019043,53.03453063964844,1768378530,706596017,X6-tool2,-0.28117135662045173,0.12581357753403855,44.6538698256444,-0.14345800287109112,0.015400085647730093,0.03036669691680238,0.07020346075296402
2026-01-14 16:15:30.837822,1768378530,819217433,1,157000,112,1768378530,822550108,2,148052,0,1768378530,825880461,3,174732,-32,1768378530,829215875,4,160845,0,1768378530,832546589,5,141762,-160,1768378530,835884623,6,145184,0,0.0001142881010309793,-0.00019459005852695554,45.00041198730469,0.6019676327705383,9.972403526306152,-0.04270331189036369,42.4752082824707,53.03549575805664,35.164329528808594,53.035003662109375,61.16025161743164,53.03453063964844,1768378530,805811655,X6-tool2,-0.2724808320924808,0.1220414863332843,44.69477486574772,-0.14418625159685142,0.015199283710554104,0.030706282543988623,0.06860192865133286
2026-01-14 16:15:30.873344,1768378530,859201930,1,157368,89,1768378530,862550774,2,148052,0,1768378530,865875608,3,174600,-34,1768378530,869216652,4,160845,0,1768378530,872547216,5,141147,-139,1768378530,855882436,6,145184,0,0.0001142881010309793,-0.00019459005852695554,45.00041198730469,0.7756108045578003,9.973963737487793,-0.05117854103446007,42.29920959472656,53.03549575805664,35.22433090209961,53.035003662109375,61.4952507019043,53.03453063964844,1768378530,805811655,X6-tool2,-0.2724808320924808,0.1220414863332843,44.69477486574772,-0.14418625159685142,0.015199283710554104,0.030706282543988623,0.06860192865133286
2026-01-14 16:15:30.909053,1768378530,899214147,1,157731,82,1768378530,902547401,2,148052,0,1768378530,905879275,3,174391,-48,1768378530,889216905,4,160845,0,1768378530,892546269,5,140839,-158,1768378530,895884123,6,145184,0,0.0001142881010309793,-0.00019459005852695554,45.00041198730469,1.1814124584197998,9.918333053588867,-0.07987596839666367,41.90420913696289,53.03549575805664,35.41133117675781,53.035003662109375,62.110252380371094,53.03453063964844,1768378530,905509041,X6-tool2,-0.2524764490765323,0.17120867343046625,44.716255749152076,-0.14687843298724387,0.021978285200661026,0.038646599910002334,0.0716094970703125
2026-01-14 16:15:30.944756,1768378530,939202253,1,158099,108,1768378530,942550897,2,148052,0,1768378530,925879358,3,174293,-44,1768378530,929216282,4,160845,0,1768378530,932548466,5,140208,-161,1768378530,935885280,6,145184,0,0.0001142881010309793,-0.00019459005852695554,45.00041198730469,1.5513297319412231,9.870501518249512,-0.13398520648479462,41.585208892822266,53.03549575805664,35.60333251953125,53.035003662109375,62.73125076293945,53.03453063964844,1768378530,905509041,X6-tool2,-0.2524764490765323,0.17120867343046625,44.716255749152076,-0.14687843298724387,0.021978285200661026,0.038646599910002334,0.0716094970703125
2026-01-14 16:15:30.980874,1768378530,979211560,1,158456,90,1768378530,962547031,2,148052,0,1768378530,965861704,3,174111,-50,1768378530,969212309,4,160845,0,1768378530,972550743,5,139642,-126,1768378530,975881276,6,145184,0,0.0001142881010309793,-0.00019459005852695554,45.00041198730469,1.9455043077468872,9.80447769165039,-0.14056821167469025,41.20021057128906,53.03549575805664,35.78533172607422,53.035003662109375,63.33525085449219,53.03453063964844,1768378530,905509041,X6-tool2,-0.2524764490765323,0.17120867343046625,44.716255749152076,-0.14687843298724387,0.021978285200661026,0.038646599910002334,0.0716094970703125
2026-01-14 16:15:31.016612,1768378530,999224295,1,158670,90,1768378531,2549588,2,148052,0,1768378531,5868101,3,173886,-60,1768378531,9215986,4,160845,0,1768378531,12541259,5,139087,-137,1768378531,15885283,6,145184,0,0.0001142881010309793,-0.00019459005852695554,45.00041198730469,2.367100238800049,9.702327728271484,-0.15351885557174683,40.80521011352539,53.03549575805664,36.01033020019531,53.035003662109375,63.8952522277832,53.03453063964844,1768378531,4779331,X6-tool2,-0.20080606253486183,0.19792731780109626,44.72697139653209,-0.14687444234942565,0.033179252225191545,0.04206001447920103,0.0670328140258789
2026-01-14 16:15:31.052704,1768378531,39219401,1,159022,98,1768378531,42549105,2,148052,0,1768378531,45882069,3,173672,-51,1768378531,49211462,4,160845,0,1768378531,32551243,5,138840,-91,1768378531,35883057,6,145184,0,0.0001142881010309793,-0.00019459005852695554,45.00041198730469,2.5580337047576904,9.656657218933105,-0.1684603989124298,40.64020919799805,53.03549575805664,36.120330810546875,53.035003662109375,64.17024993896484,53.03453063964844,1768378531,4779331,X6-tool2,-0.20080606253486183,0.19792731780109626,44.72697139653209,-0.14687444234942565,0.033179252225191545,0.04206001447920103,0.0670328140258789
2026-01-14 16:15:31.091021,1768378531,79211967,1,159335,79,1768378531,82549291,2,148052,0,1768378531,85883415,3,173397,-74,1768378531,89213529,4,160845,0,1768378531,72542699,5,138417,-104,1768378531,75881984,6,145184,0,0.0001142881010309793,-0.00019459005852695554,45.00041198730469,2.9432666301727295,9.542276382446289,-0.1762271225452423,40.28921127319336,53.03549575805664,36.34532928466797,53.035003662109375,64.63225555419922,53.03453063964844,1768378531,4779331,X6-tool2,-0.20080606253486183,0.19792731780109626,44.72697139653209,-0.14687444234942565,0.033179252225191545,0.04206001447920103,0.0670328140258789
2026-01-14 16:15:31.127043,1768378531,119213904,1,159681,103,1768378531,122547398,2,148052,0,1768378531,125884172,3,173172,-55,1768378531,109218972,4,160845,0,1768378531,112552546,5,138043,-102,1768378531,115884450,6,145184,0,0.0001142881010309793,-0.00019459005852695554,45.00041198730469,3.3253228664398193,9.404848098754883,-0.20967687666416168,39.9752082824707,53.03549575805664,36.60932922363281,53.035003662109375,65.02225494384766,53.03453063964844,1768378531,104517688,X6-tool2,-0.2171509985052737,0.17881919251076295,44.70739973288784,-0.14063829901172892,0.052509616217831165,0.04047808289147377,0.06975936889648438
2026-01-14 16:15:31.162699,1768378531,159199440,1,160010,67,1768378531,142552331,2,148052,0,1768378531,145974929,3,173040,-72,1768378531,149228050,4,160845,0,1768378531,152555513,5,137653,-90,1768378531,155883157,6,145184,0,0.0001142881010309793,-0.00019459005852695554,45.00041198730469,3.7319626808166504,9.262962341308594,-0.19270239770412445,39.59621047973633,53.03549575805664,36.85633087158203,53.035003662109375,65.43424987792969,53.03453063964844,1768378531,104517688,X6-tool2,-0.2171509985052737,0.17881919251076295,44.70739973288784,-0.14063829901172892,0.052509616217831165,0.04047808289147377,0.06975936889648438
2026-01-14 16:15:31.198755,1768378531,179218764,1,160148,61,1768378531,182551828,2,148052,0,1768378531,185873241,3,172793,-64,1768378531,189215756,4,160845,0,1768378531,192552109,5,137384,-62,1768378531,195881504,6,145184,0,0.0001142881010309793,-0.00019459005852695554,45.00041198730469,4.067842960357666,9.130350112915039,-0.21539011597633362,39.32720947265625,53.03549575805664,37.10333251953125,53.035003662109375,65.74725341796875,53.03453063964844,1768378531,104517688,X6-tool2,-0.2171509985052737,0.17881919251076295,44.70739973288784,-0.14063829901172892,0.052509616217831165,0.04047808289147377,0.06975936889648438
2026-01-14 16:15:31.234734,1768378531,219217351,1,160417,56,1768378531,222555015,2,148052,0,1768378531,225880358,3,172518,-74,1768378531,229222712,4,160845,0,1768378531,232527275,5,137247,-32,1768378531,215892337,6,145184,0,0.0001142881010309793,-0.00019459005852695554,45.00041198730469,4.241191864013672,9.056190490722656,-0.21628586947917938,39.1792106628418,53.03549575805664,37.229331970214844,53.035003662109375,65.87325286865234,53.03453063964844,1768378531,204409080,X6-tool2,-0.22946605456217833,0.12885923487156514,44.71921387529754,-0.13587057631942706,0.06656566788768833,0.04141439897095595,0.06302420049905777
2026-01-14 16:15:31.270851,1768378531,259215307,1,160692,79,1768378531,262550362,2,148052,0,1768378531,265877755,3,172183,-90,1768378531,269215819,4,160845,0,1768378531,252547759,5,137192,-32,1768378531,255885613,6,145184,0,0.0001142881010309793,-0.00019459005852695554,45.00041198730469,4.585015773773193,8.879560470581055,-0.26188650727272034,38.93220901489258,53.03549575805664,37.537330627441406,53.035003662109375,66.01025390625,53.03453063964844,1768378531,204409080,X6-tool2,-0.22946605456217833,0.12885923487156514,44.71921387529754,-0.13587057631942706,0.06656566788768833,0.04141439897095595,0.06302420049905777
2026-01-14 16:15:31.306612,1768378531,299214714,1,160917,65,1768378531,302548148,2,148052,0,1768378531,305880962,3,171837,-97,1768378531,289217073,4,160845,0,1768378531,292547906,5,137192,0,1768378531,295884390,6,145184,0,0.0001142881010309793,-0.00019459005852695554,45.00041198730469,4.941850662231445,8.681609153747559,-0.29673781991004944,38.668209075927734,53.03549575805664,37.867332458496094,53.035003662109375,66.06525421142578,53.03453063964844,1768378531,304628955,X6-tool2,-0.20441274124260253,0.17089448077801625,44.769127234468016,-0.12937175976911275,0.07758784878060294,0.0450060294635715,0.07207298278808594
2026-01-14 16:15:31.341934,1768378531,339219711,1,161235,43,1768378531,322553211,2,148052,0,1768378531,325876645,3,171639,-77,1768378531,329213849,4,160845,0,1768378531,332546733,5,137225,21,1768378531,335883377,6,145184,0,0.0001142881010309793,-0.00019459005852695554,45.00041198730469,5.33412504196167,8.450350761413574,-0.3459562361240387,38.393211364746094,53.03549575805664,38.25733184814453,53.035003662109375,66.06525421142578,53.03453063964844,1768378531,304628955,X6-tool2,-0.20441274124260253,0.17089448077801625,44.769127234468016,-0.12937175976911275,0.07758784878060294,0.0450060294635715,0.07207298278808594
2026-01-14 16:15:31.377547,1768378531,359213264,1,161378,77,1768378531,362550908,2,148052,0,1768378531,365867611,3,171293,-82,1768378531,369215016,4,160845,0,1768378531,372548550,5,137329,35,1768378531,375885884,6,145184,0,0.0001142881010309793,-0.00019459005852695554,45.00041198730469,5.701355457305908,8.230320930480957,-0.3454760015010834,38.09720993041992,53.03549575805664,38.60333251953125,53.035003662109375,65.99925231933594,53.03453063964844,1768378531,304628955,X6-tool2,-0.20441274124260253,0.17089448077801625,44.769127234468016,-0.12937175976911275,0.07758784878060294,0.0450060294635715,0.07207298278808594
2026-01-14 16:15:31.413324,1768378531,399213050,1,161642,54,1768378531,402552175,2,148052,0,1768378531,405878648,3,170958,-92,1768378531,409214422,4,160845,0,1768378531,412551136,5,137598,64,1768378531,395885397,6,145184,0,0.0001142881010309793,-0.00019459005852695554,45.00041198730469,5.862759590148926,8.127917289733887,-0.33529502153396606,37.95920944213867,53.03549575805664,38.75633239746094,53.035003662109375,65.92825317382812,53.03453063964844,1768378531,404410274,X6-tool2,-0.08534447130792497,0.17532286352876192,44.780035254722115,-0.1214794892151675,0.09010650673882935,0.04892954368290679,0.06613095849752426
2026-01-14 16:15:31.448412,1768378531,439216788,1,161867,56,1768378531,442549821,2,148052,0,1768378531,445877075,3,170607,-92,1768378531,429216006,4,160845,0,1768378531,432546080,5,137741,76,1768378531,435878613,6,145184,0,0.0001142881010309793,-0.00019459005852695554,45.00041198730469,6.18245267868042,7.892920970916748,-0.35315456986427307,37.723209381103516,53.03549575805664,39.11933135986328,53.035003662109375,65.65924835205078,53.03453063964844,1768378531,404410274,X6-tool2,-0.08534447130792497,0.17532286352876192,44.780035254722115,-0.1214794892151675,0.09010650673882935,0.04892954368290679,0.06613095849752426
2026-01-14 16:15:31.484032,1768378531,479211714,1,162087,43,1768378531,482549318,2,148052,0,1768378531,465876748,3,170398,-110,1768378531,469216642,4,160845,0,1768378531,472547176,5,138175,133,1768378531,475883630,6,145184,0,0.0001142881010309793,-0.00019459005852695554,45.00041198730469,6.4942946434021,7.643755912780762,-0.368369996547699,37.49320983886719,53.03549575805664,39.498329162597656,53.035003662109375,65.30225372314453,53.03453063964844,1768378531,404410274,X6-tool2,-0.08534447130792497,0.17532286352876192,44.780035254722115,-0.1214794892151675,0.09010650673882935,0.04892954368290679,0.06613095849752426
2026-01-14 16:15:31.519274,1768378531,499219567,1,162175,39,1768378531,502551131,2,148052,0,1768378531,505872845,3,170008,-104,1768378531,509214979,4,160845,0,1768378531,512554093,5,138664,137,1768378531,515881837,6,145184,0,0.0001142881010309793,-0.00019459005852695554,45.00041198730469,6.7741923332214355,7.3855743408203125,-0.395494669675827,37.300209045410156,53.03549575805664,39.88833236694336,53.035003662109375,64.84625244140625,53.03453063964844,1768378531,504428781,X6-tool2,0.01727578373025464,0.16840509959843067,44.81690586455923,-0.11435170478671566,0.10300829191370575,0.05310805089197473,0.06456629186868668
2026-01-14 16:15:31.555130,1768378531,539221374,1,162356,38,1768378531,542548328,2,148052,0,1768378531,545882862,3,169612,-102,1768378531,549213576,4,160840,0,1768378531,552549100,5,139136,120,1768378531,535881900,6,145184,0,0.0001142881010309793,-0.00019459005852695554,45.00041198730469,6.908177375793457,7.252679824829102,-0.4076174795627594,37.207210540771484,53.03549575805664,40.08633041381836,53.035003662109375,64.59325408935547,53.03453063964844,1768378531,504428781,X6-tool2,0.01727578373025464,0.16840509959843067,44.81690586455923,-0.11435170478671566,0.10300829191370575,0.05310805089197473,0.06456629186868668
2026-01-14 16:15:31.591453,1768378531,579214971,1,162592,68,1768378531,582586786,2,148052,0,1768378531,585879618,3,169184,-112,1768378531,589238353,4,160840,0,1768378531,572547053,5,139400,124,1768378531,575879507,6,145184,0,0.0012704571709036827,0.0005006447318010032,45.0009880065918,7.18591833114624,6.986959934234619,-0.42442455887794495,37.00920867919922,53.03549575805664,40.492332458496094,53.04000473022461,64.12125396728516,53.03453063964844,1768378531,504428781,X6-tool2,0.01727578373025464,0.16840509959843067,44.81690586455923,-0.11435170478671566,0.10300829191370575,0.05310805089197473,0.06456629186868668
2026-01-14 16:15:31.628881,1768378531,619217778,1,162784,42,1768378531,622569142,2,148052,0,1768378531,625898936,3,168679,-125,1768378531,609237456,4,160840,0,1768378531,612551289,5,139966,143,1768378531,615899554,6,145184,0,0.0012704571709036827,0.0005006447318010032,45.0009880065918,7.50173807144165,6.678131103515625,-0.4289538264274597,36.77320861816406,53.03549575805664,40.95933151245117,53.04000473022461,63.566253662109375,53.03453063964844,1768378531,604347074,X6-tool2,0.06679698665202487,0.07103871781186459,44.846649528393236,-0.10673893884159856,0.11551000110529143,0.05341905353196018,0.05795733258128166
2026-01-14 16:15:31.665728,1768378531,659208793,1,162938,37,1768378531,662568609,2,148052,0,1768378531,645873508,3,168431,-132,1768378531,649232123,4,160840,0,1768378531,652550826,5,140587,153,1768378531,655879150,6,145184,0,0.0012704571709036827,0.0005006447318010032,45.0009880065918,7.7756171226501465,6.361382484436035,-0.49032357335090637,36.61920928955078,53.03549575805664,41.46533203125,53.04000473022461,62.98925018310547,53.03453063964844,1768378531,604347074,X6-tool2,0.06679698665202487,0.07103871781186459,44.846649528393236,-0.10673893884159856,0.11551000110529143,0.05341905353196018,0.05795733258128166
2026-01-14 16:15:31.702006,1768378531,699217251,1,163109,44,1768378531,682567852,2,148052,0,1768378531,685881675,3,167964,-119,1768378531,689230369,4,160840,0,1768378531,692564403,5,141290,175,1768378531,695902517,6,145184,0,0.0012704571709036827,0.0005006447318010032,45.0009880065918,8.009902000427246,6.048335075378418,-0.5141509771347046,36.460208892822266,53.03549575805664,41.93233108520508,53.04000473022461,62.33525085449219,53.03453063964844,1768378531,604347074,X6-tool2,0.06679698665202487,0.07103871781186459,44.846649528393236,-0.10673893884159856,0.11551000110529143,0.05341905353196018,0.05795733258128166
2026-01-14 16:15:31.738445,1768378531,719228024,1,163180,33,1768378531,722569098,2,148052,0,1768378531,725867971,3,167498,-129,1768378531,729235016,4,160840,0,1768378531,732566820,5,141943,151,1768378531,735899144,6,145184,0,0.0012704571709036827,0.0005006447318010032,45.0009880065918,8.229199409484863,5.727058410644531,-0.5188903212547302,36.29520797729492,53.03549575805664,42.39833068847656,53.04000473022461,61.63825225830078,53.03453063964844,1768378531,704647323,X6-tool2,0.02405673240648347,0.07624060415134751,44.843190137023875,-0.09602133819427207,0.12926581161308714,0.05206903864821381,0.058887165039777756
2026-01-14 16:15:31.774161,1768378531,759220661,1,163345,42,1768378531,762567615,2,148052,0,1768378531,765878648,3,166965,-146,1768378531,769207472,4,160840,0,1768378531,772549706,5,142575,175,1768378531,755903267,6,145184,0,0.0012704571709036827,0.0005006447318010032,45.0009880065918,8.350377082824707,5.559093475341797,-0.5308202505111694,36.21321105957031,53.03549575805664,42.65732955932617,53.04000473022461,61.31425094604492,53.03453063964844,1768378531,704647323,X6-tool2,0.02405673240648347,0.07624060415134751,44.843190137023875,-0.09602133819427207,0.12926581161308714,0.05206903864821381,0.058887165039777756
2026-01-14 16:15:31.809568,1768378531,799218587,1,163466,36,1768378531,802569912,2,148052,0,1768378531,805897366,3,166448,-120,1768378531,789229766,4,160840,0,1768378531,792548389,5,142921,170,1768378531,795899044,6,145184,0,0.0012704571709036827,0.0005006447318010032,45.0009880065918,8.573930740356445,5.224484443664551,-0.5691127777099609,36.07521057128906,53.03549575805664,43.184329986572266,53.04000473022461,60.6822509765625,53.03453063964844,1768378531,804574936,X6-tool2,0.08221871026791035,0.11953974220032533,44.899408822568695,-0.08415358766870508,0.1399300287502827,0.051211213175276216,0.05854829028248787
2026-01-14 16:15:31.845666,1768378531,839225084,1,163619,27,1768378531,842563759,2,148052,0,1768378531,825874808,3,166179,-130,1768378531,829230403,4,160840,0,1768378531,832569427,5,143674,180,1768378531,835897371,6,145184,0,0.0012704571709036827,0.0005006447318010032,45.0009880065918,8.781427383422852,4.870361804962158,-0.5786617398262024,35.922210693359375,53.03549575805664,43.71733093261719,53.04000473022461,59.96225357055664,53.03453063964844,1768378531,804574936,X6-tool2,0.08221871026791035,0.11953974220032533,44.899408822568695,-0.08415358766870508,0.1399300287502827,0.051211213175276216,0.05854829028248787
2026-01-14 16:15:31.881652,1768378531,879218711,1,163762,38,1768378531,862568842,2,148052,0,1768378531,865879505,3,165608,-116,1768378531,869205239,4,160840,0,1768378531,872548653,5,144355,177,1768378531,875899337,6,145184,0,0.0012704571709036827,0.0005006447318010032,45.0009880065918,8.983680725097656,4.502979755401611,-0.6018435955047607,35.784210205078125,53.03549575805664,44.288330078125,53.04000473022461,59.25425338745117,53.03453063964844,1768378531,804574936,X6-tool2,0.08221871026791035,0.11953974220032533,44.899408822568695,-0.08415358766870508,0.1399300287502827,0.051211213175276216,0.05854829028248787
2026-01-14 16:15:31.917969,1768378531,899229845,1,163812,20,1768378531,902568618,2,148052,0,1768378531,905878932,3,165092,-118,1768378531,909235386,4,160840,0,1768378531,912588611,5,145031,156,1768378531,915903974,6,145184,0,0.0012704571709036827,0.0005006447318010032,45.0009880065918,9.135367393493652,4.155584812164307,-0.604167640209198,35.6632080078125,53.03549575805664,44.8043327331543,53.04000473022461,58.53425216674805,53.03453063964844,1768378531,904633345,X6-tool2,0.027395845747517387,0.16639328787310823,44.889903525256905,-0.07031712164972431,0.15084956654971743,0.049194940407623025,0.0623118095099926
2026-01-14 16:15:31.953871,1768378531,939241071,1,163927,38,1768378531,942571785,2,148052,0,1768378531,945878808,3,164537,-136,1768378531,949233443,4,160840,0,1768378531,952573027,5,145745,210,1768378531,935901608,6,145184,0,0.0012704571709036827,0.0005006447318010032,45.0009880065918,9.21615982055664,3.984649658203125,-0.6224882006645203,35.61420822143555,53.03549575805664,45.07933044433594,53.04000473022461,58.226253509521484,53.03453063964844,1768378531,904633345,X6-tool2,0.027395845747517387,0.16639328787310823,44.889903525256905,-0.07031712164972431,0.15084956654971743,0.049194940407623025,0.0623118095099926
2026-01-14 16:15:31.989378,1768378531,979239268,1,164081,49,1768378531,982578252,2,148052,0,1768378531,985880875,3,163883,-158,1768378531,969235016,4,160840,0,1768378531,972571960,5,146124,215,1768378531,975902144,6,145184,0,0.0012704571709036827,0.0005006447318010032,45.0009880065918,9.393132209777832,3.6038849353790283,-0.6275367736816406,35.477210998535156,53.03549575805664,45.67832946777344,53.04000473022461,57.51225280761719,53.03453063964844,1768378531,904633345,X6-tool2,0.027395845747517387,0.16639328787310823,44.889903525256905,-0.07031712164972431,0.15084956654971743,0.049194940407623025,0.0623118095099926
2026-01-14 16:15:32.025637,1768378532,19238485,1,164207,18,1768378532,22570989,2,148052,0,1768378532,5873308,3,163575,-160,1768378532,9235123,4,160840,0,1768378532,12572367,5,146821,170,1768378532,15901851,6,145184,0,0.0012704571709036827,0.0005006447318010032,45.0009880065918,9.593345642089844,3.2034335136413574,-0.6042502522468567,35.30120849609375,53.03549575805664,46.32133102416992,53.04000473022461,56.78225326538086,53.03453063964844,1768378532,4298660,X6-tool2,0.04301903232876841,0.16351690161437793,44.86615987520295,-0.055115910934102647,0.16109113075425394,0.04688548874347567,0.06027666851878166
2026-01-14 16:15:32.061798,1768378532,59212440,1,164268,14,1768378532,42571422,2,148052,0,1768378532,45882775,3,162966,-157,1768378532,49207859,4,160840,0,1768378532,52568223,5,147519,163,1768378532,55903757,6,145184,0,0.0012704571709036827,0.0005006447318010032,45.0009880065918,9.69906234741211,2.8221447467803955,-0.6395906209945679,35.23521041870117,53.03549575805664,46.93033218383789,53.04000473022461,56.084251403808594,53.03453063964844,1768378532,4298660,X6-tool2,0.04301903232876841,0.16351690161437793,44.86615987520295,-0.055115910934102647,0.16109113075425394,0.04688548874347567,0.06027666851878166
2026-01-14 16:15:32.098399,1768378532,79240784,1,164290,8,1768378532,82573249,2,148052,0,1768378532,85910872,3,162350,-154,1768378532,89232776,4,160840,0,1768378532,92589051,5,148184,170,1768378532,95900034,6,145184,0,0.0012704571709036827,0.0005006447318010032,45.0009880065918,9.782145500183105,2.4372024536132812,-0.6780859231948853,35.185211181640625,53.03549575805664,47.546329498291016,53.04000473022461,55.39225387573242,53.03453063964844,1768378532,4298660,X6-tool2,0.04301903232876841,0.16351690161437793,44.86615987520295,-0.055115910934102647,0.16109113075425394,0.04688548874347567,0.06027666851878166
2026-01-14 16:15:32.134472,1768378532,119223271,1,164361,19,1768378532,122568135,2,148052,0,1768378532,125864867,3,161752,-153,1768378532,129233553,4,160840,0,1768378532,132561666,5,148898,179,1768378532,115901847,6,145184,0,0.0012704571709036827,0.0005006447318010032,45.0009880065918,9.827730178833008,2.2573039531707764,-0.6834498643875122,35.14720916748047,53.03549575805664,47.83732986450195,53.04000473022461,55.0732536315918,53.03453063964844,1768378532,104651569,X6-tool2,-0.01157955615707506,0.1776529397730529,44.90510416608567,-0.04126526457399778,0.16893961109450797,0.044496501270068704,0.05346139147877693
2026-01-14 16:15:32.171166,1768378532,159200676,1,164427,14,1768378532,162554391,2,148052,0,1768378532,165880214,3,161071,-169,1768378532,169193318,4,160840,0,1768378532,152563469,5,149238,137,1768378532,155861592,6,145184,0,0.0012704571709036827,0.0005006447318010032,45.0009880065918,9.906631469726562,1.8531759977340698,-0.7011826038360596,35.08121109008789,53.03549575805664,48.49032974243164,53.04000473022461,54.3592529296875,53.03453063964844,1768378532,104651569,X6-tool2,-0.01157955615707506,0.1776529397730529,44.90510416608567,-0.04126526457399778,0.16893961109450797,0.044496501270068704,0.05346139147877693
2026-01-14 16:15:32.206635,1768378532,199236404,1,164471,2,1768378532,202554517,2,148052,0,1768378532,205901282,3,160428,-153,1768378532,189218122,4,160840,0,1768378532,192569687,5,149875,151,1768378532,195886230,6,145184,0,0.0012704571709036827,0.0005006447318010032,45.0009880065918,9.981470108032227,1.4559382200241089,-0.7228794097900391,35.021209716796875,53.03549575805664,49.155330657958984,53.04000473022461,53.69525146484375,53.03453063964844,1768378532,204338693,X6-tool2,0.0007150706981248017,0.21788504229738254,44.86504298280705,-0.026243206169503472,0.1726617150746709,0.043874664854002994,0.06354936212301254
2026-01-14 16:15:32.242342,1768378532,239237341,1,164526,14,1768378532,222578231,2,148052,0,1768378532,225877144,3,160104,-157,1768378532,229191437,4,160840,0,1768378532,232570053,5,150518,144,1768378532,235860115,6,145184,0,0.0012704571709036827,0.0005006447318010032,45.0009880065918,10.028993606567383,1.0741182565689087,-0.7419458627700806,34.977210998535156,53.03549575805664,49.79233169555664,53.04000473022461,53.0572509765625,53.03453063964844,1768378532,204338693,X6-tool2,0.0007150706981248017,0.21788504229738254,44.86504298280705,-0.026243206169503472,0.1726617150746709,0.043874664854002994,0.06354936212301254
2026-01-14 16:15:32.278153,1768378532,259236614,1,164548,9,1768378532,262554297,2,148052,0,1768378532,265876551,3,159439,-175,1768378532,269193254,4,160845,5,1768378532,272570509,5,151205,178,1768378532,275892923,6,145184,0,0.0001142881010309793,-0.00019459005852695554,45.00041198730469,10.069671630859375,0.6765979528427124,-0.7494612336158752,34.927207946777344,53.03549575805664,50.457332611083984,53.035003662109375,52.398250579833984,53.03453063964844,1768378532,204338693,X6-tool2,0.0007150706981248017,0.21788504229738254,44.86504298280705,-0.026243206169503472,0.1726617150746709,0.043874664854002994,0.06354936212301254
2026-01-14 16:15:32.313963,1768378532,299236930,1,164581,0,1768378532,302548883,2,148052,0,1768378532,305901358,3,158763,-165,1768378532,309221422,4,160845,0,1768378532,312576246,5,151837,109,1768378532,295880796,6,145184,0,0.0001142881010309793,-0.00019459005852695554,45.00041198730469,10.071948051452637,0.47433212399482727,-0.7506644129753113,34.91120910644531,53.03549575805664,50.787330627441406,53.035003662109375,52.05225372314453,53.03453063964844,1768378532,304617420,X6-tool2,-0.017604413309342763,0.20710042095809691,44.89517160226587,-0.012606957291092537,0.17537193769703877,0.04299996388309625,0.058373451232910156
2026-01-14 16:15:32.349429,1768378532,339238007,1,164597,0,1768378532,342557990,2,148052,0,1768378532,345877593,3,158038,-184,1768378532,329213094,4,160845,0,1768378532,332569569,5,152161,190,1768378532,335896902,6,145184,0,0.0001142881010309793,-0.00019459005852695554,45.00041198730469,10.091814994812012,0.06411486119031906,-0.77881920337677,34.88920974731445,53.03549575805664,51.50633239746094,53.035003662109375,51.42025375366211,53.03453063964844,1768378532,304617420,X6-tool2,-0.017604413309342763,0.20710042095809691,44.89517160226587,-0.012606957291092537,0.17537193769703877,0.04299996388309625,0.058373451232910156
2026-01-14 16:15:32.385783,1768378532,379277905,1,164597,0,1768378532,382591048,2,148052,0,1768378532,365904968,3,157703,-167,1768378532,369241762,4,160845,0,1768378532,372579186,5,152721,133,1768378532,375979692,6,145184,0,0.0001142881010309793,-0.00019459005852695554,45.00041198730469,10.086710929870605,-0.3293772339820862,-0.799465000629425,34.87820816040039,53.03549575805664,52.19333267211914,53.035003662109375,50.81125259399414,53.03453063964844,1768378532,304617420,X6-tool2,-0.017604413309342763,0.20710042095809691,44.89517160226587,-0.012606957291092537,0.17537193769703877,0.04299996388309625,0.058373451232910156
2026-01-14 16:15:32.421842,1768378532,419239510,1,164597,0,1768378532,402536819,2,148052,0,1768378532,405872173,3,157033,-173,1768378532,409201967,4,160845,0,1768378532,412578152,5,153336,153,1768378532,415966548,6,145184,0,0.0001142881010309793,-0.00019459005852695554,45.00041198730469,10.06795597076416,-0.7077503204345703,-0.8216931223869324,34.87820816040039,53.03549575805664,52.86333084106445,53.035003662109375,50.23925018310547,53.03453063964844,1768378532,404491392,X6-tool2,-0.04362954398966488,0.20505430448271542,44.88987187108943,0.000977161743297686,0.17641002067216738,0.04217639980829165,0.05875841900706291
2026-01-14 16:15:32.458094,1768378532,439240703,1,164597,0,1768378532,442584907,2,148052,0,1768378532,445873060,3,156259,-200,1768378532,449212314,4,160845,0,1768378532,452541737,5,153990,145,1768378532,455899982,6,145184,0,0.0001142881010309793,-0.00019459005852695554,45.00041198730469,10.033193588256836,-1.1409740447998047,-0.8360499739646912,34.87820816040039,53.03549575805664,53.637332916259766,53.035003662109375,49.58625030517578,53.03453063964844,1768378532,404491392,X6-tool2,-0.04362954398966488,0.20505430448271542,44.88987187108943,0.000977161743297686,0.17641002067216738,0.04217639980829165,0.05875841900706291
2026-01-14 16:15:32.493931,1768378532,479238380,1,164592,0,1768378532,482568594,2,148052,0,1768378532,485900677,3,155544,-191,1768378532,489222041,4,160845,0,1768378532,492562545,5,154545,151,1768378532,475918037,6,145184,0,0.0001142881010309793,-0.00019459005852695554,45.00041198730469,10.001509666442871,-1.346337914466858,-0.8365086913108826,34.883209228515625,53.03549575805664,53.995330810546875,53.035003662109375,49.26725387573242,53.03453063964844,1768378532,404491392,X6-tool2,-0.04362954398966488,0.20505430448271542,44.88987187108943,0.000977161743297686,0.17641002067216738,0.04217639980829165,0.05875841900706291
2026-01-14 16:15:32.529813,1768378532,519235696,1,164575,0,1768378532,522559410,2,148052,0,1768378532,525874953,3,154825,-139,1768378532,529208797,4,160845,0,1768378532,512542338,5,154841,95,1768378532,515905742,6,145184,0,0.0001142881010309793,-0.00019459005852695554,45.00041198730469,9.960055351257324,-1.7319904565811157,-0.8477540612220764,34.88920974731445,53.03549575805664,54.714332580566406,53.035003662109375,48.71225357055664,53.03453063964844,1768378532,504550131,X6-tool2,-0.06519344847832483,0.16327641215349417,44.873356793139145,0.015166936890374284,0.17669498837742875,0.04155278508545457,0.06056499481201172
