TCliu030506/rrc_ws/src/x6_pkg/x6_control_python/record/record_20251223_165423.csv
timestamp,out_1_header.stamp.sec,out_1_header.stamp.nanosec,out_1_header.frame_id,out_1_val,out_1_speed,out_2_header.stamp.sec,out_2_header.stamp.nanosec,out_2_header.frame_id,out_2_val,out_2_speed,out_3_header.stamp.sec,out_3_header.stamp.nanosec,out_3_header.frame_id,out_3_val,out_3_speed,out_4_header.stamp.sec,out_4_header.stamp.nanosec,out_4_header.frame_id,out_4_val,out_4_speed,out_5_header.stamp.sec,out_5_header.stamp.nanosec,out_5_header.frame_id,out_5_val,out_5_speed,out_6_header.stamp.sec,out_6_header.stamp.nanosec,out_6_header.frame_id,out_6_val,out_6_speed,x6position_pose_rp[0],x6position_pose_rp[1],x6position_pose_rp[2],x6position_pose_rp[3],x6position_pose_rp[4],x6position_pose_rp[5],x6position_joints[0],x6position_joints[1],x6position_joints[2],x6position_joints[3],x6position_joints[4],x6position_joints[5],aimooe_coord_header.stamp.sec,aimooe_coord_header.stamp.nanosec,aimooe_coord_header.frame_id,aimooe_coord_position.x,aimooe_coord_position.y,aimooe_coord_position.z,aimooe_coord_orientation.x,aimooe_coord_orientation.y,aimooe_coord_orientation.z,aimooe_coord_mean_error
2025-12-23 16:54:02.859732,1766480042,840655816,1,149293,0,1766480042,857304024,2,147349,0,1766480042,853989179,3,139296,0,1766480042,850640522,4,178923,0,1766480042,847322158,5,198869,0,1766480042,843984162,6,143163,0,0.0002498831890989095,5.771531581878662,45.00300979614258,-0.0013746152399107814,0.0005339283961802721,-0.0007056679460220039,36.67900085449219,41.10499954223633,57.15299987792969,61.42300033569336,45.79800033569336,64.14800262451172,1766480042,776427384,X6-tool2,-0.6298759373375549,4.201438755761435,43.34710963831289,0.008150940564878518,0.134904983385203,-0.24915847278920178,0.06417783349752426
2025-12-23 16:54:02.895750,1766480042,880659125,1,149293,0,1766480042,877344200,2,147349,0,1766480042,893986497,3,139296,0,1766480042,890650941,4,178923,0,1766480042,887315835,5,198869,0,1766480042,884009841,6,143163,0,0.0002498831890989095,5.771531581878662,45.00300979614258,-0.0013746152399107814,0.0005339283961802721,-0.0007056679460220039,36.67900085449219,41.10499954223633,57.15299987792969,61.42300033569336,45.79800033569336,64.14800262451172,1766480042,876069542,X6-tool2,-0.60767430075666,4.211352801803419,43.4012860795595,0.008462545575320547,0.13507928165916153,-0.24916622575482683,0.06152184680104256
2025-12-23 16:54:02.931480,1766480042,920659433,1,149293,0,1766480042,917333097,2,147349,0,1766480042,913997561,3,139296,0,1766480042,930643949,4,178923,0,1766480042,927346995,5,198869,0,1766480042,923973878,6,143163,0,0.0002498831890989095,5.771531581878662,45.00300979614258,-0.0013746152399107814,0.0005339283961802721,-0.0007056679460220039,36.67900085449219,41.10499954223633,57.15299987792969,61.42300033569336,45.79800033569336,64.14800262451172,1766480042,876069542,X6-tool2,-0.60767430075666,4.211352801803419,43.4012860795595,0.008462545575320547,0.13507928165916153,-0.24916622575482683,0.06152184680104256
2025-12-23 16:54:02.967836,1766480042,960682042,1,149293,0,1766480042,957339856,2,147349,0,1766480042,954010980,3,139296,0,1766480042,950681315,4,178923,0,1766480042,967363034,5,198869,0,1766480042,963991287,6,143163,0,0.0002498831890989095,5.771531581878662,45.00300979614258,-0.0013746152399107814,0.0005339283961802721,-0.0007056679460220039,36.67900085449219,41.10499954223633,57.15299987792969,61.42300033569336,45.79800033569336,64.14800262451172,1766480042,876069542,X6-tool2,-0.60767430075666,4.211352801803419,43.4012860795595,0.008462545575320547,0.13507928165916153,-0.24916622575482683,0.06152184680104256
2025-12-23 16:54:03.003451,1766480043,663780,1,149293,0,1766480042,997354175,2,147349,0,1766480042,994011149,3,139296,0,1766480042,990636392,4,178923,0,1766480042,987325927,5,198869,0,1766480042,984068924,6,143163,0,0.0002498831890989095,5.771531581878662,45.00300979614258,-0.0013746152399107814,0.0005339283961802721,-0.0007056679460220039,36.67900085449219,41.10499954223633,57.15299987792969,61.42300033569336,45.79800033569336,64.14800262451172,1766480042,975482500,X6-tool2,-0.6358883471582346,4.259713106632827,43.404640215504074,0.008312012665545472,0.13549071616229647,-0.24909446016403355,0.06210136413574219
2025-12-23 16:54:03.039957,1766480043,20661164,1,149293,0,1766480043,37308302,2,147349,0,1766480043,33996617,3,139296,0,1766480043,30645590,4,178923,0,1766480043,27338725,5,198869,0,1766480043,23978559,6,143163,0,0.0002498831890989095,5.771531581878662,45.00300979614258,-0.0013746152399107814,0.0005339283961802721,-0.0007056679460220039,36.67900085449219,41.10499954223633,57.15299987792969,61.42300033569336,45.79800033569336,64.14800262451172,1766480042,975482500,X6-tool2,-0.6358883471582346,4.259713106632827,43.404640215504074,0.008312012665545472,0.13549071616229647,-0.24909446016403355,0.06210136413574219
2025-12-23 16:54:03.075756,1766480043,60647292,1,149293,0,1766480043,57314296,2,147349,0,1766480043,73976855,3,139296,0,1766480043,70639358,4,178923,0,1766480043,67307623,5,198869,0,1766480043,63994338,6,143163,0,0.0002498831890989095,5.771531581878662,45.00300979614258,-0.0013746152399107814,0.0005339283961802721,-0.0007056679460220039,36.67900085449219,41.10499954223633,57.15299987792969,61.42300033569336,45.79800033569336,64.14800262451172,1766480042,975482500,X6-tool2,-0.6358883471582346,4.259713106632827,43.404640215504074,0.008312012665545472,0.13549071616229647,-0.24909446016403355,0.06210136413574219
2025-12-23 16:54:03.112091,1766480043,100640160,1,149293,0,1766480043,97320915,2,147349,0,1766480043,94021730,3,139296,0,1766480043,110598845,4,178923,0,1766480043,107332002,5,198869,0,1766480043,103973086,6,143163,0,0.0002498831890989095,5.771531581878662,45.00300979614258,-0.0013746152399107814,0.0005339283961802721,-0.0007056679460220039,36.67900085449219,41.10499954223633,57.15299987792969,61.42300033569336,45.79800033569336,64.14800262451172,1766480043,74972992,X6-tool2,-0.5795505784747188,4.241084747389646,43.45091601781321,0.008257519884570146,0.13521743323225954,-0.24916430828688915,0.06492868810892105
2025-12-23 16:54:03.147814,1766480043,140642098,1,149293,0,1766480043,137303332,2,147349,0,1766480043,133984827,3,139296,0,1766480043,130645211,4,178923,0,1766480043,147305469,5,198869,0,1766480043,143973353,6,143163,0,0.0002498831890989095,5.771531581878662,45.00300979614258,-0.0013746152399107814,0.0005339283961802721,-0.0007056679460220039,36.67900085449219,41.10499954223633,57.15299987792969,61.42300033569336,45.79800033569336,64.14800262451172,1766480043,74972992,X6-tool2,-0.5795505784747188,4.241084747389646,43.45091601781321,0.008257519884570146,0.13521743323225954,-0.24916430828688915,0.06492868810892105
2025-12-23 16:54:03.183465,1766480043,180697938,1,149293,0,1766480043,177313700,2,147349,0,1766480043,173978025,3,139296,0,1766480043,170688831,4,178923,0,1766480043,167305104,5,198869,0,1766480043,163987678,6,143163,0,0.0002498831890989095,5.771531581878662,45.00300979614258,-0.0013746152399107814,0.0005339283961802721,-0.0007056679460220039,36.67900085449219,41.10499954223633,57.15299987792969,61.42300033569336,45.79800033569336,64.14800262451172,1766480043,174759874,X6-tool2,-0.6138174465958061,4.224766095246028,43.3961361771849,0.00822243632014713,0.13479422164596827,-0.24913037405242613,0.07035414129495621
2025-12-23 16:54:03.219395,1766480043,200686122,1,149293,0,1766480043,217351730,2,147349,0,1766480043,214023695,3,139296,0,1766480043,210675069,4,178923,0,1766480043,207347684,5,198869,0,1766480043,204021568,6,143163,0,0.0002498831890989095,5.771531581878662,45.00300979614258,-0.0013746152399107814,0.0005339283961802721,-0.0007056679460220039,36.67900085449219,41.10499954223633,57.15299987792969,61.42300033569336,45.79800033569336,64.14800262451172,1766480043,174759874,X6-tool2,-0.6138174465958061,4.224766095246028,43.3961361771849,0.00822243632014713,0.13479422164596827,-0.24913037405242613,0.07035414129495621
2025-12-23 16:54:03.254757,1766480043,240649649,1,149293,0,1766480043,237345705,2,147349,0,1766480043,254012333,3,139296,0,1766480043,250682207,4,178923,0,1766480043,247344171,5,198869,0,1766480043,243984145,6,143163,0,0.0002498831890989095,5.771531581878662,45.00300979614258,-0.0013746152399107814,0.0005339283961802721,-0.0007056679460220039,36.67900085449219,41.10499954223633,57.15299987792969,61.42300033569336,45.79800033569336,64.14800262451172,1766480043,174759874,X6-tool2,-0.6138174465958061,4.224766095246028,43.3961361771849,0.00822243632014713,0.13479422164596827,-0.24913037405242613,0.07035414129495621
2025-12-23 16:54:03.290357,1766480043,280680269,1,149293,0,1766480043,277324222,2,147349,0,1766480043,274679322,3,139296,0,1766480043,270670812,4,178923,0,1766480043,287336169,5,198875,0,1766480043,283982633,6,143163,0,0.0002498831890989095,5.771531581878662,45.00300979614258,-0.0013746152399107814,0.0005339283961802721,-0.0007056679460220039,36.67900085449219,41.10499954223633,57.15299987792969,61.42300033569336,45.79800033569336,64.14800262451172,1766480043,274860569,X6-tool2,-0.6522327925721808,4.251232251361598,43.34784957275623,0.008769537750060638,0.13482685654048907,-0.2490347802794424,0.06628290563821793
2025-12-23 16:54:03.326113,1766480043,320667497,1,149293,0,1766480043,317335631,2,147349,0,1766480043,313962413,3,139296,-11,1766480043,310671189,4,178923,0,1766480043,307356564,5,198875,0,1766480043,324002062,6,143163,0,0.0002498831890989095,5.771531581878662,45.00300979614258,0.0043992819264531136,0.0008636286947876215,0.0027008261531591415,36.67300033569336,41.10499954223633,57.15299987792969,61.42300033569336,45.79800033569336,64.14800262451172,1766480043,274860569,X6-tool2,-0.6522327925721808,4.251232251361598,43.34784957275623,0.008769537750060638,0.13482685654048907,-0.2490347802794424,0.06628290563821793
2025-12-23 16:54:03.362220,1766480043,361059090,1,149293,0,1766480043,357331099,2,147349,0,1766480043,354012584,3,139296,-6,1766480043,350635996,4,178923,0,1766480043,347333732,5,198875,0,1766480043,343975215,6,143163,0,0.0002498831890989095,5.771531581878662,45.00300979614258,0.0043992819264531136,0.0008636286947876215,0.0027008261531591415,36.67300033569336,41.10499954223633,57.15299987792969,61.42300033569336,45.79800033569336,64.14800262451172,1766480043,274860569,X6-tool2,-0.6522327925721808,4.251232251361598,43.34784957275623,0.008769537750060638,0.13482685654048907,-0.2490347802794424,0.06628290563821793
2025-12-23 16:54:03.398048,1766480043,380641698,1,149293,0,1766480043,397444982,2,147349,0,1766480043,393999342,3,139296,-16,1766480043,390639235,4,178929,0,1766480043,387327450,5,198875,0,1766480043,383977014,6,143163,0,0.0002498831890989095,5.771531581878662,45.00300979614258,0.0043992819264531136,0.0008636286947876215,0.0027008261531591415,36.67300033569336,41.10499954223633,57.15299987792969,61.42300033569336,45.79800033569336,64.14800262451172,1766480043,374727365,X6-tool2,-0.6089496572099217,4.1724755497405495,43.39286412462144,0.007891210444192082,0.1348225738932523,-0.2490696712129469,0.06285222619771957
2025-12-23 16:54:03.433746,1766480043,420689508,1,149293,0,1766480043,417361492,2,147349,0,1766480043,414038617,3,139296,22,1766480043,430669575,4,178929,0,1766480043,427317728,5,198875,0,1766480043,423986153,6,143163,0,0.00041838400647975504,5.77324914932251,45.00186538696289,0.0043992819264531136,0.0008636286947876215,0.0027008261531591415,36.67300033569336,41.0989990234375,57.15299987792969,61.42300033569336,45.79800033569336,64.14800262451172,1766480043,374727365,X6-tool2,-0.6089496572099217,4.1724755497405495,43.39286412462144,0.007891210444192082,0.1348225738932523,-0.2490696712129469,0.06285222619771957
2025-12-23 16:54:03.469570,1766480043,460682086,1,149293,0,1766480043,457332890,2,147349,0,1766480043,453992254,3,139296,19,1766480043,450664128,4,178929,0,1766480043,467347578,5,198875,0,1766480043,463973350,6,143163,0,0.00041838400647975504,5.77324914932251,45.00186538696289,0.0043992819264531136,0.0008636286947876215,0.0027008261531591415,36.67300033569336,41.0989990234375,57.15299987792969,61.42300033569336,45.79800033569336,64.14800262451172,1766480043,374727365,X6-tool2,-0.6089496572099217,4.1724755497405495,43.39286412462144,0.007891210444192082,0.1348225738932523,-0.2490696712129469,0.06285222619771957
2025-12-23 16:54:03.505777,1766480043,500679824,1,149293,0,1766480043,497323908,2,147349,0,1766480043,493999663,3,139296,15,1766480043,490731849,4,178929,0,1766480043,487347202,5,198875,0,1766480043,503983169,6,143163,0,0.00041838400647975504,5.77324914932251,45.00186538696289,0.0043992819264531136,0.0008636286947876215,0.0027008261531591415,36.67300033569336,41.0989990234375,57.15299987792969,61.42300033569336,45.79800033569336,64.14800262451172,1766480043,474621582,X6-tool2,-0.616284025951955,4.197733129543363,43.37612629676595,0.008426417574778492,0.134431447767796,-0.24898276689361248,0.06682714074850082
2025-12-23 16:54:03.542093,1766480043,540661612,1,149293,0,1766480043,537320106,2,147349,0,1766480043,534026322,3,139296,21,1766480043,530640554,4,178929,0,1766480043,527320259,5,198875,0,1766480043,523971123,6,143163,0,0.00041838400647975504,5.77324914932251,45.00186538696289,0.0043992819264531136,0.0008636286947876215,0.0027008261531591415,36.67300033569336,41.0989990234375,57.15299987792969,61.42300033569336,45.79800033569336,64.14800262451172,1766480043,474621582,X6-tool2,-0.616284025951955,4.197733129543363,43.37612629676595,0.008426417574778492,0.134431447767796,-0.24898276689361248,0.06682714074850082
2025-12-23 16:54:03.578360,1766480043,560662476,1,149293,0,1766480043,577327955,2,147349,0,1766480043,574037110,3,139296,18,1766480043,570676314,4,178929,0,1766480043,567329118,5,198875,0,1766480043,563984712,6,143163,0,0.00041838400647975504,5.77324914932251,45.00186538696289,0.0043992819264531136,0.0008636286947876215,0.0027008261531591415,36.67300033569336,41.0989990234375,57.15299987792969,61.42300033569336,45.79800033569336,64.14800262451172,1766480043,574958675,X6-tool2,-0.6203069196716706,4.203240965602091,43.36971469379461,0.008975727299599891,0.13453829066544415,-0.24897591145548725,0.059215545654296875
2025-12-23 16:54:03.613849,1766480043,600683455,1,149293,0,1766480043,597312038,2,147349,0,1766480043,593996704,3,139296,-20,1766480043,610665912,4,178929,0,1766480043,607278304,5,198875,0,1766480043,603995560,6,143163,0,0.00041838400647975504,5.77324914932251,45.00186538696289,0.0043992819264531136,0.0008636286947876215,0.0027008261531591415,36.67300033569336,41.0989990234375,57.15299987792969,61.42300033569336,45.79800033569336,64.14800262451172,1766480043,574958675,X6-tool2,-0.6203069196716706,4.203240965602091,43.36971469379461,0.008975727299599891,0.13453829066544415,-0.24897591145548725,0.059215545654296875
2025-12-23 16:54:03.650105,1766480043,640674233,1,149293,0,1766480043,637342187,2,147349,0,1766480043,634008112,3,139296,-21,1766480043,630670976,4,178929,0,1766480043,647330534,5,198875,0,1766480043,643979018,6,143163,0,0.00041838400647975504,5.77324914932251,45.00186538696289,0.0043992819264531136,0.0008636286947876215,0.0027008261531591415,36.67300033569336,41.0989990234375,57.15299987792969,61.42300033569336,45.79800033569336,64.14800262451172,1766480043,574958675,X6-tool2,-0.6203069196716706,4.203240965602091,43.36971469379461,0.008975727299599891,0.13453829066544415,-0.24897591145548725,0.059215545654296875
2025-12-23 16:54:03.686884,1766480043,680686622,1,149293,0,1766480043,677767512,2,147349,0,1766480043,674060742,3,139296,0,1766480043,670660054,4,178929,0,1766480043,667327318,5,198875,0,1766480043,684044309,6,143163,0,0.00041838400647975504,5.77324914932251,45.00186538696289,0.0043992819264531136,0.0008636286947876215,0.0027008261531591415,36.67300033569336,41.0989990234375,57.15299987792969,61.42300033569336,45.79800033569336,64.14800262451172,1766480043,675272878,X6-tool2,-0.6029248241791655,4.229177006749947,43.35935809103882,0.008255154128754794,0.13407116527114726,-0.24908901195334954,0.06044483184814453
2025-12-23 16:54:03.723709,1766480043,720673350,1,149293,0,1766480043,717493630,2,147349,0,1766480043,714020949,3,139296,0,1766480043,710675393,4,178929,0,1766480043,707369508,5,198875,0,1766480043,704045063,6,143163,0,0.00041838400647975504,5.77324914932251,45.00186538696289,0.0043992819264531136,0.0008636286947876215,0.0027008261531591415,36.67300033569336,41.0989990234375,57.15299987792969,61.42300033569336,45.79800033569336,64.14800262451172,1766480043,675272878,X6-tool2,-0.6029248241791655,4.229177006749947,43.35935809103882,0.008255154128754794,0.13407116527114726,-0.24908901195334954,0.06044483184814453
2025-12-23 16:54:03.759601,1766480043,740662324,1,149293,0,1766480043,757337363,2,147349,0,1766480043,753981176,3,139296,-7,1766480043,750655541,4,178929,0,1766480043,747305154,5,198875,0,1766480043,744021470,6,143163,0,0.00041838400647975504,5.77324914932251,45.00186538696289,0.0043992819264531136,0.0008636286947876215,0.0027008261531591415,36.67300033569336,41.0989990234375,57.15299987792969,61.42300033569336,45.79800033569336,64.14800262451172,1766480043,675272878,X6-tool2,-0.6029248241791655,4.229177006749947,43.35935809103882,0.008255154128754794,0.13407116527114726,-0.24908901195334954,0.06044483184814453
2025-12-23 16:54:03.794694,1766480043,780671183,1,149293,0,1766480043,777332826,2,147349,0,1766480043,793977194,3,139296,-18,1766480043,790679090,4,178929,0,1766480043,787328614,5,198875,0,1766480043,783986328,6,143163,0,0.00041838400647975504,5.77324914932251,45.00186538696289,0.0043992819264531136,0.0008636286947876215,0.0027008261531591415,36.67300033569336,41.0989990234375,57.15299987792969,61.42300033569336,45.79800033569336,64.14800262451172,1766480043,775000438,X6-tool2,-0.5967266141798931,4.236624365253764,43.44706153018701,0.008811265330471326,0.13524769898383152,-0.2491604955191285,0.07312456518411636
2025-12-23 16:54:03.830027,1766480043,820662380,1,149293,0,1766480043,817361836,2,147349,0,1766480043,814013470,3,139296,20,1766480043,810682124,4,178929,0,1766480043,827504609,5,198875,0,1766480043,823999117,6,143163,0,0.00041838400647975504,5.77324914932251,45.00186538696289,0.0043992819264531136,0.0008636286947876215,0.0027008261531591415,36.67300033569336,41.0989990234375,57.15299987792969,61.42300033569336,45.79800033569336,64.14800262451172,1766480043,775000438,X6-tool2,-0.5967266141798931,4.236624365253764,43.44706153018701,0.008811265330471326,0.13524769898383152,-0.2491604955191285,0.07312456518411636
2025-12-23 16:54:03.866532,1766480043,860660929,1,149293,0,1766480043,857307202,2,147349,0,1766480043,854001168,3,139296,12,1766480043,850709153,4,178929,0,1766480043,847302595,5,198875,0,1766480043,863969653,6,143163,0,0.00041838400647975504,5.77324914932251,45.00186538696289,0.0043992819264531136,0.0008636286947876215,0.0027008261531591415,36.67300033569336,41.0989990234375,57.15299987792969,61.42300033569336,45.79800033569336,64.14800262451172,1766480043,775000438,X6-tool2,-0.5967266141798931,4.236624365253764,43.44706153018701,0.008811265330471326,0.13524769898383152,-0.2491604955191285,0.07312456518411636
2025-12-23 16:54:03.902413,1766480043,900664307,1,149293,0,1766480043,897307890,2,147349,0,1766480043,893989725,3,139296,0,1766480043,890701982,4,178929,0,1766480043,887320634,5,198875,0,1766480043,883966218,6,143163,0,0.00041838400647975504,5.77324914932251,45.00186538696289,0.0043992819264531136,0.0008636286947876215,0.0027008261531591415,36.67300033569336,41.0989990234375,57.15299987792969,61.42300033569336,45.79800033569336,64.14800262451172,1766480043,874696688,X6-tool2,-0.6109326214572102,4.213961724348754,43.42455541072636,0.008772921367383387,0.13501495718620557,-0.2492146576830922,0.05982716754078865
2025-12-23 16:54:03.938909,1766480043,920634150,1,149293,0,1766480043,937342360,2,147349,0,1766480043,934012665,3,139296,-14,1766480043,930655218,4,178929,0,1766480043,927261170,5,198875,0,1766480043,923976116,6,143163,0,0.00041838400647975504,5.77324914932251,45.00186538696289,0.0043992819264531136,0.0008636286947876215,0.0027008261531591415,36.67300033569336,41.0989990234375,57.15299987792969,61.42300033569336,45.79800033569336,64.14800262451172,1766480043,874696688,X6-tool2,-0.6109326214572102,4.213961724348754,43.42455541072636,0.008772921367383387,0.13501495718620557,-0.2492146576830922,0.05982716754078865
2025-12-23 16:54:03.974650,1766480043,960659799,1,149293,0,1766480043,957338965,2,147349,0,1766480043,974027174,3,139296,-9,1766480043,970674977,4,178929,0,1766480043,967305120,5,198875,0,1766480043,963983735,6,143163,0,0.00041838400647975504,5.77324914932251,45.00186538696289,0.0043992819264531136,0.0008636286947876215,0.0027008261531591415,36.67300033569336,41.0989990234375,57.15299987792969,61.42300033569336,45.79800033569336,64.14800262451172,1766480043,874696688,X6-tool2,-0.6109326214572102,4.213961724348754,43.42455541072636,0.008772921367383387,0.13501495718620557,-0.2492146576830922,0.05982716754078865
2025-12-23 16:54:04.011350,1766480044,662288,1,149293,0,1766480043,997327812,2,147349,0,1766480043,993999207,3,139296,13,1766480044,10674896,4,178929,0,1766480044,7304348,5,198875,0,1766480044,3985943,6,143163,0,0.00041838400647975504,5.77324914932251,45.00186538696289,0.0043992819264531136,0.0008636286947876215,0.0027008261531591415,36.67300033569336,41.0989990234375,57.15299987792969,61.42300033569336,45.79800033569336,64.14800262451172,1766480043,974565424,X6-tool2,-0.5743036293138701,4.25790167366909,43.44240927106801,0.008568430576871396,0.13463881477257603,-0.24908030457917937,0.06207974627614021
2025-12-23 16:54:04.047851,1766480044,40646206,1,149293,0,1766480044,37322420,2,147349,0,1766480044,34015165,3,139296,-5,1766480044,30670379,4,178929,0,1766480044,47305697,5,198875,0,1766480044,43983612,6,143163,0,0.00041838400647975504,5.77324914932251,45.00186538696289,0.0043992819264531136,0.0008636286947876215,0.0027008261531591415,36.67300033569336,41.0989990234375,57.15299987792969,61.42300033569336,45.79800033569336,64.14800262451172,1766480043,974565424,X6-tool2,-0.5743036293138701,4.25790167366909,43.44240927106801,0.008568430576871396,0.13463881477257603,-0.24908030457917937,0.06207974627614021
2025-12-23 16:54:04.084501,1766480044,80654034,1,149293,0,1766480044,77315958,2,147349,0,1766480044,73991633,3,139296,-7,1766480044,70666307,4,178929,0,1766480044,67326081,5,198875,0,1766480044,83972060,6,143163,0,0.00041838400647975504,5.77324914932251,45.00186538696289,0.0043992819264531136,0.0008636286947876215,0.0027008261531591415,36.67300033569336,41.0989990234375,57.15299987792969,61.42300033569336,45.79800033569336,64.14800262451172,1766480044,74546494,X6-tool2,-0.6402586396972563,4.271010976365599,43.355863593489005,0.008837017122590801,0.13469951703287172,-0.24928770925208657,0.07247225195169449
2025-12-23 16:54:04.120923,1766480044,100661529,1,149293,0,1766480044,117302906,2,147349,0,1766480044,113971541,3,139296,10,1766480044,110652495,4,178929,0,1766480044,107333080,5,198875,0,1766480044,103971623,6,143163,0,0.00041838400647975504,5.77324914932251,45.00186538696289,0.0043992819264531136,0.0008636286947876215,0.0027008261531591415,36.67300033569336,41.0989990234375,57.15299987792969,61.42300033569336,45.79800033569336,64.14800262451172,1766480044,74546494,X6-tool2,-0.6402586396972563,4.271010976365599,43.355863593489005,0.008837017122590801,0.13469951703287172,-0.24928770925208657,0.07247225195169449
2025-12-23 16:54:04.157782,1766480044,140663557,1,149293,0,1766480044,157309385,2,147349,0,1766480044,153997800,3,139296,0,1766480044,150647074,4,178929,0,1766480044,147337869,5,198875,0,1766480044,143971392,6,143163,0,0.00041838400647975504,5.77324914932251,45.00186538696289,0.0043992819264531136,0.0008636286947876215,0.0027008261531591415,36.67300033569336,41.0989990234375,57.15299987792969,61.42300033569336,45.79800033569336,64.14800262451172,1766480044,74546494,X6-tool2,-0.6402586396972563,4.271010976365599,43.355863593489005,0.008837017122590801,0.13469951703287172,-0.24928770925208657,0.07247225195169449
2025-12-23 16:54:04.193675,1766480044,180662766,1,149293,0,1766480044,177323049,2,147349,0,1766480044,174015085,3,139296,5,1766480044,190763386,4,178929,0,1766480044,187320257,5,198875,0,1766480044,183973720,6,143163,0,0.00041838400647975504,5.77324914932251,45.00186538696289,0.0043992819264531136,0.0008636286947876215,0.0027008261531591415,36.67300033569336,41.0989990234375,57.15299987792969,61.42300033569336,45.79800033569336,64.14800262451172,1766480044,174346897,X6-tool2,-0.6879077101269658,4.1907291264191135,43.334292982087526,0.008347947432628004,0.135128370283017,-0.24923390014218866,0.07115236669778824
2025-12-23 16:54:04.229301,1766480044,220640153,1,149293,0,1766480044,217343149,2,147349,0,1766480044,213977962,3,139296,1,1766480044,210657286,4,178929,0,1766480044,227315594,5,198875,0,1766480044,224010080,6,143163,0,0.00041838400647975504,5.77324914932251,45.00186538696289,0.0043992819264531136,0.0008636286947876215,0.0027008261531591415,36.67300033569336,41.0989990234375,57.15299987792969,61.42300033569336,45.79800033569336,64.14800262451172,1766480044,174346897,X6-tool2,-0.6879077101269658,4.1907291264191135,43.334292982087526,0.008347947432628004,0.135128370283017,-0.24923390014218866,0.07115236669778824
2025-12-23 16:54:04.264762,1766480044,260644791,1,149293,0,1766480044,257330486,2,147349,0,1766480044,253987340,3,139296,-12,1766480044,250676396,4,178929,0,1766480044,247319549,5,198875,0,1766480044,263985377,6,143163,0,0.00041838400647975504,5.77324914932251,45.00186538696289,0.0043992819264531136,0.0008636286947876215,0.0027008261531591415,36.67300033569336,41.0989990234375,57.15299987792969,61.42300033569336,45.79800033569336,64.14800262451172,1766480044,174346897,X6-tool2,-0.6879077101269658,4.1907291264191135,43.334292982087526,0.008347947432628004,0.135128370283017,-0.24923390014218866,0.07115236669778824
2025-12-23 16:54:04.299933,1766480044,280655386,1,149293,0,1766480044,297334235,2,147349,0,1766480044,293976558,3,139296,0,1766480044,290666223,4,178929,0,1766480044,287318527,5,198875,0,1766480044,283987972,6,143168,0,0.001176001038402319,5.772831916809082,45.00151824951172,0.0043992819264531136,0.0008636286947876215,0.0027008261531591415,36.67300033569336,41.0989990234375,57.15299987792969,61.42300033569336,45.79800033569336,64.14299774169922,1766480044,274581007,X6-tool2,-0.6058151992591108,4.2966470121794,43.40985774620134,0.008296766551607578,0.1346357845361439,-0.24933419598495873,0.07125314325094223
2025-12-23 16:54:04.335380,1766480044,320641034,1,149293,0,1766480044,317325939,2,147349,0,1766480044,334015358,3,139296,-2,1766480044,330672072,4,178929,0,1766480044,327360897,5,198875,0,1766480044,323980049,6,143168,0,0.001176001038402319,5.772831916809082,45.00151824951172,0.0043992819264531136,0.0008636286947876215,0.0027008261531591415,36.67300033569336,41.0989990234375,57.15299987792969,61.42300033569336,45.79800033569336,64.14299774169922,1766480044,274581007,X6-tool2,-0.6058151992591108,4.2966470121794,43.40985774620134,0.008296766551607578,0.1346357845361439,-0.24933419598495873,0.07125314325094223
2025-12-23 16:54:04.370345,1766480044,360679333,1,149299,1,1766480044,357329577,2,147491,94,1766480044,353998641,3,139526,101,1766480044,350681727,4,178879,-35,1766480044,367324834,5,198869,0,1766480044,364000909,6,143256,61,0.001176001038402319,5.772831916809082,45.00151824951172,0.0043992819264531136,0.0008636286947876215,0.0027008261531591415,36.67300033569336,41.0989990234375,57.15299987792969,61.42300033569336,45.79800033569336,64.14299774169922,1766480044,274581007,X6-tool2,-0.6058151992591108,4.2966470121794,43.40985774620134,0.008296766551607578,0.1346357845361439,-0.24933419598495873,0.07125314325094223
2025-12-23 16:54:04.405936,1766480044,400660421,1,149343,13,1766480044,397343276,2,147964,133,1766480044,393987179,3,140021,123,1766480044,390679845,4,178715,-52,1766480044,387325388,5,198869,0,1766480044,403988497,6,143558,94,-0.05568413808941841,5.672410488128662,44.985565185546875,0.013481130823493004,0.04115203395485878,-0.026833422482013702,36.67900085449219,41.21500015258789,56.69200134277344,61.09400177001953,45.78099822998047,63.933998107910156,1766480044,374372200,X6-tool2,-0.6414355187450728,4.21613710575882,43.37843058724854,0.009023543153680022,0.13510926787514246,-0.24923275131166023,0.06292661279439926
2025-12-23 16:54:04.440982,1766480044,420679446,1,149359,10,1766480044,437325624,2,148502,115,1766480044,434008139,3,140598,153,1766480044,430668763,4,178484,-59,1766480044,427320216,5,198858,-3,1766480044,424008111,6,143674,56,-0.1581384688615799,5.504288673400879,44.963436126708984,0.041422028094530106,0.02306039072573185,-0.07528486102819443,36.689998626708984,41.42300033569336,56.15399932861328,60.54399871826172,45.731998443603516,63.637001037597656,1766480044,374372200,X6-tool2,-0.6414355187450728,4.21613710575882,43.37843058724854,0.009023543153680022,0.13510926787514246,-0.24923275131166023,0.06292661279439926
2025-12-23 16:54:04.476586,1766480044,460677034,1,149458,32,1766480044,457352249,2,148793,161,1766480044,474007397,3,141268,133,1766480044,470689542,4,178281,-57,1766480044,467344566,5,198825,-11,1766480044,463986579,6,143987,97,-0.2610337734222412,5.32835578918457,44.93899917602539,0.033265549689531326,0.00820749532431364,-0.07729504257440567,36.722999572753906,41.643001556396484,55.483001708984375,59.979000091552734,45.632999420166016,63.32400131225586,1766480044,474604870,X6-tool2,-0.6408710248309861,4.202491483224716,43.35707297431386,0.0071425398210877115,0.13587311137793753,-0.2504880596243768,0.05297787860035896
2025-12-23 16:54:04.512024,1766480044,500650272,1,149496,11,1766480044,497348147,2,149277,135,1766480044,494015181,3,141570,166,1766480044,510690260,4,178099,-40,1766480044,507344914,5,198803,-9,1766480044,504011458,6,144218,71,-0.308830589056015,5.252113342285156,44.93135070800781,0.04387751221656799,0.024674084037542343,-0.08087503910064697,36.72800064086914,41.74700164794922,55.180999755859375,59.73699951171875,45.62200164794922,63.2140007019043,1766480044,474604870,X6-tool2,-0.6408710248309861,4.202491483224716,43.35707297431386,0.0071425398210877115,0.13587311137793753,-0.2504880596243768,0.05297787860035896
2025-12-23 16:54:04.546953,1766480044,540653770,1,149590,8,1766480044,537349236,2,149788,130,1766480044,534012930,3,142196,145,1766480044,530683204,4,178017,-35,1766480044,527344098,5,198781,0,1766480044,543991806,6,144514,59,-0.3985956907272339,5.0962395668029785,44.90261459350586,0.023223791271448135,0.018525749444961548,-0.08333864063024521,36.766998291015625,41.92900085449219,54.54999923706055,59.22600173950195,45.52899932861328,62.92300033569336,1766480044,474604870,X6-tool2,-0.6408710248309861,4.202491483224716,43.35707297431386,0.0071425398210877115,0.13587311137793753,-0.2504880596243768,0.05297787860035896
2025-12-23 16:54:04.582309,1766480044,580670399,1,149656,14,1766480044,577353954,2,150304,154,1766480044,574012968,3,142828,148,1766480044,570683413,4,177808,-61,1766480044,567346147,5,198754,0,1766480044,564012871,6,144635,61,-0.4857965409755707,4.9522294998168945,44.8758659362793,0.01205037347972393,0.04268375039100647,-0.08578619360923767,36.79399871826172,42.0989990234375,53.92900085449219,58.74800109863281,45.4739990234375,62.67599868774414,1766480044,574562489,X6-tool2,-0.6675373739618385,4.161839962287184,43.36087110782027,0.006931931370221317,0.1362893606201329,-0.2504102719847544,0.049098651856184006
2025-12-23 16:54:04.617336,1766480044,600677724,1,149656,0,1766480044,597322047,2,150524,122,1766480044,614015286,3,143361,130,1766480044,610678581,4,177528,-35,1766480044,607364466,5,198699,-13,1766480044,604012409,6,144893,58,-0.5788072943687439,4.763054847717285,44.870304107666016,0.058200277388095856,0.03387007117271423,-0.0891510471701622,36.8489990234375,42.4119987487793,53.36899948120117,58.24800109863281,45.435001373291016,62.417999267578125,1766480044,574562489,X6-tool2,-0.6675373739618385,4.161839962287184,43.36087110782027,0.006931931370221317,0.1362893606201329,-0.2504102719847544,0.049098651856184006
2025-12-23 16:54:04.653314,1766480044,640699153,1,149705,13,1766480044,637355637,2,151018,126,1766480044,634015291,3,143679,169,1766480044,650668878,4,177259,-83,1766480044,647361624,5,198644,-16,1766480044,643997287,6,145129,60,-0.6234514117240906,4.690237998962402,44.85630416870117,0.05504494905471802,0.04129982739686966,-0.1009337455034256,36.87099838256836,42.5,53.0880012512207,58.00699996948242,45.41899871826172,62.301998138427734,1766480044,574562489,X6-tool2,-0.6675373739618385,4.161839962287184,43.36087110782027,0.006931931370221317,0.1362893606201329,-0.2504102719847544,0.049098651856184006
2025-12-23 16:54:04.690275,1766480044,680661749,1,149722,12,1766480044,677329284,2,151534,127,1766480044,673974328,3,144333,132,1766480044,670688824,4,177138,-54,1766480044,687344971,5,198600,-17,1766480044,683974604,6,145338,55,-0.7207921743392944,4.516639709472656,44.842769622802734,0.05645482987165451,0.08628662675619125,-0.06380067765712738,36.92100143432617,42.76900100708008,52.374000549316406,57.50699996948242,45.380001068115234,62.08300018310547,1766480044,674612102,X6-tool2,-0.6743504853505664,4.197355446514896,43.41611750281602,0.008988627891312361,0.13705899874383412,-0.24986337633504382,0.06389173120260239
2025-12-23 16:54:04.726048,1766480044,720683118,1,149733,0,1766480044,717320342,2,152073,128,1766480044,714010837,3,144877,142,1766480044,710672001,4,176863,-76,1766480044,707344276,5,198561,-24,1766480044,723973393,6,145541,46,-0.8268728852272034,4.342815399169922,44.819725036621094,0.06794020533561707,0.06820203363895416,-0.092010498046875,36.98699951171875,43.01599884033203,51.84700012207031,56.96799850463867,45.358001708984375,61.862998962402344,1766480044,674612102,X6-tool2,-0.6743504853505664,4.197355446514896,43.41611750281602,0.008988627891312361,0.13705899874383412,-0.24986337633504382,0.06389173120260239
2025-12-23 16:54:04.761328,1766480044,760683557,1,149799,23,1766480044,757322110,2,152501,110,1766480044,754006945,3,145399,135,1766480044,750651828,4,176616,-55,1766480044,747318733,5,198495,-23,1766480044,743984317,6,145629,37,-0.91936194896698,4.173821926116943,44.8116340637207,0.08883664011955261,0.06603512912988663,-0.07587268948554993,37.053001403808594,43.301998138427734,51.31999969482422,56.50699996948242,45.33599853515625,61.68199920654297,1766480044,674612102,X6-tool2,-0.6743504853505664,4.197355446514896,43.41611750281602,0.008988627891312361,0.13705899874383412,-0.24986337633504382,0.06389173120260239
2025-12-23 16:54:04.797175,1766480044,780680871,1,149881,40,1766480044,777328365,2,152765,145,1766480044,794010384,3,145920,119,1766480044,790661847,4,176402,-64,1766480044,787345092,5,198402,-17,1766480044,783987105,6,145816,43,-1.019093632698059,4.019495964050293,44.78446960449219,0.018977345898747444,0.009893509559333324,-0.03682367876172066,37.145999908447266,43.51100158691406,50.76499938964844,56.00699996948242,45.209999084472656,61.494998931884766,1766480044,774480318,X6-tool2,-0.7269854479173455,4.127199101955197,43.4820032872797,0.011473403565431356,0.1364382272453762,-0.24821069419508424,0.0676565170288086
2025-12-23 16:54:04.833274,1766480044,820683109,1,149886,-5,1766480044,817320822,2,153221,118,1766480044,814013718,3,146168,134,1766480044,830661396,4,176133,-71,1766480044,827318980,5,198325,-22,1766480044,823973224,6,145992,41,-1.063342809677124,3.9438180923461914,44.77489471435547,0.022227413952350616,0.009627367369830608,-0.04656704142689705,37.183998107910156,43.625999450683594,50.52899932861328,55.78200149536133,45.209999084472656,61.40700149536133,1766480044,774480318,X6-tool2,-0.7269854479173455,4.127199101955197,43.4820032872797,0.011473403565431356,0.1364382272453762,-0.24821069419508424,0.0676565170288086
2025-12-23 16:54:04.869304,1766480044,860682808,1,149892,0,1766480044,857324801,2,153688,109,1766480044,854016876,3,146717,138,1766480044,850654550,4,176012,-58,1766480044,867344829,5,198243,-21,1766480044,863987442,6,146157,27,-1.1577593088150024,3.7747414112091064,44.756343841552734,0.02773497998714447,0.006691305432468653,-0.0472080260515213,37.26100158691406,43.89500045776367,50.000999450683594,55.29800033569336,45.194000244140625,61.21500015258789,1766480044,774480318,X6-tool2,-0.7269854479173455,4.127199101955197,43.4820032872797,0.011473403565431356,0.1364382272453762,-0.24821069419508424,0.0676565170288086
2025-12-23 16:54:04.905344,1766480044,900680406,1,149903,3,1766480044,897305629,2,154210,145,1766480044,894012035,3,147266,126,1766480044,890671448,4,175743,-70,1766480044,887343543,5,198199,-21,1766480044,903971170,6,146327,45,-1.253914475440979,3.6199350357055664,44.7406005859375,0.018933983519673347,0.019139111042022705,-0.0314188227057457,37.3489990234375,44.14799880981445,49.4630012512207,54.84299850463867,45.194000244140625,61.07699966430664,1766480044,874658105,X6-tool2,-0.8299920795985244,4.0049832705909445,43.464766146971684,0.012144566074915588,0.13348841730055716,-0.24532955119688865,0.060054779052734375
2025-12-23 16:54:04.940606,1766480044,920679600,1,149897,0,1766480044,937308978,2,154688,111,1766480044,934007963,3,147755,118,1766480044,930670947,4,175468,-62,1766480044,927345362,5,198111,-29,1766480044,923990725,6,146398,36,-1.3652384281158447,3.4443068504333496,44.71647262573242,0.02003086544573307,0.00293645728379488,-0.035686831921339035,37.4370002746582,44.42300033569336,48.93600082397461,54.310001373291016,45.194000244140625,60.91299819946289,1766480044,874658105,X6-tool2,-0.8299920795985244,4.0049832705909445,43.464766146971684,0.012144566074915588,0.13348841730055716,-0.24532955119688865,0.060054779052734375
2025-12-23 16:54:04.976125,1766480044,960684519,1,149903,0,1766480044,957315372,2,154902,112,1766480044,974009541,3,148250,124,1766480044,970682706,4,175215,-57,1766480044,967343430,5,197968,-45,1766480044,963973433,6,146607,51,-1.4425076246261597,3.283541679382324,44.693973541259766,-0.006315429694950581,0.004069929476827383,-0.06250742077827454,37.58000183105469,44.680999755859375,48.43000030517578,53.869998931884766,45.1879997253418,60.70399856567383,1766480044,974620494,X6-tool2,-1.0696475942214123,3.7772899834799976,43.33087052787906,0.014101448717601748,0.12892003232697577,-0.24202714739962056,0.06116771697998047
2025-12-23 16:54:05.011288,1766480045,684477,1,149897,0,1766480044,997317350,2,155308,117,1766480044,993999755,3,148497,124,1766480045,10661853,4,174968,-58,1766480045,7365069,5,197869,-26,1766480045,3992902,6,146728,25,-1.4836076498031616,3.210462808609009,44.68870544433594,-0.00603729160502553,0.008770318701863289,-0.0521170049905777,37.624000549316406,44.8129997253418,48.19900131225586,53.67300033569336,45.194000244140625,60.64400100708008,1766480044,974620494,X6-tool2,-1.0696475942214123,3.7772899834799976,43.33087052787906,0.014101448717601748,0.12892003232697577,-0.24202714739962056,0.06116771697998047
2025-12-23 16:54:05.046644,1766480045,40671825,1,149892,-5,1766480045,37309518,2,155797,119,1766480045,34001313,3,148975,115,1766480045,30687008,4,174809,-80,1766480045,27462827,5,197803,-34,1766480045,43994280,6,146876,33,-1.580868124961853,3.055699348449707,44.66489028930664,-0.041186120361089706,0.0011928502935916185,-0.05543961375951767,37.744998931884766,45.060001373291016,47.70000076293945,53.20600128173828,45.194000244140625,60.50600051879883,1766480044,974620494,X6-tool2,-1.0696475942214123,3.7772899834799976,43.33087052787906,0.014101448717601748,0.12892003232697577,-0.24202714739962056,0.06116771697998047
2025-12-23 16:54:05.082393,1766480045,80680123,1,149886,0,1766480045,77326067,2,156275,121,1766480045,73995641,3,149469,131,1766480045,70655906,4,174534,-72,1766480045,67343951,5,197693,-29,1766480045,63986774,6,146953,38,-1.6774728298187256,2.8888347148895264,44.64383316040039,-0.046710770577192307,-0.01912946067750454,-0.05310358852148056,37.85499954223633,45.345001220703125,47.22700119018555,52.733001708984375,45.19900131225586,60.358001708984375,1766480045,74602084,X6-tool2,-1.2828208055626416,3.661207159504776,43.37448406452178,0.016717976549576703,0.12438731032330161,-0.2378227131496056,0.06831423193216324
2025-12-23 16:54:05.117981,1766480045,100669358,1,149881,0,1766480045,117307905,2,156725,120,1766480045,113999610,3,149985,128,1766480045,110667354,4,174194,-80,1766480045,107351129,5,197578,-26,1766480045,104022114,6,147096,27,-1.7716444730758667,2.712517499923706,44.629638671875,-0.05059659853577614,-0.01582498289644718,-0.019237102940678596,37.970001220703125,45.67499923706055,46.68899917602539,52.27199935913086,45.209999084472656,60.21500015258789,1766480045,74602084,X6-tool2,-1.2828208055626416,3.661207159504776,43.37448406452178,0.016717976549576703,0.12438731032330161,-0.2378227131496056,0.06831423193216324
2025-12-23 16:54:05.153486,1766480045,140682146,1,149854,-12,1766480045,137310669,2,156962,120,1766480045,133991184,3,150216,102,1766480045,150668292,4,173881,-80,1766480045,147316506,5,197474,-24,1766480045,143969490,6,147217,33,-1.8203966617584229,2.628685235977173,44.62291717529297,-0.04854019731283188,-0.02618064545094967,-0.008204218931496143,38.025001525878906,45.83399963378906,46.4640007019043,52.047000885009766,45.22100067138672,60.15999984741211,1766480045,74602084,X6-tool2,-1.2828208055626416,3.661207159504776,43.37448406452178,0.016717976549576703,0.12438731032330161,-0.2378227131496056,0.06831423193216324
2025-12-23 16:54:05.189118,1766480045,180656543,1,149821,-14,1766480045,177307567,2,157423,115,1766480045,173980151,3,150639,104,1766480045,170644116,4,173699,-46,1766480045,187343786,5,197353,-27,1766480045,183982979,6,147365,39,-1.9179035425186157,2.4561922550201416,44.602394104003906,-0.03402252495288849,-0.051169220358133316,-0.006880406755954027,38.1349983215332,46.14699935913086,46.02399826049805,51.57400131225586,45.25400161743164,60.02299880981445,1766480045,174798212,X6-tool2,-1.474913388800979,3.3272334556579763,43.35565929153267,0.017765369003128452,0.1189850008217328,-0.23352992613322898,0.056430500000715256
2025-12-23 16:54:05.224488,1766480045,220645871,1,149777,-10,1766480045,217302515,2,157857,118,1766480045,214001461,3,151106,126,1766480045,210666645,4,173441,-58,1766480045,207316168,5,197292,-33,1766480045,203974573,6,147442,40,-2.001039981842041,2.2854795455932617,44.58497619628906,-0.015671519562602043,-0.06729579716920853,-0.006809331011027098,38.25600051879883,46.47100067138672,45.59600067138672,51.13999938964844,45.29199981689453,59.86899948120117,1766480045,174798212,X6-tool2,-1.474913388800979,3.3272334556579763,43.35565929153267,0.017765369003128452,0.1189850008217328,-0.23352992613322898,0.056430500000715256
2025-12-23 16:54:05.260220,1766480045,240694637,1,149733,-22,1766480045,257352966,2,158275,114,1766480045,254026500,3,151567,117,1766480045,250650793,4,173145,-64,1766480045,247315657,5,197166,-29,1766480045,243998292,6,147552,23,-2.092595338821411,2.135667324066162,44.56076431274414,-0.03858329728245735,-0.04379976540803909,-0.009549439884722233,38.38199996948242,46.73500061035156,45.11199951171875,50.70600128173828,45.358001708984375,59.75899887084961,1766480045,174798212,X6-tool2,-1.474913388800979,3.3272334556579763,43.35565929153267,0.017765369003128452,0.1189850008217328,-0.23352992613322898,0.056430500000715256
2025-12-23 16:54:05.295772,1766480045,280699786,1,149661,-13,1766480045,277345409,2,158527,119,1766480045,293982727,3,152023,109,1766480045,290668052,4,172842,-75,1766480045,287324436,5,197045,-33,1766480045,283985560,6,147629,21,-2.1408884525299072,2.0602800846099854,44.553245544433594,-0.04475646838545799,-0.03490493446588516,0.00032359117176383734,38.44200134277344,46.882999420166016,44.88199996948242,50.49700164794922,45.39699935913086,59.72600173950195,1766480045,274713630,X6-tool2,-1.8069347791621013,3.1024658000290763,43.25270981249638,0.02027137689117732,0.1149606426748345,-0.22939879435566554,0.051059406250715256
2025-12-23 16:54:05.331343,1766480045,320642202,1,149579,-23,1766480045,317341317,2,159005,93,1766480045,313995801,3,152249,109,1766480045,330657170,4,172491,-99,1766480045,327332105,5,196880,-49,1766480045,323987648,6,147722,24,-2.2495570182800293,1.8954418897628784,44.52790069580078,-0.05836274102330208,-0.04649313911795616,0.000795103027485311,38.57400131225586,47.18600082397461,44.42599868774414,50.013999938964844,45.46799850463867,59.63800048828125,1766480045,274713630,X6-tool2,-1.8069347791621013,3.1024658000290763,43.25270981249638,0.02027137689117732,0.1149606426748345,-0.22939879435566554,0.051059406250715256
2025-12-23 16:54:05.366767,1766480045,360653291,1,149453,-19,1766480045,357321955,2,159461,95,1766480045,353976029,3,152688,113,1766480045,350661964,4,172332,-84,1766480045,347332808,5,196793,-44,1766480045,363964936,6,147816,27,-2.356861114501953,1.7180681228637695,44.50701904296875,-0.0639331042766571,-0.04350503906607628,-0.03338286280632019,38.755001068115234,47.5369987487793,43.98099899291992,49.53099822998047,45.60599899291992,59.54499816894531,1766480045,274713630,X6-tool2,-1.8069347791621013,3.1024658000290763,43.25270981249638,0.02027137689117732,0.1149606426748345,-0.22939879435566554,0.051059406250715256
2025-12-23 16:54:05.402528,1766480045,400663899,1,149321,-36,1766480045,397346325,2,159862,95,1766480045,394014939,3,153100,106,1766480045,390662282,4,171996,-76,1766480045,387363998,5,196644,-39,1766480045,383975730,6,147876,30,-2.4428672790527344,1.5550676584243774,44.48846435546875,-0.0705002173781395,-0.043836575001478195,-0.030995383858680725,38.90399932861328,47.867000579833984,43.551998138427734,49.112998962402344,45.6879997253418,59.435001373291016,1766480045,374647108,X6-tool2,-1.995549286816837,2.7997801518072123,43.23063853830089,0.02273598001457085,0.10927840986496339,-0.2264788898375329,0.06218178942799568
2025-12-23 16:54:05.437864,1766480045,420661534,1,149282,-20,1766480045,437323402,2,160291,102,1766480045,434108571,3,153501,107,1766480045,430705083,4,171661,-95,1766480045,427317055,5,196490,-43,1766480045,423972159,6,147975,20,-2.529229164123535,1.3962986469268799,44.46919631958008,-0.0704924538731575,-0.03450565040111542,-0.04659586399793625,39.05799865722656,48.191001892089844,43.145999908447266,48.70100021362305,45.808998107910156,59.33599853515625,1766480045,374647108,X6-tool2,-1.995549286816837,2.7997801518072123,43.23063853830089,0.02273598001457085,0.10927840986496339,-0.2264788898375329,0.06218178942799568
2025-12-23 16:54:05.473033,1766480045,460662872,1,149156,-47,1766480045,457347517,2,160521,108,1766480045,454026162,3,153710,110,1766480045,470662269,4,171271,-102,1766480045,467322113,5,196298,-45,1766480045,463977807,6,148052,19,-2.578486204147339,1.3126311302185059,44.45991134643555,-0.07905484735965729,-0.04674416407942772,-0.049125127494335175,39.14500045776367,48.367000579833984,42.948001861572266,48.48099899291992,45.858001708984375,59.29800033569336,1766480045,374647108,X6-tool2,-1.995549286816837,2.7997801518072123,43.23063853830089,0.02273598001457085,0.10927840986496339,-0.2264788898375329,0.06218178942799568
2025-12-23 16:54:05.508075,1766480045,500665550,1,149041,-38,1766480045,497358296,2,160961,108,1766480045,493990799,3,154133,117,1766480045,490654283,4,171068,-100,1766480045,507324901,5,196133,-40,1766480045,504023257,6,148123,16,-2.678654432296753,1.135988473892212,44.44481658935547,-0.09007180482149124,-0.06692501902580261,-0.05072353035211563,39.332000732421875,48.75699996948242,42.54199981689453,48.0369987487793,45.979000091552734,59.22600173950195,1766480045,474677800,X6-tool2,-2.258229719852142,2.4582684821635414,43.14123461200392,0.026262600683240732,0.1051947925030924,-0.22307185156680304,0.054482460021972656
2025-12-23 16:54:05.543122,1766480045,540647358,1,148832,-32,1766480045,537305372,2,161395,118,1766480045,534014698,3,154594,99,1766480045,530662162,4,170678,-63,1766480045,527315896,5,196051,-40,1766480045,523973060,6,148162,22,-2.777500867843628,0.956721842288971,44.428627014160156,-0.07913926243782043,-0.025931309908628464,-0.04158812016248703,39.49700164794922,49.15800094604492,42.05799865722656,47.59199905395508,46.17100143432617,59.14899826049805,1766480045,474677800,X6-tool2,-2.258229719852142,2.4582684821635414,43.14123461200392,0.026262600683240732,0.1051947925030924,-0.22307185156680304,0.054482460021972656
2025-12-23 16:54:05.578731,1766480045,560663693,1,148755,-37,1766480045,577325921,2,161856,132,1766480045,574010236,3,154984,90,1766480045,570649269,4,170381,-65,1766480045,567313113,5,195892,-33,1766480045,563968268,6,148217,12,-2.878114938735962,0.7951351404190063,44.40742874145508,-0.08161883801221848,-0.019569046795368195,-0.04539896920323372,39.65599822998047,49.50899887084961,41.652000427246094,47.15800094604492,46.33599853515625,59.09400177001953,1766480045,575857836,X6-tool2,-2.551290475015467,2.122399795641525,43.15357989949229,0.03219089905165988,0.10231861508147087,-0.22075399874501425,0.0544789619743824
2025-12-23 16:54:05.613736,1766480045,600651191,1,148612,-32,1766480045,597318865,2,162070,100,1766480045,593980309,3,155171,102,1766480045,610671429,4,170041,-85,1766480045,607315302,5,195743,-31,1766480045,603980516,6,148277,15,-2.9830615520477295,0.6425992250442505,44.3746452331543,-0.09088543057441711,-0.030828768387436867,-0.06573693454265594,39.80500030517578,49.81100082397461,41.27799987792969,46.70199966430664,46.479000091552734,59.034000396728516,1766480045,575857836,X6-tool2,-2.551290475015467,2.122399795641525,43.15357989949229,0.03219089905165988,0.10231861508147087,-0.22075399874501425,0.0544789619743824
2025-12-23 16:54:05.649234,1766480045,640635228,1,148409,-59,1766480045,637326223,2,162471,81,1766480045,634014798,3,155539,97,1766480045,630660512,4,169854,-97,1766480045,647312780,5,195612,-32,1766480045,644057828,6,148343,22,-3.031284809112549,0.5620189309120178,44.36245346069336,-0.08159811049699783,-0.0377306304872036,-0.062451187521219254,39.87099838256836,49.98699951171875,41.08599853515625,46.48699951171875,46.56100082397461,59.000999450683594,1766480045,575857836,X6-tool2,-2.551290475015467,2.122399795641525,43.15357989949229,0.03219089905165988,0.10231861508147087,-0.22075399874501425,0.0544789619743824
2025-12-23 16:54:05.684642,1766480045,680651917,1,148228,-56,1766480045,677362823,2,162834,93,1766480045,673993166,3,155923,91,1766480045,670705892,4,169448,-113,1766480045,667325315,5,195535,-43,1766480045,683987773,6,148387,7,-3.1109209060668945,0.4072454869747162,44.35198974609375,-0.0528532974421978,-0.00443256925791502,-0.04873195290565491,40.01300048828125,50.36600112915039,40.71200180053711,46.130001068115234,46.77000045776367,58.94599914550781,1766480045,674640141,X6-tool2,-2.694299011172904,1.8418675018409363,43.190578979855985,0.03855798111331574,0.09884259698384122,-0.21798258142885638,0.06694475561380386
2025-12-23 16:54:05.719945,1766480045,700658852,1,148107,-59,1766480045,717319330,2,163262,92,1766480045,714004465,3,156292,81,1766480045,710674309,4,169014,-101,1766480045,707339024,5,195342,-57,1766480045,703984837,6,148409,4,-3.2070412635803223,0.2328031063079834,44.33928298950195,-0.04713185876607895,-0.004521715454757214,-0.045114949345588684,40.20600128173828,50.79999923706055,40.33300018310547,45.71799850463867,46.98400115966797,58.902000427246094,1766480045,674640141,X6-tool2,-2.694299011172904,1.8418675018409363,43.190578979855985,0.03855798111331574,0.09884259698384122,-0.21798258142885638,0.06694475561380386
2025-12-23 16:54:05.755798,1766480045,740640919,1,147881,-54,1766480045,737322334,2,163477,95,1766480045,754012704,3,156654,88,1766480045,750642307,4,168640,-109,1766480045,747301911,5,195189,-33,1766480045,743977475,6,148442,14,-3.2569262981414795,0.14716100692749023,44.33203125,-0.028543807566165924,-0.00940786674618721,-0.035798583179712296,40.28200149536133,51.013999938964844,40.15700149536133,45.5099983215332,47.09400177001953,58.88600158691406,1766480045,674640141,X6-tool2,-2.694299011172904,1.8418675018409363,43.190578979855985,0.03855798111331574,0.09884259698384122,-0.21798258142885638,0.06694475561380386
2025-12-23 16:54:05.791475,1766480045,780642988,1,147673,-45,1766480045,777328573,2,163883,98,1766480045,773975016,3,156846,102,1766480045,790666296,4,168212,-105,1766480045,787387962,5,195007,-43,1766480045,784018905,6,148475,9,-3.355485200881958,-0.011318344622850418,44.30879211425781,-0.018559996038675308,-0.010106178931891918,-0.041889313608407974,40.446998596191406,51.38800048828125,39.79499816894531,45.09199905395508,47.319000244140625,58.84700012207031,1766480045,774718244,X6-tool2,-3.0305593010524663,1.4353789640674928,43.04522461243909,0.04374424649891804,0.09620497123106594,-0.213859480191172,0.059658050537109375
2025-12-23 16:54:05.826930,1766480045,820682938,1,147431,-73,1766480045,817422925,2,164279,115,1766480045,814026937,3,157214,101,1766480045,810684381,4,168008,-106,1766480045,807423138,5,194908,-42,1766480045,824010713,6,148519,12,-3.4520325660705566,-0.1777353584766388,44.293800354003906,-0.028685245662927628,-0.009058505296707153,-0.03264593705534935,40.63999938964844,51.816001892089844,39.426998138427734,44.691001892089844,47.534000396728516,58.81999969482422,1766480045,774718244,X6-tool2,-3.0305593010524663,1.4353789640674928,43.04522461243909,0.04374424649891804,0.09620497123106594,-0.213859480191172,0.059658050537109375
2025-12-23 16:54:05.865940,1766480045,860685346,1,147162,-61,1766480045,857365841,2,164724,113,1766480045,854010245,3,157599,87,1766480045,850725501,4,167607,-98,1766480045,847352074,5,194705,-54,1766480045,863976990,6,148552,6,-3.5528812408447266,-0.3423084020614624,44.26661682128906,-0.043529246002435684,0.0061674113385379314,-0.05302159860730171,40.84299850463867,52.21200180053711,39.03099822998047,44.25699996948242,47.803001403808594,58.7760009765625,1766480045,774718244,X6-tool2,-3.0305593010524663,1.4353789640674928,43.04522461243909,0.04374424649891804,0.09620497123106594,-0.213859480191172,0.059658050537109375
2025-12-23 16:54:05.902368,1766480045,900677754,1,146909,-70,1766480045,897386210,2,165092,83,1766480045,894018203,3,157945,65,1766480045,890659357,4,167212,-100,1766480045,887331701,5,194491,-54,1766480045,883980825,6,148574,11,-3.651744842529297,-0.5046708583831787,44.24034881591797,-0.06714962422847748,0.0038396662566810846,-0.07807023078203201,41.05699920654297,52.612998962402344,38.66899871826172,43.83399963378906,48.05500030517578,58.73699951171875,1766480045,874651023,X6-tool2,-3.2533587828648645,1.0828592607700587,43.06965134298657,0.05234870079620828,0.09467137010041478,-0.2099135441878396,0.06996885687112808
2025-12-23 16:54:05.937948,1766480045,920682289,1,146783,-56,1766480045,937350927,2,165460,89,1766480045,934011371,3,158247,75,1766480045,930678665,4,166772,-115,1766480045,927407662,5,194282,-53,1766480045,923987393,6,148590,0,-3.7343480587005615,-0.6533327102661133,44.22907638549805,-0.08823294937610626,0.009230859577655792,-0.08667772263288498,41.26599884033203,53.025001525878906,38.35599899291992,43.49399948120117,48.30799865722656,58.72100067138672,1766480045,874651023,X6-tool2,-3.2533587828648645,1.0828592607700587,43.06965134298657,0.05234870079620828,0.09467137010041478,-0.2099135441878396,0.06996885687112808
2025-12-23 16:54:05.973146,1766480045,960654666,1,146514,-51,1766480045,957354061,2,165641,92,1766480045,954025196,3,158412,79,1766480045,970692464,4,166278,-122,1766480045,967380149,5,194090,-43,1766480045,963987121,6,148607,2,-3.7778232097625732,-0.7351639270782471,44.22337341308594,-0.08461474627256393,0.0032106032595038414,-0.08311451226472855,41.3650016784668,53.25600051879883,38.20199966430664,43.3120002746582,48.439998626708984,58.709999084472656,1766480045,874651023,X6-tool2,-3.2533587828648645,1.0828592607700587,43.06965134298657,0.05234870079620828,0.09467137010041478,-0.2099135441878396,0.06996885687112808
2025-12-23 16:54:06.008634,1766480046,683295,1,146239,-73,1766480045,997325189,2,166047,105,1766480045,994022414,3,158741,91,1766480045,990672798,4,166036,-119,1766480046,7347867,5,193909,-47,1766480046,3987910,6,148634,0,-3.869551420211792,-0.9066641926765442,44.21192932128906,-0.05871456861495972,-0.01820552907884121,-0.053907208144664764,41.54600143432617,53.75,37.888999938964844,42.93299865722656,48.70899963378906,58.69300079345703,1766480045,974734767,X6-tool2,-3.37120532016199,0.5945170081200407,43.09906903015001,0.05688377151687058,0.09112675991573999,-0.20571267077515173,0.06222311779856682
2025-12-23 16:54:06.044000,1766480046,40773737,1,145937,-75,1766480046,37320917,2,166470,95,1766480046,34014012,3,159093,85,1766480046,30658935,4,165597,-118,1766480046,27351041,5,193799,-56,1766480046,23989884,6,148656,1,-3.968686819076538,-1.0762972831726074,44.183837890625,-0.06480447202920914,-0.019153451547026634,-0.0581686906516552,41.749000549316406,54.20000076293945,37.520999908447266,42.505001068115234,49.00600051879883,58.654998779296875,1766480045,974734767,X6-tool2,-3.37120532016199,0.5945170081200407,43.09906903015001,0.05688377151687058,0.09112675991573999,-0.20571267077515173,0.06222311779856682
2025-12-23 16:54:06.080181,1766480046,60688148,1,145750,-94,1766480046,77325646,2,166855,98,1766480046,74028671,3,159434,79,1766480046,70703896,4,165146,-111,1766480046,67335058,5,193607,-50,1766480046,63977522,6,148667,0,-4.064473628997803,-1.2357428073883057,44.16262435913086,-0.05968281626701355,-0.007393262814730406,-0.056736234575510025,41.941001892089844,54.6510009765625,37.18000030517578,42.1150016784668,49.340999603271484,58.64400100708008,1766480046,74581512,X6-tool2,-3.7669816508916654,0.23786380565966667,43.02804560704308,0.06204351096245869,0.09233607175103474,-0.20246675930997327,0.07307180017232895
2025-12-23 16:54:06.116766,1766480046,100654745,1,145366,-96,1766480046,97327339,2,167053,99,1766480046,113975248,3,159758,71,1766480046,110698564,4,164652,-95,1766480046,107327877,5,193381,-65,1766480046,103981420,6,148678,0,-4.161492824554443,-1.3980745077133179,44.14015197753906,-0.06400016695261002,0.006448945961892605,-0.08419299870729446,42.16699981689453,55.11800003051758,36.85100173950195,41.71900177001953,49.724998474121094,58.632999420166016,1766480046,74581512,X6-tool2,-3.7669816508916654,0.23786380565966667,43.02804560704308,0.06204351096245869,0.09233607175103474,-0.20246675930997327,0.07307180017232895
2025-12-23 16:54:06.152678,1766480046,140655923,1,144981,-95,1766480046,137334138,2,167437,99,1766480046,133995572,3,159917,75,1766480046,150677532,4,164191,-116,1766480046,147322865,5,193162,-53,1766480046,143974059,6,148689,2,-4.206762790679932,-1.4808958768844604,44.13407897949219,-0.06909825652837753,0.014301322400569916,-0.09078072011470795,42.28799819946289,55.375999450683594,36.691001892089844,41.53799819946289,49.92300033569336,58.632999420166016,1766480046,74581512,X6-tool2,-3.7669816508916654,0.23786380565966667,43.02804560704308,0.06204351096245869,0.09233607175103474,-0.20246675930997327,0.07307180017232895
2025-12-23 16:54:06.188164,1766480046,180645931,1,144619,-85,1766480046,177329537,2,167789,94,1766480046,174012131,3,160247,85,1766480046,170665105,4,163932,-135,1766480046,187340023,5,192931,-60,1766480046,183974837,6,148694,0,-4.299080848693848,-1.6369999647140503,44.111202239990234,-0.07280667871236801,0.027610955759882927,-0.10268834978342056,42.49599838256836,55.83700180053711,36.367000579833984,41.159000396728516,50.297000885009766,58.62200164794922,1766480046,174788741,X6-tool2,-3.8100831932002186,-0.22807780739842473,43.128035402727434,0.06151298875816482,0.09357498859222074,-0.20204264391111276,0.058014869689941406
2025-12-23 16:54:06.223281,1766480046,220642349,1,144218,-101,1766480046,217372266,2,168146,89,1766480046,213990509,3,160565,66,1766480046,210703805,4,163356,-133,1766480046,207348438,5,192849,-44,1766480046,204010343,6,148700,9,-4.386242866516113,-1.8058829307556152,44.09703826904297,-0.06913324445486069,0.03259555250406265,-0.07047636061906815,42.69900131225586,56.375999450683594,36.03200149536133,40.797000885009766,50.659000396728516,58.611000061035156,1766480046,174788741,X6-tool2,-3.8100831932002186,-0.22807780739842473,43.128035402727434,0.06151298875816482,0.09357498859222074,-0.20204264391111276,0.058014869689941406
2025-12-23 16:54:06.259374,1766480046,240648574,1,144020,-94,1766480046,257340463,2,168508,88,1766480046,254024638,3,160845,66,1766480046,250658722,4,162850,-122,1766480046,247324026,5,192656,-44,1766480046,243970069,6,148700,0,-4.476110935211182,-1.9769140481948853,44.08395004272461,-0.029766203835606575,0.022835053503513336,-0.04442380368709564,42.891998291015625,56.941001892089844,35.74599838256836,40.433998107910156,51.07099914550781,58.611000061035156,1766480046,174788741,X6-tool2,-3.8100831932002186,-0.22807780739842473,43.128035402727434,0.06151298875816482,0.09357498859222074,-0.20204264391111276,0.058014869689941406
2025-12-23 16:54:06.295580,1766480046,280641992,1,143619,-99,1766480046,277333948,2,168679,88,1766480046,294021746,3,161098,68,1766480046,290648169,4,162378,-130,1766480046,287305263,5,192448,-54,1766480046,283989458,6,148700,0,-4.518325328826904,-2.0504305362701416,44.07455825805664,-0.029766203835606575,0.022835053503513336,-0.04442380368709564,42.99100112915039,57.178001403808594,35.604000091552734,40.263999938964844,51.26300048828125,58.611000061035156,1766480046,274633055,X6-tool2,-3.887820298973904,-0.5930692514319197,43.165403534855166,0.061988063050373056,0.09636226981041225,-0.2012441053514598,0.07198206335306168
2025-12-23 16:54:06.332030,1766480046,320681982,1,143190,-105,1766480046,317311285,2,169074,104,1766480046,313972859,3,161246,73,1766480046,330717550,4,161801,-160,1766480046,327327532,5,192228,-48,1766480046,323972076,6,148694,0,-4.611460208892822,-2.1987948417663574,44.049644470214844,-0.02956964820623398,0.012055139057338238,-0.07931654155254364,43.209999084472656,57.650001525878906,35.35100173950195,39.895999908447266,51.67499923706055,58.617000579833984,1766480046,274633055,X6-tool2,-3.887820298973904,-0.5930692514319197,43.165403534855166,0.061988063050373056,0.09636226981041225,-0.2012441053514598,0.07198206335306168
2025-12-23 16:54:06.367214,1766480046,360657179,1,142668,-124,1766480046,357314663,2,169492,97,1766480046,354000268,3,161543,79,1766480046,350665292,4,161505,-133,1766480046,347333307,5,192123,-60,1766480046,363971954,6,148689,0,-4.7105607986450195,-2.372140407562256,44.02547073364258,-0.008284990675747395,0.003475754288956523,-0.0716162696480751,43.42499923706055,58.22700119018555,35.042999267578125,39.494998931884766,52.141998291015625,58.617000579833984,1766480046,274633055,X6-tool2,-3.887820298973904,-0.5930692514319197,43.165403534855166,0.061988063050373056,0.09636226981041225,-0.2012441053514598,0.07198206335306168
2025-12-23 16:54:06.403103,1766480046,400660568,1,142141,-125,1766480046,397313172,2,169860,85,1766480046,393995366,3,161900,90,1766480046,390664311,4,160900,-162,1766480046,387338575,5,191838,-81,1766480046,383999389,6,148683,0,-4.815093040466309,-2.546104907989502,43.99909591674805,-0.029645830392837524,0.009346668608486652,-0.11783456802368164,43.709999084472656,58.81999969482422,34.72999954223633,39.08300018310547,52.69200134277344,58.62799835205078,1766480046,382810974,X6-tool2,-4.105674028530683,-1.0428990457087126,43.17377343238077,0.06034927711831014,0.10127946752722468,-0.202885225793083,0.056512195616960526
2025-12-23 16:54:06.438645,1766480046,420659992,1,141883,-126,1766480046,437309130,2,170173,66,1766480046,433972314,3,162208,74,1766480046,430673770,4,160280,-152,1766480046,427322993,5,191563,-58,1766480046,423975297,6,148678,0,-4.899328231811523,-2.714291572570801,43.9858512878418,-0.07188712805509567,0.0373058021068573,-0.12306753545999527,43.98500061035156,59.441001892089844,34.4010009765625,38.742000579833984,53.20800018310547,58.632999420166016,1766480046,382810974,X6-tool2,-4.105674028530683,-1.0428990457087126,43.17377343238077,0.06034927711831014,0.10127946752722468,-0.202885225793083,0.056512195616960526
2025-12-23 16:54:06.473884,1766480046,460682801,1,141773,44,1766480046,457312564,2,170349,89,1766480046,454043360,3,162334,64,1766480046,470980870,4,160054,17,1766480046,467366483,5,191442,0,1766480046,463975895,6,148859,90,-4.935281276702881,-2.792562484741211,43.98372268676758,-0.08554419130086899,0.053402408957481384,-0.09886637330055237,44.095001220703125,59.74800109863281,34.24100112915039,38.5989990234375,53.43899917602539,58.638999938964844,1766480046,382810974,X6-tool2,-4.105674028530683,-1.0428990457087126,43.17377343238077,0.06034927711831014,0.10127946752722468,-0.202885225793083,0.056512195616960526
2025-12-23 16:54:06.510668,1766480046,500634348,1,142086,100,1766480046,497316543,2,170228,-43,1766480046,493973936,3,162328,0,1766480046,490675952,4,160098,19,1766480046,507311869,5,191464,0,1766480046,503986074,6,149233,80,-4.863198280334473,-2.9056663513183594,43.949363708496094,-0.04608817771077156,-0.02041499875485897,-0.034764450043439865,44.099998474121094,59.9739990234375,34.1150016784668,38.47800064086914,53.16999816894531,58.26499938964844,1766480046,482384019,X6-tool2,-4.328004400051825,-1.4341292197749902,43.097933158946404,0.05882910905682365,0.10604790236504928,-0.2029598493989725,0.06859525293111801
2025-12-23 16:54:06.546694,1766480046,540634746,1,142537,125,1766480046,537324851,2,170030,-36,1766480046,533987945,3,162312,0,1766480046,530657510,4,160236,31,1766480046,527325844,5,191475,3,1766480046,543982672,6,149727,121,-4.698494911193848,-2.9194047451019287,43.945533752441406,-0.05951974168419838,0.02133685164153576,-0.04920743405818939,44.073001861572266,59.86899948120117,34.13100051879883,38.67599868774414,52.79600143432617,57.84199905395508,1766480046,482384019,X6-tool2,-4.328004400051825,-1.4341292197749902,43.097933158946404,0.05882910905682365,0.10604790236504928,-0.2029598493989725,0.06859525293111801
2025-12-23 16:54:06.582853,1766480046,580635994,1,143190,229,1766480046,577299638,2,169854,-51,1766480046,573998444,3,162279,-10,1766480046,570657638,4,160439,54,1766480046,567332463,5,191541,15,1766480046,563983806,6,149996,153,-4.519962787628174,-2.9441561698913574,43.91693878173828,-0.04838334769010544,0.02107229083776474,-0.06304318457841873,44.00699996948242,59.709999084472656,34.14799880981445,38.819000244140625,52.279998779296875,57.314998626708984,1766480046,581881021,X6-tool2,-4.219673947812225,-1.5875992275949031,43.1576167721897,0.06104528510344512,0.10840861088801866,-0.20272162611039235,0.06884893029928207
2025-12-23 16:54:06.618773,1766480046,600671740,1,143454,141,1766480046,617328258,2,169689,-50,1766480046,613971421,3,162257,-5,1766480046,610649946,4,160598,44,1766480046,607325961,5,191602,18,1766480046,603998415,6,150518,134,-4.3374433517456055,-2.958141326904297,43.88862609863281,-0.07932757586240768,-0.003184344619512558,-0.06287090480327606,43.94599914550781,59.518001556396484,34.17499923706055,38.98400115966797,51.637001037597656,56.792999267578125,1766480046,581881021,X6-tool2,-4.219673947812225,-1.5875992275949031,43.1576167721897,0.06104528510344512,0.10840861088801866,-0.20272162611039235,0.06884893029928207
2025-12-23 16:54:06.654305,1766480046,640637887,1,144058,164,1766480046,637323912,2,169568,-67,1766480046,633984696,3,162219,-13,1766480046,650670325,4,160801,44,1766480046,647948332,5,191662,10,1766480046,643976153,6,150980,107,-4.248775959014893,-2.9607722759246826,43.8797607421875,-0.085245780646801,-0.002475497080013156,-0.05407072603702545,43.90800094604492,59.43000030517578,34.19200134277344,39.08300018310547,51.356998443603516,56.55699920654297,1766480046,581881021,X6-tool2,-4.219673947812225,-1.5875992275949031,43.1576167721897,0.06104528510344512,0.10840861088801866,-0.20272162611039235,0.06884893029928207
2025-12-23 16:54:06.690830,1766480046,680680337,1,144586,145,1766480046,677314080,2,169365,-47,1766480046,673971454,3,162180,-12,1766480046,670693100,4,160906,47,1766480046,687304447,5,191788,44,1766480046,683988961,6,151469,115,-4.066280841827393,-2.957360029220581,43.862449645996094,-0.1116744801402092,0.0016678324900567532,-0.04809274896979332,43.84199905395508,59.22700119018555,34.24100112915039,39.301998138427734,50.779998779296875,56.08399963378906,1766480046,681262679,X6-tool2,-4.148083992131646,-1.7360667329643336,43.0257259911417,0.06295529425897907,0.11417539952960076,-0.20336639303299087,0.07513269037008286
2025-12-23 16:54:06.726759,1766480046,720652894,1,145135,111,1766480046,717319598,2,169124,-51,1766480046,713974822,3,162098,-11,1766480046,710649976,4,161098,32,1766480046,707331972,5,191937,72,1766480046,723994400,6,151957,119,-3.868295192718506,-2.9495739936828613,43.84840774536133,0.0006839263951405883,-0.0016973977908492088,0.05247711017727852,43.611000061035156,59.018001556396484,34.32899856567383,39.56100082397461,50.1870002746582,55.59000015258789,1766480046,681262679,X6-tool2,-4.148083992131646,-1.7360667329643336,43.0257259911417,0.06295529425897907,0.11417539952960076,-0.20336639303299087,0.07513269037008286
2025-12-23 16:54:06.762528,1766480046,760678563,1,145679,150,1766480046,757319177,2,168854,-77,1766480046,753995191,3,162010,-28,1766480046,750764569,4,161329,43,1766480046,747326450,5,191986,13,1766480046,744008574,6,152205,120,-3.6859920024871826,-2.9476449489593506,43.82460403442383,-0.006845081690698862,0.021075667813420296,0.02470669336616993,43.5620002746582,58.814998626708984,34.38999938964844,39.76900100708008,49.702999114990234,55.10599899291992,1766480046,681262679,X6-tool2,-4.148083992131646,-1.7360667329643336,43.0257259911417,0.06295529425897907,0.11417539952960076,-0.20336639303299087,0.07513269037008286
2025-12-23 16:54:06.797860,1766480046,780676807,1,145920,129,1766480046,797309315,2,168602,-86,1766480046,793979399,3,161922,-27,1766480046,790684845,4,161559,40,1766480046,787371200,5,192052,1,1766480046,784066325,6,152710,118,-3.486680030822754,-2.925736665725708,43.79999923706055,-0.022103101015090942,0.05805540829896927,-0.007434967905282974,43.49599838256836,58.540000915527344,34.47200012207031,40.027000427246094,49.17100143432617,54.60100173950195,1766480046,780649696,X6-tool2,-4.02426356376677,-1.9519377318510518,43.02231795175183,0.06501051753325471,0.12305992213605356,-0.20419257054679865,0.07105159759521484
2025-12-23 16:54:06.833312,1766480046,820647535,1,146514,155,1766480046,817325239,2,168459,-70,1766480046,813981133,3,161851,-32,1766480046,830637392,4,161724,40,1766480046,827306866,5,192123,26,1766480046,823987761,6,153193,108,-3.385720729827881,-2.9253571033477783,43.79611587524414,-0.0330539271235466,0.04824778065085411,0.0052243126556277275,43.4739990234375,58.46900177001953,34.527000427246094,40.16999816894531,48.862998962402344,54.35900115966797,1766480046,780649696,X6-tool2,-4.02426356376677,-1.9519377318510518,43.02231795175183,0.06501051753325471,0.12305992213605356,-0.20419257054679865,0.07105159759521484
2025-12-23 16:54:06.868991,1766480046,860652743,1,147003,135,1766480046,857361049,2,168245,-53,1766480046,854035414,3,161735,0,1766480046,850657516,4,161774,24,1766480046,867345726,5,192184,15,1766480046,863987489,6,153660,103,-3.1940183639526367,-2.924201488494873,43.778343200683594,0.016969557851552963,0.01258602924644947,-0.011253737844526768,43.40299987792969,58.30400085449219,34.696998596191406,40.417999267578125,48.340999603271484,53.875999450683594,1766480046,780649696,X6-tool2,-4.02426356376677,-1.9519377318510518,43.02231795175183,0.06501051753325471,0.12305992213605356,-0.20419257054679865,0.07105159759521484
2025-12-23 16:54:06.904442,1766480046,900648252,1,147486,122,1766480046,897323686,2,167986,-75,1766480046,893996821,3,161625,-39,1766480046,890649264,4,161938,54,1766480046,887327969,5,192217,17,1766480046,903982417,6,154100,110,-3.018075704574585,-2.9310250282287598,43.76480484008789,0.025529153645038605,0.01531075220555067,0.03929342329502106,43.33100128173828,58.194000244140625,34.75199890136719,40.64799880981445,47.83599853515625,53.43600082397461,1766480046,880085476,X6-tool2,-3.953952635908544,-2.1334822851049857,42.89755629401516,0.06730601911052017,0.13312773288786015,-0.2049786883143098,0.058925312012434006
2025-12-23 16:54:06.940113,1766480046,920639335,1,147744,127,1766480046,937322984,2,167734,-66,1766480046,933995609,3,161505,-43,1766480046,930634732,4,162098,43,1766480046,927322947,5,192244,10,1766480046,923985941,6,154341,125,-2.8279175758361816,-2.921863555908203,43.74728775024414,0.023153482005000114,0.02194685861468315,0.017068514600396156,43.30400085449219,58.018001556396484,34.87300109863281,40.9119987487793,47.34700012207031,52.970001220703125,1766480046,880085476,X6-tool2,-3.953952635908544,-2.1334822851049857,42.89755629401516,0.06730601911052017,0.13312773288786015,-0.2049786883143098,0.058925312012434006
2025-12-23 16:54:06.976242,1766480046,960647904,1,148222,115,1766480046,957358100,2,167563,-90,1766480046,973995067,3,161351,-28,1766480046,970668142,4,162252,35,1766480046,967344887,5,192272,5,1766480046,963983070,6,154836,125,-2.7272934913635254,-2.9215362071990967,43.734092712402344,0.03391960635781288,0.02122613973915577,0.0002922977728303522,43.2869987487793,57.93000030517578,34.944000244140625,41.03799819946289,47.099998474121094,52.71099853515625,1766480046,880085476,X6-tool2,-3.953952635908544,-2.1334822851049857,42.89755629401516,0.06730601911052017,0.13312773288786015,-0.2049786883143098,0.058925312012434006
2025-12-23 16:54:07.012825,1766480047,713505,1,148766,134,1766480046,997314337,2,167344,-52,1766480046,993973421,3,161312,-21,1766480047,10669280,4,162411,46,1766480047,7337314,5,192288,0,1766480047,4006329,6,155319,118,-2.5288445949554443,-2.916675567626953,43.716712951660156,0.042434561997652054,0.012376638129353523,-0.023574763908982277,43.270999908447266,57.7760009765625,35.097999572753906,41.31800079345703,46.599998474121094,52.22800064086914,1766480046,979657891,X6-tool2,-3.589684241334556,-2.3537280068720223,42.879714470841634,0.06967026573545419,0.1398872971699742,-0.20201317496336682,0.05757967755198479
2025-12-23 16:54:07.049146,1766480047,40640390,1,149277,113,1766480047,37358866,2,167069,-61,1766480047,33985800,3,161202,-32,1766480047,30643183,4,162493,48,1766480047,47325562,5,192299,0,1766480047,43976036,6,155808,123,-2.338630199432373,-2.914527416229248,43.69168472290039,0.02553156018257141,0.015899688005447388,-0.026563866063952446,43.25400161743164,57.617000579833984,35.19200134277344,41.566001892089844,46.08300018310547,51.744998931884766,1766480046,979657891,X6-tool2,-3.589684241334556,-2.3537280068720223,42.879714470841634,0.06967026573545419,0.1398872971699742,-0.20201317496336682,0.05757967755198479
2025-12-23 16:54:07.084616,1766480047,80662579,1,149760,110,1766480047,77356204,2,166800,-65,1766480047,74119553,3,161071,-37,1766480047,70667112,4,162620,27,1766480047,67332757,5,192310,10,1766480047,83982394,6,156281,120,-2.1448593139648438,-2.911121368408203,43.66774368286133,0.013621549122035503,0.015922626480460167,-0.0267388503998518,43.237998962402344,57.4630012512207,35.30699920654297,41.82899856567383,45.56700134277344,51.26100158691406,1766480047,79272767,X6-tool2,-3.322690635486365,-2.429924221696739,42.8498497201139,0.0749851411431349,0.1495773415090706,-0.19888019570527424,0.06674353033304214
2025-12-23 16:54:07.120563,1766480047,100645003,1,149996,125,1766480047,117324592,2,166542,-70,1766480047,114020377,3,160933,-26,1766480047,110659660,4,162735,30,1766480047,107329995,5,192310,0,1766480047,103974518,6,156511,116,-1.9568532705307007,-2.914186954498291,43.648746490478516,0.03028278797864914,-0.004615644924342632,-0.03973796218633652,43.237998962402344,57.35300064086914,35.45500183105469,42.09299850463867,45.095001220703125,50.79999923706055,1766480047,79272767,X6-tool2,-3.322690635486365,-2.429924221696739,42.8498497201139,0.0749851411431349,0.1495773415090706,-0.19888019570527424,0.06674353033304214
2025-12-23 16:54:07.156393,1766480047,140651411,1,150496,139,1766480047,137320656,2,166377,-70,1766480047,154027556,3,160834,-28,1766480047,150633618,4,162850,25,1766480047,147340614,5,192316,0,1766480047,143971947,6,156945,117,-1.7679680585861206,-2.9041836261749268,43.63603591918945,0.005719754379242659,0.004183759447187185,-0.009362643584609032,43.231998443603516,57.22700119018555,35.560001373291016,42.39500045776367,44.595001220703125,50.36600112915039,1766480047,79272767,X6-tool2,-3.322690635486365,-2.429924221696739,42.8498497201139,0.0749851411431349,0.1495773415090706,-0.19888019570527424,0.06674353033304214
2025-12-23 16:54:07.192526,1766480047,180653050,1,150958,119,1766480047,177324974,2,166119,-66,1766480047,173967818,3,160774,-26,1766480047,190709599,4,162971,20,1766480047,187373303,5,192310,0,1766480047,184034727,6,157412,113,-1.5807243585586548,-2.9071385860443115,43.61164855957031,0.005719754379242659,0.004183759447187185,-0.009362643584609032,43.237998962402344,57.11199951171875,35.67499923706055,42.65299987792969,44.132999420166016,49.89899826049805,1766480047,178784509,X6-tool2,-3.0792063428924927,-2.782659037893811,42.72377805444529,0.07640604695351201,0.15772206530581515,-0.19702838492494382,0.062020618468523026
2025-12-23 16:54:07.228343,1766480047,220651268,1,151441,103,1766480047,217341803,2,165806,-75,1766480047,214029308,3,160653,-28,1766480047,210679012,4,163004,16,1766480047,227342381,5,192310,0,1766480047,223985684,6,157901,129,-1.4780688285827637,-2.9045262336730957,43.60447692871094,-0.0003105288778897375,0.011173790320754051,0.009102488867938519,43.237998962402344,57.05699920654297,35.73500061035156,42.81800079345703,43.875,49.66299819946289,1766480047,178784509,X6-tool2,-3.0792063428924927,-2.782659037893811,42.72377805444529,0.07640604695351201,0.15772206530581515,-0.19702838492494382,0.062020618468523026
2025-12-23 16:54:07.263886,1766480047,260681678,1,151897,101,1766480047,257351372,2,165454,-84,1766480047,254028937,3,160505,-38,1766480047,250683981,4,163076,18,1766480047,247343985,5,192305,0,1766480047,244011059,6,158148,132,-1.2686831951141357,-2.9160501956939697,43.58646774291992,0.02668389305472374,0.026770781725645065,0.0325528085231781,43.24300003051758,56.99100112915039,35.867000579833984,43.13100051879883,43.41899871826172,49.16299819946289,1766480047,178784509,X6-tool2,-3.0792063428924927,-2.782659037893811,42.72377805444529,0.07640604695351201,0.15772206530581515,-0.19702838492494382,0.062020618468523026
2025-12-23 16:54:07.299639,1766480047,280656021,1,152100,113,1766480047,297331619,2,165185,-67,1766480047,294034386,3,160384,-33,1766480047,290821794,4,163136,11,1766480047,287346073,5,192294,-2,1766480047,283986507,6,158593,119,-1.072406530380249,-2.9182679653167725,43.57514190673828,0.042164165526628494,0.04473317787051201,0.06377314776182175,43.25400161743164,56.92499923706055,35.999000549316406,43.45500183105469,42.99100112915039,48.71799850463867,1766480047,278027962,X6-tool2,-2.751581336597447,-2.8670707375587265,42.59809001970503,0.0798085894255371,0.16410638234217303,-0.19539841551537102,0.06033611297607422
2025-12-23 16:54:07.335408,1766480047,320655299,1,152540,113,1766480047,317325804,2,165037,-77,1766480047,334011633,3,160247,-30,1766480047,330689488,4,163191,11,1766480047,327351332,5,192255,-13,1766480047,323993835,6,159005,108,-0.9851441383361816,-2.9215564727783203,43.565940856933594,0.04373703524470329,0.032798781991004944,0.07400856167078018,43.26499938964844,56.891998291015625,36.064998626708984,43.58700180053711,42.76599884033203,48.50899887084961,1766480047,278027962,X6-tool2,-2.751581336597447,-2.8670707375587265,42.59809001970503,0.0798085894255371,0.16410638234217303,-0.19539841551537102,0.06033611297607422
2025-12-23 16:54:07.372044,1766480047,360678419,1,152924,96,1766480047,357326492,2,164778,-59,1766480047,354082100,3,160181,-28,1766480047,370657024,4,163279,29,1766480047,367366680,5,192233,-11,1766480047,363985193,6,159423,109,-0.8103150129318237,-2.925400733947754,43.55303192138672,0.04963405057787895,0.025939112529158592,0.09286517649888992,43.29800033569336,56.83700180053711,36.20199966430664,43.87300109863281,42.35900115966797,48.108001708984375,1766480047,278027962,X6-tool2,-2.751581336597447,-2.8670707375587265,42.59809001970503,0.0798085894255371,0.16410638234217303,-0.19539841551537102,0.06033611297607422
2025-12-23 16:54:07.407312,1766480047,400729348,1,153314,90,1766480047,397323150,2,164504,-60,1766480047,394013756,3,160043,-39,1766480047,390682560,4,163378,54,1766480047,387366555,5,192189,-23,1766480047,403992512,6,159868,115,-0.6310476064682007,-2.931014060974121,43.52577590942383,0.048403289169073105,0.026731718331575394,0.07214250415563583,43.35900115966797,56.749000549316406,36.34000015258789,44.13100051879883,41.95800018310547,47.66299819946289,1766480047,377581176,X6-tool2,-2.4266650670159855,-3.0650363750147522,42.53741345166373,0.08130520314679954,0.17083902217021332,-0.1939412207567202,0.05311425402760506
2025-12-23 16:54:07.443170,1766480047,440680775,1,153787,118,1766480047,437355159,2,164213,-81,1766480047,434015733,3,159846,-53,1766480047,430682778,4,163427,13,1766480047,427355753,5,192145,-16,1766480047,424013007,6,160087,114,-0.44946765899658203,-2.925835371017456,43.49869155883789,0.060123834758996964,0.03369634225964546,0.0504588782787323,43.40299987792969,56.63399887084961,36.49399948120117,44.4109992980957,41.56800079345703,47.2239990234375,1766480047,377581176,X6-tool2,-2.4266650670159855,-3.0650363750147522,42.53741345166373,0.08130520314679954,0.17083902217021332,-0.1939412207567202,0.05311425402760506
2025-12-23 16:54:07.478786,1766480047,460678719,1,154001,101,1766480047,477352878,2,163867,-82,1766480047,474009862,3,159653,-28,1766480047,470709427,4,163493,0,1766480047,467349950,5,192047,-18,1766480047,463983323,6,160543,112,-0.25317442417144775,-2.9249215126037598,43.47704315185547,0.06372933834791183,-0.027472002431750298,0.016055794432759285,43.500999450683594,56.55099868774414,36.72999954223633,44.73500061035156,41.09000015258789,46.768001556396484,1766480047,476901241,X6-tool2,-2.1740856550155905,-3.1736290779402925,42.44919226632709,0.08218194687359509,0.17922847820803758,-0.19349297623554715,0.055825550109148026
2025-12-23 16:54:07.514002,1766480047,500654226,1,154407,91,1766480047,497331981,2,163702,-90,1766480047,494026947,3,159593,-34,1766480047,510695695,4,163586,33,1766480047,507500245,5,191948,-32,1766480047,504013423,6,160983,111,-0.1551099717617035,-2.9287092685699463,43.47010040283203,0.05810470134019852,-0.015302958898246288,0.0297100692987442,43.54499816894531,56.53499984741211,36.79600143432617,44.904998779296875,40.887001037597656,46.54800033569336,1766480047,476901241,X6-tool2,-2.1740856550155905,-3.1736290779402925,42.44919226632709,0.08218194687359509,0.17922847820803758,-0.19349297623554715,0.055825550109148026
2025-12-23 16:54:07.550717,1766480047,540651225,1,154781,98,1766480047,537348700,2,163367,-76,1766480047,534014304,3,159423,-41,1766480047,530691159,4,163608,11,1766480047,547315646,5,191827,-32,1766480047,543976020,6,161384,96,0.038562558591365814,-2.9173800945281982,43.45285415649414,0.02949540875852108,0.024723708629608154,0.028766892850399017,43.650001525878906,56.44200134277344,36.93899917602539,45.25699996948242,40.50199890136719,46.119998931884766,1766480047,476901241,X6-tool2,-2.1740856550155905,-3.1736290779402925,42.44919226632709,0.08218194687359509,0.17922847820803758,-0.19349297623554715,0.055825550109148026
2025-12-23 16:54:07.586677,1766480047,580649593,1,155143,106,1766480047,577324938,2,163015,-91,1766480047,574042194,3,159252,-50,1766480047,570694667,4,163691,25,1766480047,567329691,5,191766,-31,1766480047,583975399,6,161774,98,0.2131561040878296,-2.914151906967163,43.43665313720703,0.007637188769876957,0.026686379685997963,0.0054736873134970665,43.78200149536133,56.38100051879883,37.10900115966797,45.56999969482422,40.14500045776367,45.72999954223633,1766480047,576476836,X6-tool2,-1.7460687256373204,-3.311345245398979,42.33676720345353,0.08142250161385733,0.18436159658140258,-0.19339642923146055,0.06366729736328125
2025-12-23 16:54:07.623046,1766480047,620652332,1,155528,97,1766480047,617341407,2,162675,-94,1766480047,614053173,3,159104,-39,1766480047,610664745,4,163746,13,1766480047,607344030,5,191646,-28,1766480047,603996203,6,161982,102,0.39850932359695435,-2.9045820236206055,43.42198944091797,-0.019414469599723816,0.0402873158454895,0.012052098289132118,43.902000427246094,56.310001373291016,37.268001556396484,45.922000885009766,39.755001068115234,45.32899856567383,1766480047,576476836,X6-tool2,-1.7460687256373204,-3.311345245398979,42.33676720345353,0.08142250161385733,0.18436159658140258,-0.19339642923146055,0.06366729736328125
2025-12-23 16:54:07.658677,1766480047,640650496,1,155726,85,1766480047,657345235,2,162318,-71,1766480047,654017260,3,158906,-49,1766480047,650726016,4,163812,10,1766480047,647325137,5,191541,-27,1766480047,643971011,6,162422,113,0.5982211232185364,-2.8974082469940186,43.40278244018555,-0.016510535031557083,0.060519177466630936,0.01936282403767109,44.00699996948242,56.237998962402344,37.444000244140625,46.29499816894531,39.3650016784668,44.888999938964844,1766480047,576476836,X6-tool2,-1.7460687256373204,-3.311345245398979,42.33676720345353,0.08142250161385733,0.18436159658140258,-0.19339642923146055,0.06366729736328125
2025-12-23 16:54:07.693885,1766480047,680656384,1,156094,95,1766480047,677323679,2,162169,-68,1766480047,674042295,3,158807,-52,1766480047,690677732,4,163861,12,1766480047,687327226,5,191426,-30,1766480047,683983710,6,162845,109,0.6890649199485779,-2.8996779918670654,43.391632080078125,-0.0028075771406292915,0.05451317876577377,0.009273931384086609,44.0620002746582,56.215999603271484,37.542999267578125,46.45399856567383,39.189998626708984,44.68000030517578,1766480047,675793311,X6-tool2,-1.3953748025875157,-3.3794275855314257,42.315141861630075,0.07973494429649707,0.1926130791574893,-0.19391241377631616,0.05017916485667229
2025-12-23 16:54:07.730528,1766480047,720675303,1,156500,91,1766480047,717309596,2,161862,-69,1766480047,714051704,3,158632,-48,1766480047,710710738,4,163872,5,1766480047,727350405,5,191294,-37,1766480047,723970327,6,163290,118,0.871146559715271,-2.9072329998016357,43.363311767578125,-0.0007439693436026573,0.02698228694498539,-0.0006489066290669143,44.1879997253418,56.16699981689453,37.7239990234375,46.75699996948242,38.78300094604492,44.24599838256836,1766480047,675793311,X6-tool2,-1.3953748025875157,-3.3794275855314257,42.315141861630075,0.07973494429649707,0.1926130791574893,-0.19391241377631616,0.05017916485667229
2025-12-23 16:54:07.766888,1766480047,760653861,1,156918,101,1766480047,757365097,2,161488,-96,1766480047,754065173,3,158395,-55,1766480047,750714166,4,163911,10,1766480047,747309778,5,191223,-40,1766480047,763988126,6,163707,112,1.058799147605896,-2.917027473449707,43.33689880371094,0.014114766381680965,-0.0062654088251292706,-0.012746861204504967,44.32500076293945,56.13399887084961,37.926998138427734,47.08100128173828,38.38199996948242,43.80699920654297,1766480047,675793311,X6-tool2,-1.3953748025875157,-3.3794275855314257,42.315141861630075,0.07973494429649707,0.1926130791574893,-0.19391241377631616,0.05017916485667229
2025-12-23 16:54:07.802795,1766480047,800685090,1,157258,85,1766480047,797342964,2,161098,-110,1766480047,793989538,3,158209,-46,1766480047,790739105,4,163954,16,1766480047,787332387,5,191091,-26,1766480047,784009192,6,163916,90,1.2513196468353271,-2.9151265621185303,43.32086181640625,0.03742565959692001,-0.02744472585618496,-0.009231168776750565,44.457000732421875,56.10100173950195,38.14699935913086,47.46500015258789,38.00299835205078,43.39500045776367,1766480047,775565013,X6-tool2,-0.8920524658552634,-3.528825842548686,42.26907294385027,0.07692667221866527,0.19864277026615101,-0.19463170916437753,0.05154101178050041
2025-12-23 16:54:07.838175,1766480047,820650283,1,157423,81,1766480047,837320072,2,160714,-99,1766480047,834028348,3,158022,-53,1766480047,830654290,4,164020,16,1766480047,827327325,5,190915,-53,1766480047,823988739,6,164284,75,1.4364491701126099,-2.8961238861083984,43.31121063232422,0.011048143729567528,0.0008790616993792355,1.5818594647498685e-06,44.632999420166016,56.04100036621094,38.327999114990234,47.87699890136719,37.667999267578125,43.027000427246094,1766480047,775565013,X6-tool2,-0.8920524658552634,-3.528825842548686,42.26907294385027,0.07692667221866527,0.19864277026615101,-0.19463170916437753,0.05154101178050041
2025-12-23 16:54:07.873381,1766480047,860676312,1,157753,73,1766480047,857352097,2,160521,-97,1766480047,854016692,3,157928,-43,1766480047,870680590,4,164053,6,1766480047,867343764,5,190745,-37,1766480047,864010938,6,164685,112,1.5253986120224,-2.890308141708374,43.30105209350586,0.010246308520436287,0.002148859901353717,-0.008810732513666153,44.71500015258789,56.007999420166016,38.426998138427734,48.05799865722656,37.50299835205078,42.834999084472656,1766480047,775565013,X6-tool2,-0.8920524658552634,-3.528825842548686,42.26907294385027,0.07692667221866527,0.19864277026615101,-0.19463170916437753,0.05154101178050041
2025-12-23 16:54:07.909934,1766480047,900626329,1,158055,85,1766480047,897333704,2,160142,-98,1766480047,894078292,3,157775,-34,1766480047,890641022,4,164059,0,1766480047,907325932,5,190569,-30,1766480047,903985695,6,165097,98,1.7162857055664062,-2.890238046646118,43.279335021972656,0.009838194586336613,0.0452297106385231,-0.00893724150955677,44.89699935913086,55.974998474121094,38.59700012207031,48.4379997253418,37.189998626708984,42.41699981689453,1766480047,875035484,X6-tool2,-0.4137589996550921,-3.587490904737791,42.24026321647156,0.0740749120793235,0.20586524393534214,-0.19645463077884423,0.05254300311207771
2025-12-23 16:54:07.946316,1766480047,940720871,1,158417,95,1766480047,937342263,2,159752,-99,1766480047,934012218,3,157593,-49,1766480047,930676872,4,164081,8,1766480047,927326015,5,190464,-53,1766480047,944016575,6,165526,98,1.9081240892410278,-2.8919942378997803,43.26013946533203,0.002850372577086091,0.07775034755468369,0.014482411555945873,45.08399963378906,55.95800018310547,38.762001037597656,48.83300018310547,36.8489990234375,42.005001068115234,1766480047,875035484,X6-tool2,-0.4137589996550921,-3.587490904737791,42.24026321647156,0.0740749120793235,0.20586524393534214,-0.19645463077884423,0.05254300311207771
2025-12-23 16:54:07.982334,1766480047,980650997,1,158780,95,1766480047,977343952,2,159368,-80,1766480047,973997746,3,157396,-48,1766480047,970678341,4,164097,0,1766480047,967319914,5,190223,-58,1766480047,964002378,6,165723,97,2.0980489253997803,-2.89469838142395,43.23670959472656,-0.013846542686223984,0.07624208927154541,0.002598428400233388,45.32500076293945,55.93600082397461,38.96500015258789,49.21799850463867,36.492000579833984,41.5880012512207,1766480047,974675131,X6-tool2,0.149157936187885,-3.6546560788707243,42.085467677667886,0.07016144913989424,0.2129204233430049,-0.1993562207280969,0.05643145367503166
2025-12-23 16:54:08.018235,1766480048,637040,1,158967,95,1766480048,17306279,2,158983,-96,1766480048,13967963,3,157181,-56,1766480048,10648498,4,164114,0,1766480048,7320112,5,190003,-61,1766480048,3981346,6,166113,102,2.2752513885498047,-2.8985276222229004,43.21387481689453,-0.030978288501501083,0.05643072351813316,0.009315403178334236,45.54499816894531,55.91999816894531,39.152000427246094,49.58000183105469,36.124000549316406,41.198001861572266,1766480047,974675131,X6-tool2,0.149157936187885,-3.6546560788707243,42.085467677667886,0.07016144913989424,0.2129204233430049,-0.1993562207280969,0.05643145367503166
2025-12-23 16:54:08.053579,1766480048,40649339,1,159302,75,1766480048,37310883,2,158796,-103,1766480048,33963487,3,157083,-52,1766480048,50638976,4,164125,10,1766480048,47319381,5,189778,-49,1766480048,43975294,6,166503,91,2.371652603149414,-2.8987555503845215,43.203861236572266,-0.030978288501501083,0.05643072351813316,0.009315403178334236,45.66600036621094,55.91400146484375,39.268001556396484,49.78900146484375,35.94900131225586,40.99399948120117,1766480047,974675131,X6-tool2,0.149157936187885,-3.6546560788707243,42.085467677667886,0.07016144913989424,0.2129204233430049,-0.1993562207280969,0.05643145367503166
2025-12-23 16:54:08.089319,1766480048,80675709,1,159615,77,1766480048,77304151,2,158357,-123,1766480048,74012177,3,156830,-65,1766480048,70653620,4,164130,0,1766480048,87301968,5,189564,-59,1766480048,83983973,6,166860,94,2.5455756187438965,-2.8954665660858154,43.18860626220703,-0.018137963488698006,0.029334021732211113,0.008349258452653885,45.875,55.90299987792969,39.481998443603516,50.183998107910156,35.630001068115234,40.637001037597656,1766480048,74709963,X6-tool2,0.6733579921540845,-3.698493146088066,42.142457558204825,0.06653409895359504,0.22203934759198396,-0.2022861492142692,0.05139986798167229
2025-12-23 16:54:08.124998,1766480048,120652996,1,159950,80,1766480048,117396373,2,157901,-108,1766480048,114000465,3,156610,-54,1766480048,110668549,4,164141,5,1766480048,107344104,5,189426,-69,1766480048,123971901,6,167239,86,2.7377090454101562,-2.887065887451172,43.17572021484375,0.0034013872500509024,0.015409424901008606,0.0022949324920773506,46.12200164794922,55.891998291015625,39.73500061035156,50.645999908447266,35.305999755859375,40.257999420166016,1766480048,74709963,X6-tool2,0.6733579921540845,-3.698493146088066,42.142457558204825,0.06653409895359504,0.22203934759198396,-0.2022861492142692,0.05139986798167229
2025-12-23 16:54:08.160580,1766480048,140638679,1,160098,77,1766480048,157303847,2,157462,-97,1766480048,153985792,3,156385,-58,1766480048,150637316,4,164147,0,1766480048,147347372,5,189102,-93,1766480048,144026537,6,167437,116,2.925405263900757,-2.8845205307006836,43.15807342529297,-0.031090889126062393,0.028656374663114548,-0.0029797141905874014,46.44599914550781,55.887001037597656,39.94300079345703,51.084999084472656,34.99300003051758,39.874000549316406,1766480048,74709963,X6-tool2,0.6733579921540845,-3.698493146088066,42.142457558204825,0.06653409895359504,0.22203934759198396,-0.2022861492142692,0.05139986798167229
2025-12-23 16:54:08.197864,1766480048,180640238,1,160389,55,1766480048,197298636,2,157050,-109,1766480048,193994111,3,156160,-46,1766480048,190668836,4,164147,0,1766480048,187327200,5,188795,-78,1766480048,183969173,6,167838,101,3.115241765975952,-2.8852462768554688,43.1350212097168,-0.02169804647564888,0.032779596745967865,-0.034510355442762375,46.75299835205078,55.88100051879883,40.185001373291016,51.51900100708008,34.70199966430664,39.472999572753906,1766480048,174881251,X6-tool2,1.1572471372115714,-3.647257522444141,42.04371928569861,0.06354301884164307,0.2299018632676263,-0.20604041512708876,0.05094432830810547
2025-12-23 16:54:08.233421,1766480048,220672077,1,160675,77,1766480048,217301660,2,156841,-105,1766480048,213994426,3,156050,-59,1766480048,230644233,4,164141,0,1766480048,227325738,5,188476,-84,1766480048,223971941,6,168239,106,3.2092058658599854,-2.889655828475952,43.12003707885742,-0.02236463688313961,0.04621163010597229,-0.0475747287273407,46.91299819946289,55.88100051879883,40.28900146484375,51.72200012207031,34.558998107910156,39.263999938964844,1766480048,174881251,X6-tool2,1.1572471372115714,-3.647257522444141,42.04371928569861,0.06354301884164307,0.2299018632676263,-0.20604041512708876,0.05094432830810547
2025-12-23 16:54:08.269503,1766480048,260664375,1,160966,85,1766480048,257320469,2,156396,-98,1766480048,254006824,3,155825,-54,1766480048,250661778,4,164141,0,1766480048,267322396,5,188190,-68,1766480048,263969520,6,168624,81,3.394587278366089,-2.893028497695923,43.09733200073242,-0.015016399323940277,0.05913035199046135,-0.059225987643003464,47.220001220703125,55.887001037597656,40.50899887084961,52.15599822998047,34.27299880981445,38.874000549316406,1766480048,174881251,X6-tool2,1.1572471372115714,-3.647257522444141,42.04371928569861,0.06354301884164307,0.2299018632676263,-0.20604041512708876,0.05094432830810547
2025-12-23 16:54:08.305452,1766480048,300658924,1,161312,90,1766480048,297324198,2,155934,-115,1766480048,294010623,3,155621,-62,1766480048,290670397,4,164136,0,1766480048,287318170,5,188036,-85,1766480048,303970048,6,168992,82,3.575120210647583,-2.8921000957489014,43.07798385620117,-0.016752611845731735,0.04943964257836342,-0.03989635407924652,47.512001037597656,55.891998291015625,40.71799850463867,52.60100173950195,33.94900131225586,38.50600051879883,1766480048,274422904,X6-tool2,1.6369710381367442,-3.731123050916344,41.99925635021583,0.059790270763071016,0.23606612708137908,-0.2096948805188512,0.055835407227277756
2025-12-23 16:54:08.340828,1766480048,320651197,1,161494,94,1766480048,337316046,2,155440,-128,1766480048,334001781,3,155363,-52,1766480048,330683165,4,164130,0,1766480048,327322149,5,187701,-78,1766480048,323972772,6,169162,88,3.7567296028137207,-2.885202646255493,43.06145095825195,-0.03345324471592903,0.012067990377545357,-0.02268487773835659,47.84700012207031,55.891998291015625,40.94900131225586,53.07400131225586,33.59700012207031,38.14899826049805,1766480048,274422904,X6-tool2,1.6369710381367442,-3.731123050916344,41.99925635021583,0.059790270763071016,0.23606612708137908,-0.2096948805188512,0.055835407227277756
2025-12-23 16:54:08.376721,1766480048,360657006,1,161796,69,1766480048,357334910,2,155182,-140,1766480048,373971528,3,155143,-49,1766480048,370651383,4,164125,-5,1766480048,367327067,5,187339,-97,1766480048,363988041,6,169514,84,3.850571632385254,-2.880753993988037,43.05570602416992,-0.027063937857747078,-0.012356901541352272,-0.020755073055624962,48.016998291015625,55.89799880981445,41.08599853515625,53.332000732421875,33.43299865722656,37.972999572753906,1766480048,374891833,X6-tool2,2.2571058807602,-3.8374190473013328,41.941536998660126,0.05485710556254139,0.23815691151000246,-0.21334542392684,0.0504608154296875
2025-12-23 16:54:08.413220,1766480048,400654694,1,162098,73,1766480048,397341059,2,154671,-118,1766480048,393994323,3,155034,-58,1766480048,410645331,4,164108,0,1766480048,407308815,5,186932,-108,1766480048,403968139,6,169882,93,4.038673400878906,-2.8688459396362305,43.043487548828125,-0.05169161781668663,0.009791906923055649,-0.004134064540266991,48.4119987487793,55.90299987792969,41.305999755859375,53.85900115966797,33.14699935913086,37.62200164794922,1766480048,374891833,X6-tool2,2.2571058807602,-3.8374190473013328,41.941536998660126,0.05485710556254139,0.23815691151000246,-0.21334542392684,0.0504608154296875
2025-12-23 16:54:08.448970,1766480048,440655003,1,162345,59,1766480048,437327027,2,154188,-116,1766480048,433975821,3,154808,-48,1766480048,430646885,4,164097,-4,1766480048,447311343,5,186520,-123,1766480048,443963247,6,170283,95,4.230818748474121,-2.8717474937438965,43.01869201660156,-0.0527348555624485,0.034944768995046616,-0.014134475961327553,48.819000244140625,55.91999816894531,41.5359992980957,54.354000091552734,32.87200164794922,37.22600173950195,1766480048,374891833,X6-tool2,2.2571058807602,-3.8374190473013328,41.941536998660126,0.05485710556254139,0.23815691151000246,-0.21334542392684,0.0504608154296875
2025-12-23 16:54:08.484026,1766480048,480647450,1,162642,79,1766480048,477331625,2,153671,-142,1766480048,473972099,3,154583,-58,1766480048,470649624,4,164075,0,1766480048,467314968,5,186301,-101,1766480048,463993003,6,170475,99,4.417972564697266,-2.88083815574646,42.9932861328125,-0.05532083287835121,0.0553983636200428,-0.022940754890441895,49.24700164794922,55.952999114990234,41.75600051879883,54.83700180053711,32.597999572753906,36.83599853515625,1766480048,474623064,X6-tool2,2.769553940427273,-3.700494495479055,41.96544789440274,0.0513294711912418,0.238583189315788,-0.21802197173872426,0.05825360491871834
