TCliu030506/rrc_ws/src/x6_pkg/x6_control_python/record/record_20260203_212804.csv
timestamp,out_1_header.stamp.sec,out_1_header.stamp.nanosec,out_1_header.frame_id,out_1_val,out_1_speed,out_2_header.stamp.sec,out_2_header.stamp.nanosec,out_2_header.frame_id,out_2_val,out_2_speed,out_3_header.stamp.sec,out_3_header.stamp.nanosec,out_3_header.frame_id,out_3_val,out_3_speed,out_4_header.stamp.sec,out_4_header.stamp.nanosec,out_4_header.frame_id,out_4_val,out_4_speed,out_5_header.stamp.sec,out_5_header.stamp.nanosec,out_5_header.frame_id,out_5_val,out_5_speed,out_6_header.stamp.sec,out_6_header.stamp.nanosec,out_6_header.frame_id,out_6_val,out_6_speed,x6position_pose_rp[0],x6position_pose_rp[1],x6position_pose_rp[2],x6position_pose_rp[3],x6position_pose_rp[4],x6position_pose_rp[5],x6position_joints[0],x6position_joints[1],x6position_joints[2],x6position_joints[3],x6position_joints[4],x6position_joints[5],aimooe_coord_header.stamp.sec,aimooe_coord_header.stamp.nanosec,aimooe_coord_header.frame_id,aimooe_coord_position.x,aimooe_coord_position.y,aimooe_coord_position.z,aimooe_coord_orientation.x,aimooe_coord_orientation.y,aimooe_coord_orientation.z,aimooe_coord_mean_error
2026-02-03 21:27:42.114584,1770125262,107910450,1,229334,-48,1770125262,111221001,2,244979,-60,1770125262,94584535,3,207927,-208,1770125262,97890016,4,230180,-57,1770125262,101217407,5,239310,272,1770125262,104575708,6,221913,-54,0.02172945812344551,-0.036774892359972,45.51858901977539,0.7184579968452454,5.85632848739624,-0.6035979986190796,44.1775016784668,54.64099884033203,39.60100173950195,54.54949951171875,53.9995002746582,54.455501556396484,1770125262,80993640,X6-tool2,-0.22934789625217322,-0.24852287988300711,45.77883883283025,-0.07401363675855265,-0.04282840234902766,-0.07348843587698686,0.048377037048339844
2026-02-03 21:27:42.157380,1770125262,147907064,1,229147,-49,1770125262,151242115,2,244748,-59,1770125262,154568006,3,206680,-203,1770125262,137906100,4,229949,-58,1770125262,141238692,5,240458,287,1770125262,144598313,6,221693,-60,0.019260935485363007,-0.03600030019879341,45.48114776611328,0.7000535726547241,6.2386579513549805,-0.5755283236503601,44.08399963378906,54.52799987792969,39.180999755859375,54.433998107910156,54.57099914550781,54.35100173950195,1770125262,80993640,X6-tool2,-0.22934789625217322,-0.24852287988300711,45.77883883283025,-0.07401363675855265,-0.04282840234902766,-0.07348843587698686,0.048377037048339844
2026-02-03 21:27:42.193168,1770125262,187930278,1,228961,-45,1770125262,191267059,2,244523,-56,1770125262,174574764,3,206257,-192,1770125262,177905205,4,229724,-60,1770125262,181238056,5,241611,305,1770125262,184606167,6,221468,-53,0.01989901252090931,-0.03488745540380478,45.442203521728516,0.6773380041122437,6.620927810668945,-0.5442790389060974,43.990501403808594,54.40999984741211,38.76599884033203,54.32149887084961,55.14500045776367,54.236000061035156,1770125262,181214476,X6-tool2,-0.1230954433398796,-0.318656906788656,45.72817406270829,-0.08718333042773008,-0.04455052481048175,-0.06891816012078847,0.04728412628173828
2026-02-03 21:27:42.228280,1770125262,207934945,1,228878,-39,1770125262,211273727,2,244418,-48,1770125262,214595808,3,205450,-203,1770125262,217937629,4,229488,-64,1770125262,221262960,5,242765,278,1770125262,224603491,6,221221,-64,0.018712902441620827,-0.037777673453092575,45.40434646606445,0.6544704437255859,6.992661952972412,-0.5105785131454468,43.900001525878906,54.30550003051758,38.36249923706055,54.20349884033203,55.73550033569336,54.12350082397461,1770125262,181214476,X6-tool2,-0.1230954433398796,-0.318656906788656,45.72817406270829,-0.08718333042773008,-0.04455052481048175,-0.06891816012078847,0.04728412628173828
2026-02-03 21:27:42.263954,1770125262,247933930,1,228713,-40,1770125262,251268341,2,244237,-44,1770125262,254597002,3,204609,-210,1770125262,257925603,4,229274,-64,1770125262,261264675,5,243929,263,1770125262,244601018,6,221094,-66,0.022006012499332428,-0.041108474135398865,45.38571548461914,0.6348883509635925,7.176746368408203,-0.4827246367931366,43.85900115966797,54.25899887084961,38.15650177001953,54.1515007019043,56.01300048828125,54.057498931884766,1770125262,181214476,X6-tool2,-0.1230954433398796,-0.318656906788656,45.72817406270829,-0.08718333042773008,-0.04455052481048175,-0.06891816012078847,0.04728412628173828
2026-02-03 21:27:42.300384,1770125262,287933374,1,228543,-48,1770125262,291270035,2,244050,-51,1770125262,294597416,3,203780,-193,1770125262,297908228,4,229070,-49,1770125262,281265532,5,244501,300,1770125262,284600443,6,220853,-67,0.02584271878004074,-0.048454225063323975,45.349525451660156,0.5837071537971497,7.553096771240234,-0.4156671166419983,43.77899932861328,54.17100143432617,37.730499267578125,54.04399871826172,56.595001220703125,53.933998107910156,1770125262,280900302,X6-tool2,-0.08404139345748711,-0.17500820480644128,45.747550738261154,-0.10342754985674171,-0.044085990825395646,-0.06399951931870418,0.04626496508717537
2026-02-03 21:27:42.335978,1770125262,327930088,1,228345,-53,1770125262,331244400,2,243847,-49,1770125262,334596091,3,202967,-202,1770125262,317891085,4,228977,-44,1770125262,321236506,5,245654,258,1770125262,324577557,6,220611,-63,0.03173379227519035,-0.05031193792819977,45.313316345214844,0.5365761518478394,7.921616554260254,-0.34709787368774414,43.68600082397461,54.06949996948242,37.32699966430664,53.948001861572266,57.1775016784668,53.8129997253418,1770125262,280900302,X6-tool2,-0.08404139345748711,-0.17500820480644128,45.747550738261154,-0.10342754985674171,-0.044085990825395646,-0.06399951931870418,0.04626496508717537
2026-02-03 21:27:42.371420,1770125262,367930243,1,228148,-60,1770125262,351244877,2,243743,-48,1770125262,354596588,3,202549,-216,1770125262,357914689,4,228785,-48,1770125262,361236670,5,246830,291,1770125262,364577981,6,220375,-50,0.03764066472649574,-0.05216106027364731,45.27702713012695,0.4741431772708893,8.289093971252441,-0.25805550813674927,43.58700180053711,53.96799850463867,36.9119987487793,53.85200119018555,57.75149917602539,53.69200134277344,1770125262,280900302,X6-tool2,-0.08404139345748711,-0.17500820480644128,45.747550738261154,-0.10342754985674171,-0.044085990825395646,-0.06399951931870418,0.04626496508717537
2026-02-03 21:27:42.407166,1770125262,387929830,1,228060,-36,1770125262,391229661,2,243490,-58,1770125262,394596472,3,201698,-206,1770125262,397897523,4,228576,-51,1770125262,401235565,5,247978,300,1770125262,404572136,6,220144,-54,0.040244344621896744,-0.04773019999265671,45.23748016357422,0.38990792632102966,8.665467262268066,-0.1676233410835266,43.49100112915039,53.84149932861328,36.48649978637695,53.747501373291016,58.32849884033203,53.576499938964844,1770125262,381298007,X6-tool2,-0.1819917968013613,-0.19495109006218067,45.67374141367897,-0.11951931047410543,-0.04585556865182081,-0.05881733804790022,0.046314239501953125
2026-02-03 21:27:42.443240,1770125262,427931264,1,227856,-56,1770125262,431248085,2,243276,-53,1770125262,434592586,3,200874,-200,1770125262,437907358,4,228351,-58,1770125262,441259399,5,249137,296,1770125262,424573333,6,220034,-52,0.04156157374382019,-0.04698355495929718,45.218379974365234,0.34767967462539673,8.848407745361328,-0.11833290755748749,43.44150161743164,53.784000396728516,36.27799987792969,53.695499420166016,58.61949920654297,53.51900100708008,1770125262,381298007,X6-tool2,-0.1819917968013613,-0.19495109006218067,45.67374141367897,-0.11951931047410543,-0.04585556865182081,-0.05881733804790022,0.046314239501953125
2026-02-03 21:27:42.478798,1770125262,467928758,1,227637,-49,1770125262,471243690,2,243045,-66,1770125262,474593761,3,200045,-208,1770125262,477887222,4,228098,-63,1770125262,461279826,5,249730,288,1770125262,464556877,6,219825,-48,0.037177205085754395,-0.05032515153288841,45.17966079711914,0.2702351212501526,9.188972473144531,-0.019648347049951553,43.33150100708008,53.679500579833984,35.874000549316406,53.569000244140625,59.19900131225586,53.4119987487793,1770125262,381298007,X6-tool2,-0.1819917968013613,-0.19495109006218067,45.67374141367897,-0.11951931047410543,-0.04585556865182081,-0.05881733804790022,0.046314239501953125
2026-02-03 21:27:42.514229,1770125262,507929153,1,227428,-48,1770125262,511240324,2,242814,-59,1770125262,494592828,3,199622,-210,1770125262,497905389,4,227961,-76,1770125262,501258240,5,250845,179,1770125262,504578182,6,219595,-57,0.03284533694386482,-0.049315474927425385,45.13804244995117,0.1644609421491623,9.544794082641602,0.09040361642837524,43.22700119018555,53.555999755859375,35.44850158691406,53.439998626708984,59.778499603271484,53.301998138427734,1770125262,481020713,X6-tool2,-0.2654921928507879,-0.3176655903305678,45.50173486555881,-0.13435719404419127,-0.05162169678571487,-0.05269359040553052,0.044871967285871506
2026-02-03 21:27:42.550026,1770125262,547928597,1,227269,-8,1770125262,531237791,2,242699,-61,1770125262,534591872,3,198781,-199,1770125262,537907303,4,227692,-50,1770125262,541260375,5,251049,10,1770125262,544569426,6,219386,-54,0.027288401499390602,-0.052703361958265305,45.09723663330078,0.023665716871619225,9.838072776794434,0.24259436130523682,43.119998931884766,53.44599914550781,35.02799987792969,53.30550003051758,60.13850021362305,53.19200134277344,1770125262,481020713,X6-tool2,-0.2654921928507879,-0.3176655903305678,45.50173486555881,-0.13435719404419127,-0.05162169678571487,-0.05269359040553052,0.044871967285871506
2026-02-03 21:27:42.586661,1770125262,567930984,1,227263,0,1770125262,571240035,2,242441,-57,1770125262,574593167,3,198600,-10,1770125262,577911948,4,227461,-52,1770125262,581259429,5,251060,0,1770125262,584577610,6,219194,-27,0.024606456980109215,-0.04758279025554657,45.057037353515625,0.0024787667207419872,9.919102668762207,0.19400683045387268,43.092498779296875,53.31700134277344,34.9375,53.189998626708984,60.160499572753906,53.0880012512207,1770125262,580984289,X6-tool2,-0.20260726620529934,-0.4485416746127774,45.47348069705946,-0.14716321522782697,-0.057186171574989314,-0.04461976143725057,0.055579185485839844
2026-02-03 21:27:42.621916,1770125262,607930759,1,227258,0,1770125262,611242490,2,242188,-82,1770125262,614595391,3,198589,0,1770125262,617908462,4,227241,-48,1770125262,621233533,5,251060,0,1770125262,604573667,6,219172,-5,0.021446332335472107,-0.04501374438405037,45.03832244873047,0.010362113825976849,9.93612289428711,0.14247767627239227,43.09000015258789,53.256500244140625,34.93199920654297,53.13249969482422,60.160499572753906,53.04399871826172,1770125262,580984289,X6-tool2,-0.20260726620529934,-0.4485416746127774,45.47348069705946,-0.14716321522782697,-0.057186171574989314,-0.04461976143725057,0.055579185485839844
2026-02-03 21:27:42.657353,1770125262,647927773,1,227258,0,1770125262,651246104,2,241924,-53,1770125262,654592555,3,198589,0,1770125262,637904079,4,227170,-10,1770125262,641233420,5,251060,0,1770125262,644553082,6,219166,0,0.0037532837595790625,-0.020505603402853012,45.010013580322266,0.011023570783436298,9.96955394744873,0.03875410184264183,43.09000015258789,53.11349868774414,34.93199920654297,53.044498443603516,60.160499572753906,53.029998779296875,1770125262,580984289,X6-tool2,-0.20260726620529934,-0.4485416746127774,45.47348069705946,-0.14716321522782697,-0.057186171574989314,-0.04461976143725057,0.055579185485839844
2026-02-03 21:27:42.693014,1770125262,687934577,1,227258,0,1770125262,691241618,2,241875,-5,1770125262,674595062,3,198589,0,1770125262,677905624,4,227153,0,1770125262,681235915,5,251060,-5,1770125262,684578946,6,219166,0,0.001433106604963541,-0.001728717819787562,45.000465393066406,0.004090665373951197,9.998000144958496,0.001996990293264389,43.09000015258789,53.03950119018555,34.93199920654297,53.0359992980957,60.160499572753906,53.029998779296875,1770125262,681049525,X6-tool2,-0.1582419096607094,-0.27848479150936944,45.41479621873164,-0.15032303113232076,-0.05878054685456737,-0.044549350836938825,0.044272422790527344
2026-02-03 21:27:42.728634,1770125262,727928982,1,227258,0,1770125262,711239585,2,241875,-5,1770125262,714595637,3,198589,0,1770125262,717906448,4,227148,0,1770125262,721233919,5,251060,0,1770125262,724579890,6,219166,0,0.0008285889052785933,-0.0005924732540734112,44.99953842163086,0.004090665373951197,9.998000144958496,0.001996990293264389,43.09000015258789,53.034000396728516,34.93199920654297,53.03350067138672,60.160499572753906,53.029998779296875,1770125262,681049525,X6-tool2,-0.1582419096607094,-0.27848479150936944,45.41479621873164,-0.15032303113232076,-0.05878054685456737,-0.044549350836938825,0.044272422790527344
2026-02-03 21:27:42.763689,1770125262,747927529,1,227258,0,1770125262,751243110,2,241875,0,1770125262,754597311,3,198583,0,1770125262,757904282,4,227148,0,1770125262,761234953,5,251060,0,1770125262,744592147,6,219166,0,0.0008285889052785933,-0.0005924732540734112,44.99953842163086,0.004090665373951197,9.998000144958496,0.001996990293264389,43.09000015258789,53.034000396728516,34.92900085449219,53.03350067138672,60.160499572753906,53.029998779296875,1770125262,681049525,X6-tool2,-0.1582419096607094,-0.27848479150936944,45.41479621873164,-0.15032303113232076,-0.05878054685456737,-0.044549350836938825,0.044272422790527344
2026-02-03 21:27:42.799804,1770125262,787928913,1,227258,0,1770125262,791240594,2,241875,0,1770125262,794594675,3,198583,0,1770125262,797912167,4,227148,0,1770125262,781232990,5,251060,0,1770125262,784575062,6,219166,0,0.0008285889052785933,-0.0005924732540734112,44.99953842163086,0.004090665373951197,9.998000144958496,0.001996990293264389,43.09000015258789,53.034000396728516,34.92900085449219,53.03350067138672,60.160499572753906,53.029998779296875,1770125262,781159041,X6-tool2,-0.21111548665276414,-0.35353579128068,45.36950726009091,-0.15091564445458225,-0.05957605439492505,-0.044627434226443476,0.04757086560130119
2026-02-03 21:27:42.835475,1770125262,827929897,1,227258,0,1770125262,831246218,2,241875,0,1770125262,834596249,3,198583,0,1770125262,817909414,4,227148,0,1770125262,821260635,5,251060,0,1770125262,824574306,6,219166,0,0.0008285889052785933,-0.0005924732540734112,44.99953842163086,0.004090665373951197,9.998000144958496,0.001996990293264389,43.09000015258789,53.034000396728516,34.92900085449219,53.03350067138672,60.160499572753906,53.029998779296875,1770125262,781159041,X6-tool2,-0.21111548665276414,-0.35353579128068,45.36950726009091,-0.15091564445458225,-0.05957605439492505,-0.044627434226443476,0.04757086560130119
2026-02-03 21:27:42.870853,1770125262,867927521,1,227258,0,1770125262,851245055,2,241875,0,1770125262,854599197,3,198583,0,1770125262,857919498,4,227148,0,1770125262,861238339,5,251060,0,1770125262,864578510,6,219166,0,0.0008285889052785933,-0.0005924732540734112,44.99953842163086,0.004090665373951197,9.998000144958496,0.001996990293264389,43.09000015258789,53.034000396728516,34.92900085449219,53.03350067138672,60.160499572753906,53.029998779296875,1770125262,781159041,X6-tool2,-0.21111548665276414,-0.35353579128068,45.36950726009091,-0.15091564445458225,-0.05957605439492505,-0.044627434226443476,0.04757086560130119
2026-02-03 21:27:42.906827,1770125262,887930739,1,227258,0,1770125262,891243500,2,241875,0,1770125262,894592721,3,198583,0,1770125262,897906402,4,227148,0,1770125262,901235083,5,251060,0,1770125262,904552525,6,219166,0,0.0008285889052785933,-0.0005924732540734112,44.99953842163086,0.004090665373951197,9.998000144958496,0.001996990293264389,43.09000015258789,53.034000396728516,34.92900085449219,53.03350067138672,60.160499572753906,53.029998779296875,1770125262,881126396,X6-tool2,-0.20390577007065155,-0.3898776242894673,45.349946319077894,-0.15046093415700623,-0.05973258464617069,-0.044639734749967235,0.047710102051496506
2026-02-03 21:27:42.942999,1770125262,927929023,1,227258,0,1770125262,931239614,2,241875,0,1770125262,934594675,3,198583,0,1770125262,937887997,4,227148,0,1770125262,941234618,5,251060,0,1770125262,924572182,6,219166,0,0.0008285889052785933,-0.0005924732540734112,44.99953842163086,0.004090665373951197,9.998000144958496,0.001996990293264389,43.09000015258789,53.034000396728516,34.92900085449219,53.03350067138672,60.160499572753906,53.029998779296875,1770125262,881126396,X6-tool2,-0.20390577007065155,-0.3898776242894673,45.349946319077894,-0.15046093415700623,-0.05973258464617069,-0.044639734749967235,0.047710102051496506
2026-02-03 21:27:42.978462,1770125262,967928047,1,227258,0,1770125262,971242529,2,241875,0,1770125262,974595740,3,198583,0,1770125262,977901921,4,227148,0,1770125262,961258395,5,251060,0,1770125262,964553206,6,219166,0,0.0008285889052785933,-0.0005924732540734112,44.99953842163086,0.004090665373951197,9.998000144958496,0.001996990293264389,43.09000015258789,53.034000396728516,34.92900085449219,53.03350067138672,60.160499572753906,53.029998779296875,1770125262,881126396,X6-tool2,-0.20390577007065155,-0.3898776242894673,45.349946319077894,-0.15046093415700623,-0.05973258464617069,-0.044639734749967235,0.047710102051496506
2026-02-03 21:27:43.013755,1770125263,7927482,1,227258,0,1770125263,11240513,2,241870,0,1770125262,994592977,3,198583,0,1770125262,997907898,4,227148,0,1770125263,1260059,5,251060,0,1770125263,4572650,6,219166,0,0.0008165607578121126,8.202800381695852e-05,44.99924850463867,0.0016256427625194192,10.002082824707031,-0.0006708994042128325,43.09000015258789,53.03150177001953,34.92900085449219,53.03350067138672,60.160499572753906,53.029998779296875,1770125262,981001612,X6-tool2,-0.14329057101347548,-0.3457211534189307,45.44014577132786,-0.15106593301703058,-0.058707857387332314,-0.04466065908463792,0.04708035662770271
2026-02-03 21:27:43.049413,1770125263,47925116,1,227258,0,1770125263,31244190,2,241870,0,1770125263,34595471,3,198583,0,1770125263,37906152,4,227148,0,1770125263,41262403,5,251060,0,1770125263,44571105,6,219166,0,0.0008165607578121126,8.202800381695852e-05,44.99924850463867,0.0016256427625194192,10.002082824707031,-0.0006708994042128325,43.09000015258789,53.03150177001953,34.92900085449219,53.03350067138672,60.160499572753906,53.029998779296875,1770125262,981001612,X6-tool2,-0.14329057101347548,-0.3457211534189307,45.44014577132786,-0.15106593301703058,-0.058707857387332314,-0.04466065908463792,0.04708035662770271
2026-02-03 21:27:43.085339,1770125263,67929033,1,227258,0,1770125263,71242044,2,241870,0,1770125263,74594665,3,198583,0,1770125263,77906096,4,227148,0,1770125263,81236678,5,251054,0,1770125263,84572919,6,219166,0,0.0008165607578121126,8.202800381695852e-05,44.99924850463867,0.0016256427625194192,10.002082824707031,-0.0006708994042128325,43.09000015258789,53.03150177001953,34.92900085449219,53.03350067138672,60.157501220703125,53.029998779296875,1770125263,80792618,X6-tool2,-0.22131312477769377,-0.33599309756007223,45.34467863761532,-0.15122100935153843,-0.06001004550621922,-0.04468651207803137,0.04879315569996834
2026-02-03 21:27:43.120418,1770125263,107930507,1,227258,0,1770125263,111239999,2,241870,0,1770125263,114595060,3,198583,0,1770125263,117886511,4,227148,0,1770125263,101258145,5,251054,0,1770125263,104573396,6,219166,0,0.0008165607578121126,8.202800381695852e-05,44.99924850463867,0.0016256427625194192,10.002082824707031,-0.0006708994042128325,43.09000015258789,53.03150177001953,34.92900085449219,53.03350067138672,60.157501220703125,53.029998779296875,1770125263,80792618,X6-tool2,-0.22131312477769377,-0.33599309756007223,45.34467863761532,-0.15122100935153843,-0.06001004550621922,-0.04468651207803137,0.04879315569996834
2026-02-03 21:27:43.156813,1770125263,147924832,1,227258,0,1770125263,151243583,2,241870,0,1770125263,154594444,3,198583,0,1770125263,137908278,4,227148,0,1770125263,141261119,5,251054,0,1770125263,144573040,6,219166,0,0.0008165607578121126,8.202800381695852e-05,44.99924850463867,0.0016256427625194192,10.002082824707031,-0.0006708994042128325,43.09000015258789,53.03150177001953,34.92900085449219,53.03350067138672,60.157501220703125,53.029998779296875,1770125263,80792618,X6-tool2,-0.22131312477769377,-0.33599309756007223,45.34467863761532,-0.15122100935153843,-0.06001004550621922,-0.04468651207803137,0.04879315569996834
2026-02-03 21:27:43.192744,1770125263,187930776,1,227258,0,1770125263,191243147,2,241870,0,1770125263,174593791,3,198583,0,1770125263,177907142,4,227148,0,1770125263,181234553,5,251054,0,1770125263,184574365,6,219166,0,0.0008165607578121126,8.202800381695852e-05,44.99924850463867,0.0016256427625194192,10.002082824707031,-0.0006708994042128325,43.09000015258789,53.03150177001953,34.92900085449219,53.03350067138672,60.157501220703125,53.029998779296875,1770125263,181230573,X6-tool2,-0.19805294866411635,-0.3989547972823431,45.381577015924414,-0.15096955801075895,-0.059131899734812754,-0.04459476892337949,0.04407342150807381
2026-02-03 21:27:43.228111,1770125263,207929763,1,227258,0,1770125263,211241684,2,241870,0,1770125263,214569296,3,198583,0,1770125263,217907857,4,227148,0,1770125263,221234758,5,251054,0,1770125263,224555289,6,219166,0,0.0008165607578121126,8.202800381695852e-05,44.99924850463867,0.0016256427625194192,10.002082824707031,-0.0006708994042128325,43.09000015258789,53.03150177001953,34.92900085449219,53.03350067138672,60.157501220703125,53.029998779296875,1770125263,181230573,X6-tool2,-0.19805294866411635,-0.3989547972823431,45.381577015924414,-0.15096955801075895,-0.059131899734812754,-0.04459476892337949,0.04407342150807381
2026-02-03 21:27:43.264000,1770125263,247932197,1,227258,0,1770125263,251238398,2,241870,0,1770125263,254597050,3,198583,0,1770125263,257897121,4,227148,0,1770125263,261235132,5,251054,0,1770125263,244572236,6,219166,5,0.0008165607578121126,8.202800381695852e-05,44.99924850463867,0.0016256427625194192,10.002082824707031,-0.0006708994042128325,43.09000015258789,53.03150177001953,34.92900085449219,53.03350067138672,60.157501220703125,53.029998779296875,1770125263,181230573,X6-tool2,-0.19805294866411635,-0.3989547972823431,45.381577015924414,-0.15096955801075895,-0.059131899734812754,-0.04459476892337949,0.04407342150807381
2026-02-03 21:27:43.299708,1770125263,287934822,1,227258,0,1770125263,291245873,2,241870,0,1770125263,294596074,3,198583,0,1770125263,297902075,4,227148,0,1770125263,281258899,5,251054,0,1770125263,284557230,6,219166,0,0.0008165607578121126,8.202800381695852e-05,44.99924850463867,0.0016256427625194192,10.002082824707031,-0.0006708994042128325,43.09000015258789,53.03150177001953,34.92900085449219,53.03350067138672,60.157501220703125,53.029998779296875,1770125263,280849729,X6-tool2,-0.1662768418067751,-0.29736124799805613,45.432207294260465,-0.1513453260013515,-0.0592184627970019,-0.044769108907977036,0.04429467394948006
2026-02-03 21:27:43.335603,1770125263,327929326,1,227258,0,1770125263,331238597,2,241870,0,1770125263,334594208,3,198583,0,1770125263,317905802,4,227148,0,1770125263,321235114,5,251054,0,1770125263,324570245,6,219166,0,0.0008165607578121126,8.202800381695852e-05,44.99924850463867,0.0016256427625194192,10.002082824707031,-0.0006708994042128325,43.09000015258789,53.03150177001953,34.92900085449219,53.03350067138672,60.157501220703125,53.029998779296875,1770125263,280849729,X6-tool2,-0.1662768418067751,-0.29736124799805613,45.432207294260465,-0.1513453260013515,-0.0592184627970019,-0.044769108907977036,0.04429467394948006
2026-02-03 21:27:43.370757,1770125263,367928150,1,227258,0,1770125263,351242114,2,241870,0,1770125263,354595766,3,198583,0,1770125263,357908917,4,227148,0,1770125263,361259258,5,251054,0,1770125263,364573819,6,219166,0,0.0008165607578121126,8.202800381695852e-05,44.99924850463867,0.0016256427625194192,10.002082824707031,-0.0006708994042128325,43.09000015258789,53.03150177001953,34.92900085449219,53.03350067138672,60.157501220703125,53.029998779296875,1770125263,280849729,X6-tool2,-0.1662768418067751,-0.29736124799805613,45.432207294260465,-0.1513453260013515,-0.0592184627970019,-0.044769108907977036,0.04429467394948006
2026-02-03 21:27:43.406977,1770125263,387930687,1,227258,0,1770125263,391248809,2,241870,0,1770125263,394595730,3,198583,0,1770125263,397909011,4,227148,0,1770125263,401259802,5,251054,0,1770125263,404573193,6,219166,0,0.0008165607578121126,8.202800381695852e-05,44.99924850463867,0.0016256427625194192,10.002082824707031,-0.0006708994042128325,43.09000015258789,53.03150177001953,34.92900085449219,53.03350067138672,60.157501220703125,53.029998779296875,1770125263,381227965,X6-tool2,-0.1837645037624286,-0.3216142933248921,45.408827106046886,-0.15137031643123788,-0.05919622461115909,-0.044731721602157895,0.04064464569091797
2026-02-03 21:27:43.442356,1770125263,427929472,1,227258,0,1770125263,431241613,2,241870,0,1770125263,434595874,3,198583,0,1770125263,437910835,4,227148,0,1770125263,441262426,5,251054,0,1770125263,424571660,6,219166,0,0.0008165607578121126,8.202800381695852e-05,44.99924850463867,0.0016256427625194192,10.002082824707031,-0.0006708994042128325,43.09000015258789,53.03150177001953,34.92900085449219,53.03350067138672,60.157501220703125,53.029998779296875,1770125263,381227965,X6-tool2,-0.1837645037624286,-0.3216142933248921,45.408827106046886,-0.15137031643123788,-0.05919622461115909,-0.044731721602157895,0.04064464569091797
2026-02-03 21:27:43.478015,1770125263,467930436,1,227258,0,1770125263,471241007,2,241870,0,1770125263,474595729,3,198583,0,1770125263,457892723,4,227148,0,1770125263,461259804,5,251054,0,1770125263,464571895,6,219166,0,0.0008165607578121126,8.202800381695852e-05,44.99924850463867,0.0016256427625194192,10.002082824707031,-0.0006708994042128325,43.09000015258789,53.03150177001953,34.92900085449219,53.03350067138672,60.157501220703125,53.029998779296875,1770125263,381227965,X6-tool2,-0.1837645037624286,-0.3216142933248921,45.408827106046886,-0.15137031643123788,-0.05919622461115909,-0.044731721602157895,0.04064464569091797
2026-02-03 21:27:43.513733,1770125263,507931840,1,227258,0,1770125263,511243782,2,241870,-5,1770125263,494597406,3,198583,0,1770125263,497908997,4,227148,0,1770125263,501263278,5,251054,0,1770125263,504571169,6,219166,0,0.0008165607578121126,8.202800381695852e-05,44.99924850463867,0.0016256427625194192,10.002082824707031,-0.0006708994042128325,43.09000015258789,53.03150177001953,34.92900085449219,53.03350067138672,60.157501220703125,53.029998779296875,1770125263,481112871,X6-tool2,-0.17508404923778564,-0.3936036943748429,45.37123882855436,-0.1508271880585593,-0.05999814163273527,-0.0445420489000099,0.04509925842285156
2026-02-03 21:27:43.549782,1770125263,547908575,1,227258,0,1770125263,531285709,2,241870,0,1770125263,534571400,3,198583,0,1770125263,537929461,4,227148,0,1770125263,541240822,5,251054,0,1770125263,544595894,6,219166,0,0.0008165607578121126,8.202800381695852e-05,44.99924850463867,0.0016256427625194192,10.002082824707031,-0.0006708994042128325,43.09000015258789,53.03150177001953,34.92900085449219,53.03350067138672,60.157501220703125,53.029998779296875,1770125263,481112871,X6-tool2,-0.17508404923778564,-0.3936036943748429,45.37123882855436,-0.1508271880585593,-0.05999814163273527,-0.0445420489000099,0.04509925842285156
2026-02-03 21:27:43.585198,1770125263,567908542,1,227258,0,1770125263,571267893,2,241870,-5,1770125263,574575184,3,198583,0,1770125263,577927485,4,227148,0,1770125263,581250476,5,251054,0,1770125263,584528098,6,219166,0,0.0008165607578121126,8.202800381695852e-05,44.99924850463867,0.0016256427625194192,10.002082824707031,-0.0006708994042128325,43.09000015258789,53.03150177001953,34.92900085449219,53.03350067138672,60.157501220703125,53.029998779296875,1770125263,581005536,X6-tool2,-0.2107200792768485,-0.3480364139849246,45.3280513705744,-0.15033229255028335,-0.060582655103647826,-0.044692920004426394,0.04492759704589844
2026-02-03 21:27:43.620909,1770125263,607932216,1,227258,0,1770125263,611239507,2,241870,0,1770125263,614599059,3,198583,0,1770125263,617896360,4,227148,0,1770125263,601261984,5,251054,0,1770125263,604575115,6,219166,0,0.0008165607578121126,8.202800381695852e-05,44.99924850463867,0.0016256427625194192,10.002082824707031,-0.0006708994042128325,43.09000015258789,53.03150177001953,34.92900085449219,53.03350067138672,60.157501220703125,53.029998779296875,1770125263,581005536,X6-tool2,-0.2107200792768485,-0.3480364139849246,45.3280513705744,-0.15033229255028335,-0.060582655103647826,-0.044692920004426394,0.04492759704589844
2026-02-03 21:27:43.657048,1770125263,647931711,1,227258,0,1770125263,651252292,2,241870,0,1770125263,654610753,3,198583,0,1770125263,637907907,4,227148,0,1770125263,641236408,5,251054,0,1770125263,644574479,6,219166,0,0.0008165607578121126,8.202800381695852e-05,44.99924850463867,0.0016256427625194192,10.002082824707031,-0.0006708994042128325,43.09000015258789,53.03150177001953,34.92900085449219,53.03350067138672,60.157501220703125,53.029998779296875,1770125263,581005536,X6-tool2,-0.2107200792768485,-0.3480364139849246,45.3280513705744,-0.15033229255028335,-0.060582655103647826,-0.044692920004426394,0.04492759704589844
2026-02-03 21:27:43.692933,1770125263,687933695,1,227258,0,1770125263,691241346,2,241870,0,1770125263,674574940,3,198583,0,1770125263,677930381,4,227148,0,1770125263,681256082,5,251054,0,1770125263,684652204,6,219172,0,0.0008165607578121126,8.202800381695852e-05,44.99924850463867,0.0016256427625194192,10.002082824707031,-0.0006708994042128325,43.09000015258789,53.03150177001953,34.92900085449219,53.03350067138672,60.157501220703125,53.029998779296875,1770125263,681057832,X6-tool2,-0.31634096361162845,-0.4023414303144768,45.24473611329624,-0.14970463925699432,-0.06081977423815312,-0.04463149262342967,0.04141489788889885
2026-02-03 21:27:43.728222,1770125263,707932092,1,227258,0,1770125263,711241733,2,241870,0,1770125263,714599574,3,198583,0,1770125263,717905816,4,227148,0,1770125263,721235097,5,251054,0,1770125263,724576258,6,219172,0,0.00010841115727089345,0.0004742217424791306,44.999595642089844,0.0016256427625194192,10.002082824707031,-0.0006708994042128325,43.09000015258789,53.03150177001953,34.92900085449219,53.03350067138672,60.157501220703125,53.03300094604492,1770125263,681057832,X6-tool2,-0.31634096361162845,-0.4023414303144768,45.24473611329624,-0.14970463925699432,-0.06081977423815312,-0.04463149262342967,0.04141489788889885
2026-02-03 21:27:43.764203,1770125263,747910276,1,227258,0,1770125263,751269087,2,241870,0,1770125263,754574989,3,198583,0,1770125263,757929890,4,227148,0,1770125263,761238781,5,251054,0,1770125263,744598635,6,219172,0,0.00010841115727089345,0.0004742217424791306,44.999595642089844,0.0016256427625194192,10.002082824707031,-0.0006708994042128325,43.09000015258789,53.03150177001953,34.92900085449219,53.03350067138672,60.157501220703125,53.03300094604492,1770125263,681057832,X6-tool2,-0.31634096361162845,-0.4023414303144768,45.24473611329624,-0.14970463925699432,-0.06081977423815312,-0.04463149262342967,0.04141489788889885
2026-02-03 21:27:43.800019,1770125263,787909670,1,227258,0,1770125263,791267852,2,241870,0,1770125263,794571323,3,198583,0,1770125263,797924504,4,227148,0,1770125263,781247748,5,251054,0,1770125263,784596679,6,219172,0,0.00010841115727089345,0.0004742217424791306,44.999595642089844,0.0016256427625194192,10.002082824707031,-0.0006708994042128325,43.09000015258789,53.03150177001953,34.92900085449219,53.03350067138672,60.157501220703125,53.03300094604492,1770125263,781105068,X6-tool2,-0.17745113521741876,-0.3726701577380494,45.391263709273424,-0.1512874483208607,-0.05996025565816222,-0.044664367079373,0.042522430419921875
2026-02-03 21:27:43.836469,1770125263,827913935,1,227258,0,1770125263,831267196,2,241870,0,1770125263,834574157,3,198583,0,1770125263,817928221,4,227148,0,1770125263,821220932,5,251054,0,1770125263,824596934,6,219172,0,0.00010841115727089345,0.0004742217424791306,44.999595642089844,0.0016256427625194192,10.002082824707031,-0.0006708994042128325,43.09000015258789,53.03150177001953,34.92900085449219,53.03350067138672,60.157501220703125,53.03300094604492,1770125263,781105068,X6-tool2,-0.17745113521741876,-0.3726701577380494,45.391263709273424,-0.1512874483208607,-0.05996025565816222,-0.044664367079373,0.042522430419921875
2026-02-03 21:27:43.871838,1770125263,867928779,1,227258,0,1770125263,871243630,2,241870,0,1770125263,854596224,3,198583,0,1770125263,857897075,4,227148,0,1770125263,861237687,5,251054,0,1770125263,864578458,6,219172,0,0.00010841115727089345,0.0004742217424791306,44.999595642089844,0.0016256427625194192,10.002082824707031,-0.0006708994042128325,43.09000015258789,53.03150177001953,34.92900085449219,53.03350067138672,60.157501220703125,53.03300094604492,1770125263,781105068,X6-tool2,-0.17745113521741876,-0.3726701577380494,45.391263709273424,-0.1512874483208607,-0.05996025565816222,-0.044664367079373,0.042522430419921875
2026-02-03 21:27:43.907568,1770125263,887932516,1,227258,-4,1770125263,891243258,2,241870,0,1770125263,894601369,3,198583,0,1770125263,897904920,4,227148,0,1770125263,901240051,5,251054,0,1770125263,904596692,6,219172,0,0.00010841115727089345,0.0004742217424791306,44.999595642089844,0.0016256427625194192,10.002082824707031,-0.0006708994042128325,43.09000015258789,53.03150177001953,34.92900085449219,53.03350067138672,60.157501220703125,53.03300094604492,1770125263,880991414,X6-tool2,-0.18874060947134988,-0.2855665601498368,45.37388212120596,-0.15099623468716364,-0.059717901080808364,-0.044867293510764544,0.040587108582258224
2026-02-03 21:27:43.943310,1770125263,927932420,1,227258,0,1770125263,931238262,2,241870,0,1770125263,934594643,3,198583,0,1770125263,937903094,4,227148,0,1770125263,941262915,5,251054,0,1770125263,924572489,6,219172,0,0.00010841115727089345,0.0004742217424791306,44.999595642089844,0.0016256427625194192,10.002082824707031,-0.0006708994042128325,43.09000015258789,53.03150177001953,34.92900085449219,53.03350067138672,60.157501220703125,53.03300094604492,1770125263,880991414,X6-tool2,-0.18874060947134988,-0.2855665601498368,45.37388212120596,-0.15099623468716364,-0.059717901080808364,-0.044867293510764544,0.040587108582258224
2026-02-03 21:27:43.979307,1770125263,967865565,1,227258,3,1770125263,971246826,2,241870,0,1770125263,974598047,3,198583,0,1770125263,977905029,4,227148,0,1770125263,961238552,5,251054,0,1770125263,964596354,6,219172,0,0.00010841115727089345,0.0004742217424791306,44.999595642089844,0.0016256427625194192,10.002082824707031,-0.0006708994042128325,43.09000015258789,53.03150177001953,34.92900085449219,53.03350067138672,60.157501220703125,53.03300094604492,1770125263,880991414,X6-tool2,-0.18874060947134988,-0.2855665601498368,45.37388212120596,-0.15099623468716364,-0.059717901080808364,-0.044867293510764544,0.040587108582258224
2026-02-03 21:27:44.014343,1770125264,7906659,1,227258,0,1770125264,11266280,2,241870,0,1770125263,994570834,3,198583,0,1770125263,997921426,4,227148,0,1770125264,1242737,5,251054,0,1770125264,4596058,6,219172,0,0.00010841115727089345,0.0004742217424791306,44.999595642089844,0.0016256427625194192,10.002082824707031,-0.0006708994042128325,43.09000015258789,53.03150177001953,34.92900085449219,53.03350067138672,60.157501220703125,53.03300094604492,1770125263,981026590,X6-tool2,-0.16846410445452406,-0.38990941088536146,45.40614893839604,-0.1508178971990143,-0.059610197353057635,-0.04471453320055953,0.04393799975514412
2026-02-03 21:27:44.050357,1770125264,47932863,1,227258,-1,1770125264,31239528,2,241870,0,1770125264,34599229,3,198583,0,1770125264,37882610,4,227148,0,1770125264,41235951,5,251054,0,1770125264,44571452,6,219172,0,0.00010841115727089345,0.0004742217424791306,44.999595642089844,0.0016256427625194192,10.002082824707031,-0.0006708994042128325,43.09000015258789,53.03150177001953,34.92900085449219,53.03350067138672,60.157501220703125,53.03300094604492,1770125263,981026590,X6-tool2,-0.16846410445452406,-0.38990941088536146,45.40614893839604,-0.1508178971990143,-0.059610197353057635,-0.04471453320055953,0.04393799975514412
2026-02-03 21:27:44.085922,1770125264,67927701,1,227258,0,1770125264,71223282,2,241870,0,1770125264,74568093,3,198583,0,1770125264,77931034,4,227148,0,1770125264,81215045,5,251054,0,1770125264,84597337,6,219172,0,0.00010841115727089345,0.0004742217424791306,44.999595642089844,0.0016256427625194192,10.002082824707031,-0.0006708994042128325,43.09000015258789,53.03150177001953,34.92900085449219,53.03350067138672,60.157501220703125,53.03300094604492,1770125264,80948925,X6-tool2,-0.2130250562522864,-0.3603141041170658,45.344175955279376,-0.15093480062337514,-0.06060180364913155,-0.04468118966245041,0.04508431628346443
2026-02-03 21:27:44.121487,1770125264,107932625,1,227258,0,1770125264,111243036,2,241870,0,1770125264,114597667,3,198583,0,1770125264,117899468,4,227142,-5,1770125264,101241162,5,251054,0,1770125264,104573084,6,219172,0,0.00010841115727089345,0.0004742217424791306,44.999595642089844,0.0016256427625194192,10.002082824707031,-0.0006708994042128325,43.09000015258789,53.03150177001953,34.92900085449219,53.03350067138672,60.157501220703125,53.03300094604492,1770125264,80948925,X6-tool2,-0.2130250562522864,-0.3603141041170658,45.344175955279376,-0.15093480062337514,-0.06060180364913155,-0.04468118966245041,0.04508431628346443
2026-02-03 21:27:44.157539,1770125264,147912579,1,227258,0,1770125264,151278600,2,241870,0,1770125264,154574492,3,198583,0,1770125264,137904616,4,227148,0,1770125264,141239637,5,251054,0,1770125264,144601068,6,219172,0,0.00010841115727089345,0.0004742217424791306,44.999595642089844,0.0016256427625194192,10.002082824707031,-0.0006708994042128325,43.09000015258789,53.03150177001953,34.92900085449219,53.03350067138672,60.157501220703125,53.03300094604492,1770125264,80948925,X6-tool2,-0.2130250562522864,-0.3603141041170658,45.344175955279376,-0.15093480062337514,-0.06060180364913155,-0.04468118966245041,0.04508431628346443
2026-02-03 21:27:44.193492,1770125264,187909373,1,227258,0,1770125264,191270195,2,241870,0,1770125264,174575619,3,198583,0,1770125264,177933680,4,227142,-3,1770125264,181248281,5,251054,0,1770125264,184595152,6,219172,0,-0.000585329660680145,5.7029363233596087e-05,44.99924850463867,0.0016256427625194192,10.002082824707031,-0.0006708994042128325,43.09000015258789,53.03150177001953,34.92900085449219,53.03049850463867,60.157501220703125,53.03300094604492,1770125264,189649864,X6-tool2,-0.2513162180512091,-0.44113440522720065,45.307872823151506,-0.15152570294039383,-0.05999470707799545,-0.044886621806181665,0.036060016602277756
2026-02-03 21:27:44.228832,1770125264,227932258,1,227258,0,1770125264,211272472,2,241870,0,1770125264,214596023,3,198583,0,1770125264,217919264,4,227148,3,1770125264,221236376,5,251054,0,1770125264,224598847,6,219172,0,0.00010841115727089345,0.0004742217424791306,44.999595642089844,0.0016256427625194192,10.002082824707031,-0.0006708994042128325,43.09000015258789,53.03150177001953,34.92900085449219,53.03350067138672,60.157501220703125,53.03300094604492,1770125264,189649864,X6-tool2,-0.2513162180512091,-0.44113440522720065,45.307872823151506,-0.15152570294039383,-0.05999470707799545,-0.044886621806181665,0.036060016602277756
2026-02-03 21:27:44.264377,1770125264,247980425,1,227258,5,1770125264,251270006,2,241870,0,1770125264,254597417,3,198583,0,1770125264,257907649,4,227148,0,1770125264,261237050,5,251054,0,1770125264,244599844,6,219172,0,0.00010841115727089345,0.0004742217424791306,44.999595642089844,0.0016256427625194192,10.002082824707031,-0.0006708994042128325,43.09000015258789,53.03150177001953,34.92900085449219,53.03350067138672,60.157501220703125,53.03300094604492,1770125264,189649864,X6-tool2,-0.2513162180512091,-0.44113440522720065,45.307872823151506,-0.15152570294039383,-0.05999470707799545,-0.044886621806181665,0.036060016602277756
2026-02-03 21:27:44.300193,1770125264,287933789,1,227258,0,1770125264,291355630,2,241870,0,1770125264,294583662,3,198583,0,1770125264,297930763,4,227142,0,1770125264,281266337,5,251054,0,1770125264,284581058,6,219172,0,0.00010841115727089345,0.0004742217424791306,44.999595642089844,0.0016256427625194192,10.002082824707031,-0.0006708994042128325,43.09000015258789,53.03150177001953,34.92900085449219,53.03350067138672,60.157501220703125,53.03300094604492,1770125264,289057610,X6-tool2,-0.1028534367701925,-0.3405608793091747,45.44379272087835,-0.15121281706906226,-0.05926280288749773,-0.044823077510293456,0.040191650390625
2026-02-03 21:27:44.336873,1770125264,327932294,1,227258,0,1770125264,331250405,2,241870,0,1770125264,334600196,3,198583,0,1770125264,317907410,4,227148,0,1770125264,321263501,5,251054,0,1770125264,324576562,6,219172,0,0.00010841115727089345,0.0004742217424791306,44.999595642089844,0.0016256427625194192,10.002082824707031,-0.0006708994042128325,43.09000015258789,53.03150177001953,34.92900085449219,53.03350067138672,60.157501220703125,53.03300094604492,1770125264,289057610,X6-tool2,-0.1028534367701925,-0.3405608793091747,45.44379272087835,-0.15121281706906226,-0.05926280288749773,-0.044823077510293456,0.040191650390625
2026-02-03 21:27:44.372489,1770125264,367922648,1,227258,0,1770125264,371244309,2,241870,0,1770125264,354583763,3,198583,0,1770125264,357888684,4,227142,0,1770125264,361208455,5,251054,0,1770125264,364595897,6,219172,0,-0.000585329660680145,5.7029363233596087e-05,44.99924850463867,0.0016256427625194192,10.002082824707031,-0.0006708994042128325,43.09000015258789,53.03150177001953,34.92900085449219,53.03049850463867,60.157501220703125,53.03300094604492,1770125264,289057610,X6-tool2,-0.1028534367701925,-0.3405608793091747,45.44379272087835,-0.15121281706906226,-0.05926280288749773,-0.044823077510293456,0.040191650390625
2026-02-03 21:27:44.408045,1770125264,387913145,1,227258,0,1770125264,391268456,2,241870,0,1770125264,394579447,3,198583,0,1770125264,397931949,4,227148,0,1770125264,401242230,5,251054,0,1770125264,404598981,6,219172,0,0.00010841115727089345,0.0004742217424791306,44.999595642089844,0.0016256427625194192,10.002082824707031,-0.0006708994042128325,43.09000015258789,53.03150177001953,34.92900085449219,53.03350067138672,60.157501220703125,53.03300094604492,1770125264,388276965,X6-tool2,-0.21489536352990007,-0.35320397446809826,45.33454032240553,-0.1507200945616637,-0.060404373016066125,-0.044701434954985506,0.041256267577409744
2026-02-03 21:27:44.443638,1770125264,427913179,1,227258,0,1770125264,431278960,2,241870,0,1770125264,434574872,3,198583,0,1770125264,437907103,4,227142,-5,1770125264,441244734,5,251054,0,1770125264,424582788,6,219172,0,-0.000585329660680145,5.7029363233596087e-05,44.99924850463867,0.0016256427625194192,10.002082824707031,-0.0006708994042128325,43.09000015258789,53.03150177001953,34.92900085449219,53.03049850463867,60.157501220703125,53.03300094604492,1770125264,388276965,X6-tool2,-0.21489536352990007,-0.35320397446809826,45.33454032240553,-0.1507200945616637,-0.060404373016066125,-0.044701434954985506,0.041256267577409744
2026-02-03 21:27:44.479734,1770125264,467939204,1,227258,0,1770125264,471242855,2,241870,0,1770125264,474604346,3,198583,0,1770125264,477954607,4,227142,0,1770125264,461334821,5,251054,0,1770125264,464577003,6,219172,0,0.00010841115727089345,0.0004742217424791306,44.999595642089844,0.0016256427625194192,10.002082824707031,-0.0006708994042128325,43.09000015258789,53.03150177001953,34.92900085449219,53.03350067138672,60.157501220703125,53.03300094604492,1770125264,388276965,X6-tool2,-0.21489536352990007,-0.35320397446809826,45.33454032240553,-0.1507200945616637,-0.060404373016066125,-0.044701434954985506,0.041256267577409744
2026-02-03 21:27:44.514886,1770125264,507941438,1,227258,0,1770125264,511247639,2,241870,0,1770125264,494578683,3,198583,0,1770125264,497887304,4,227142,-5,1770125264,501299476,5,251054,0,1770125264,504578107,6,219172,0,-0.000585329660680145,5.7029363233596087e-05,44.99924850463867,0.0016256427625194192,10.002082824707031,-0.0006708994042128325,43.09000015258789,53.03150177001953,34.92900085449219,53.03049850463867,60.157501220703125,53.03300094604492,1770125264,487608171,X6-tool2,-0.21291773947619294,-0.3733279478085483,45.31386225416436,-0.1514724686460919,-0.06073408123917773,-0.04491812235324062,0.0427653007209301
2026-02-03 21:27:44.550861,1770125264,548021442,1,227258,5,1770125264,531247896,2,241870,0,1770125264,534574197,3,198583,0,1770125264,537908519,4,227142,0,1770125264,541243200,5,251054,0,1770125264,544580021,6,219172,0,-0.000585329660680145,5.7029363233596087e-05,44.99924850463867,0.0016256427625194192,10.002082824707031,-0.0006708994042128325,43.09000015258789,53.03150177001953,34.92900085449219,53.03049850463867,60.157501220703125,53.03300094604492,1770125264,487608171,X6-tool2,-0.21291773947619294,-0.3733279478085483,45.31386225416436,-0.1514724686460919,-0.06073408123917773,-0.04491812235324062,0.0427653007209301
2026-02-03 21:27:44.586581,1770125264,567911769,1,227258,0,1770125264,571174761,2,241870,0,1770125264,574578662,3,198583,0,1770125264,577916423,4,227148,0,1770125264,581247344,5,251054,0,1770125264,584576285,6,219172,0,0.00010841115727089345,0.0004742217424791306,44.999595642089844,0.0016256427625194192,10.002082824707031,-0.0006708994042128325,43.09000015258789,53.03150177001953,34.92900085449219,53.03350067138672,60.157501220703125,53.03300094604492,1770125264,487608171,X6-tool2,-0.21291773947619294,-0.3733279478085483,45.31386225416436,-0.1514724686460919,-0.06073408123917773,-0.04491812235324062,0.0427653007209301
2026-02-03 21:27:44.622980,1770125264,607912464,1,227258,0,1770125264,611247835,2,241870,0,1770125264,614576556,3,198583,0,1770125264,617972587,4,227148,0,1770125264,621238288,5,251054,0,1770125264,604566602,6,219172,0,0.00010841115727089345,0.0004742217424791306,44.999595642089844,0.0016256427625194192,10.002082824707031,-0.0006708994042128325,43.09000015258789,53.03150177001953,34.92900085449219,53.03350067138672,60.157501220703125,53.03300094604492,1770125264,586993566,X6-tool2,-0.08370166871647759,-0.3356981100406134,45.451520365518576,-0.1509457965838502,-0.059907987145083594,-0.04462233538221323,0.04399299621582031
2026-02-03 21:27:44.658128,1770125264,647911778,1,227258,-3,1770125264,651239049,2,241870,0,1770125264,654668691,3,198583,0,1770125264,637905665,4,227148,0,1770125264,641244466,5,251054,0,1770125264,644573187,6,219172,0,0.00010841115727089345,0.0004742217424791306,44.999595642089844,0.0016256427625194192,10.002082824707031,-0.0006708994042128325,43.09000015258789,53.03150177001953,34.92900085449219,53.03350067138672,60.157501220703125,53.03300094604492,1770125264,586993566,X6-tool2,-0.08370166871647759,-0.3356981100406134,45.451520365518576,-0.1509457965838502,-0.059907987145083594,-0.04462233538221323,0.04399299621582031
2026-02-03 21:27:44.694081,1770125264,687909702,1,227258,0,1770125264,691241244,2,241870,0,1770125264,674558878,3,198583,0,1770125264,677814999,4,227148,0,1770125264,681237750,5,251054,0,1770125264,684573341,6,219172,0,0.00010841115727089345,0.0004742217424791306,44.999595642089844,0.0016256427625194192,10.002082824707031,-0.0006708994042128325,43.09000015258789,53.03150177001953,34.92900085449219,53.03350067138672,60.157501220703125,53.03300094604492,1770125264,687114362,X6-tool2,-0.1973000400411647,-0.3807160197605067,45.35865097354171,-0.1505892298177748,-0.05970295756725706,-0.04479157722344309,0.045571643859148026
2026-02-03 21:27:44.729875,1770125264,727908587,1,227258,0,1770125264,711240461,2,241870,0,1770125264,714572572,3,198583,0,1770125264,717904723,4,227148,0,1770125264,721236474,5,251054,0,1770125264,724568996,6,219172,0,0.00010841115727089345,0.0004742217424791306,44.999595642089844,0.0016256427625194192,10.002082824707031,-0.0006708994042128325,43.09000015258789,53.03150177001953,34.92900085449219,53.03350067138672,60.157501220703125,53.03300094604492,1770125264,687114362,X6-tool2,-0.1973000400411647,-0.3807160197605067,45.35865097354171,-0.1505892298177748,-0.05970295756725706,-0.04479157722344309,0.045571643859148026
2026-02-03 21:27:44.765500,1770125264,747926754,1,227258,0,1770125264,751239395,2,241870,0,1770125264,754574096,3,198583,0,1770125264,757911707,4,227148,0,1770125264,761205698,5,251054,0,1770125264,764572370,6,219172,0,0.00010841115727089345,0.0004742217424791306,44.999595642089844,0.0016256427625194192,10.002082824707031,-0.0006708994042128325,43.09000015258789,53.03150177001953,34.92900085449219,53.03350067138672,60.157501220703125,53.03300094604492,1770125264,687114362,X6-tool2,-0.1973000400411647,-0.3807160197605067,45.35865097354171,-0.1505892298177748,-0.05970295756725706,-0.04479157722344309,0.045571643859148026
2026-02-03 21:27:44.800705,1770125264,787908718,1,227258,-2,1770125264,791242339,2,241870,0,1770125264,794572850,3,198583,0,1770125264,797906472,4,227148,0,1770125264,781165856,5,251054,0,1770125264,784572807,6,219172,0,0.00010841115727089345,0.0004742217424791306,44.999595642089844,0.0016256427625194192,10.002082824707031,-0.0006708994042128325,43.09000015258789,53.03150177001953,34.92900085449219,53.03350067138672,60.157501220703125,53.03300094604492,1770125264,786202518,X6-tool2,-0.18502969252065365,-0.3687509260862224,45.32865886816525,-0.15046938115359856,-0.060320266549373475,-0.044736528626327834,0.041256267577409744
2026-02-03 21:27:44.837337,1770125264,827907922,1,227258,0,1770125264,831250294,2,241870,0,1770125264,834574795,3,198583,0,1770125264,817908739,4,227148,0,1770125264,821240780,5,251054,0,1770125264,824652221,6,219172,0,0.00010841115727089345,0.0004742217424791306,44.999595642089844,0.0016256427625194192,10.002082824707031,-0.0006708994042128325,43.09000015258789,53.03150177001953,34.92900085449219,53.03350067138672,60.157501220703125,53.03300094604492,1770125264,786202518,X6-tool2,-0.18502969252065365,-0.3687509260862224,45.32865886816525,-0.15046938115359856,-0.060320266549373475,-0.044736528626327834,0.041256267577409744
2026-02-03 21:27:44.872853,1770125264,867910757,1,227258,0,1770125264,871317838,2,241870,0,1770125264,854572322,3,198583,0,1770125264,857895503,4,227148,0,1770125264,861231304,5,251054,0,1770125264,864576835,6,219172,0,0.00010841115727089345,0.0004742217424791306,44.999595642089844,0.0016256427625194192,10.002082824707031,-0.0006708994042128325,43.09000015258789,53.03150177001953,34.92900085449219,53.03350067138672,60.157501220703125,53.03300094604492,1770125264,786202518,X6-tool2,-0.18502969252065365,-0.3687509260862224,45.32865886816525,-0.15046938115359856,-0.060320266549373475,-0.044736528626327834,0.041256267577409744
2026-02-03 21:27:44.908758,1770125264,907919451,1,227258,0,1770125264,891241545,2,241870,0,1770125264,894510826,3,198583,0,1770125264,897932558,4,227148,0,1770125264,901217709,5,251054,0,1770125264,904600420,6,219172,0,0.00010841115727089345,0.0004742217424791306,44.999595642089844,0.0016256427625194192,10.002082824707031,-0.0006708994042128325,43.09000015258789,53.03150177001953,34.92900085449219,53.03350067138672,60.157501220703125,53.03300094604492,1770125264,885593963,X6-tool2,-0.07505800691058737,-0.29593027745440503,45.45604577739582,-0.15104069350426622,-0.059495398333791194,-0.04480850164079422,0.046568553894758224
2026-02-03 21:27:44.944067,1770125264,927911418,1,227258,-5,1770125264,931269249,2,241870,0,1770125264,934575811,3,198583,0,1770125264,937930912,4,227148,0,1770125264,941241373,5,251054,0,1770125264,924597227,6,219172,0,0.00010841115727089345,0.0004742217424791306,44.999595642089844,0.0016256427625194192,10.002082824707031,-0.0006708994042128325,43.09000015258789,53.03150177001953,34.92900085449219,53.03350067138672,60.157501220703125,53.03300094604492,1770125264,885593963,X6-tool2,-0.07505800691058737,-0.29593027745440503,45.45604577739582,-0.15104069350426622,-0.059495398333791194,-0.04480850164079422,0.046568553894758224
2026-02-03 21:27:44.980155,1770125264,967909512,1,227258,0,1770125264,971270214,2,241870,0,1770125264,974571835,3,198583,0,1770125264,977931166,4,227148,0,1770125264,961220180,5,251054,0,1770125264,964597111,6,219172,0,0.00010841115727089345,0.0004742217424791306,44.999595642089844,0.0016256427625194192,10.002082824707031,-0.0006708994042128325,43.09000015258789,53.03150177001953,34.92900085449219,53.03350067138672,60.157501220703125,53.03300094604492,1770125264,885593963,X6-tool2,-0.07505800691058737,-0.29593027745440503,45.45604577739582,-0.15104069350426622,-0.059495398333791194,-0.04480850164079422,0.046568553894758224
2026-02-03 21:27:45.016166,1770125265,7912147,1,226901,-199,1770125265,11268538,2,241870,0,1770125265,14575999,3,198655,32,1770125264,997913403,4,227148,0,1770125265,1242684,5,251054,0,1770125265,4599676,6,219172,0,0.00010841115727089345,0.0004742217424791306,44.999595642089844,0.0016256427625194192,10.002082824707031,-0.0006708994042128325,43.09000015258789,53.03150177001953,34.92900085449219,53.03350067138672,60.157501220703125,53.03300094604492,1770125264,985279469,X6-tool2,-0.19406613389269403,-0.3489805428039213,45.351420679695465,-0.15085452478082645,-0.06033989088713689,-0.04474559838805494,0.04410076141357422
2026-02-03 21:27:45.051233,1770125265,47910491,1,226198,-175,1770125265,31270585,2,241875,0,1770125265,34551746,3,198737,42,1770125265,37917617,4,227148,0,1770125265,41240229,5,252389,353,1770125265,44580370,6,219172,0,0.00012042774324072525,-0.00020026227866765112,44.99988555908203,0.27604392170906067,9.962153434753418,0.04556163772940636,42.733001708984375,53.034000396728516,35.00600051879883,53.03350067138672,60.479000091552734,53.03300094604492,1770125264,985279469,X6-tool2,-0.19406613389269403,-0.3489805428039213,45.351420679695465,-0.15085452478082645,-0.06033989088713689,-0.04474559838805494,0.04410076141357422
2026-02-03 21:27:45.087262,1770125265,67910938,1,225824,-190,1770125265,71242560,2,241880,0,1770125265,74574621,3,199023,77,1770125265,77893432,4,227153,0,1770125265,81218853,5,253773,317,1770125265,84573894,6,219166,0,0.000710530555807054,-0.0005271098925732076,45.000465393066406,0.6495994925498962,9.967995643615723,0.0052380748093128204,42.37300109863281,53.0364990234375,35.14899826049805,53.0359992980957,61.19850158691406,53.03300094604492,1770125265,84802274,X6-tool2,-0.28402435458271874,-0.356043703806732,45.322205401229716,-0.1517689431686984,-0.05585807889162529,-0.04866878977524764,0.04079373553395271
2026-02-03 21:27:45.122812,1770125265,107907522,1,225027,-194,1770125265,111240284,2,241886,5,1770125265,114575615,3,199380,85,1770125265,117906756,4,227153,0,1770125265,121239107,5,255086,324,1770125265,104573421,6,219166,0,0.001418682630173862,-0.0009193394798785448,45.000118255615234,0.8433552980422974,9.952186584472656,-0.009959493763744831,42.18349838256836,53.0364990234375,35.23149871826172,53.0359992980957,61.516998291015625,53.029998779296875,1770125265,84802274,X6-tool2,-0.28402435458271874,-0.356043703806732,45.322205401229716,-0.1517689431686984,-0.05585807889162529,-0.04866878977524764,0.04079373553395271
2026-02-03 21:27:45.158744,1770125265,147907097,1,224236,-168,1770125265,151242408,2,241886,8,1770125265,154572439,3,199720,98,1770125265,157908560,4,227153,0,1770125265,141242445,5,255685,306,1770125265,144572856,6,219166,0,0.001433106604963541,-0.001728717819787562,45.000465393066406,1.2608166933059692,9.903264045715332,-0.02171972207725048,41.76300048828125,53.03950119018555,35.40700149536133,53.0359992980957,62.173500061035156,53.029998779296875,1770125265,84802274,X6-tool2,-0.28402435458271874,-0.356043703806732,45.322205401229716,-0.1517689431686984,-0.05585807889162529,-0.04866878977524764,0.04079373553395271
2026-02-03 21:27:45.193964,1770125265,187913441,1,223506,-178,1770125265,191241962,2,241880,0,1770125265,174599717,3,199891,83,1770125265,177911908,4,227153,0,1770125265,181244219,5,256926,290,1770125265,184577790,6,219166,0,0.001433106604963541,-0.001728717819787562,45.000465393066406,1.6462996006011963,9.847264289855957,-0.03710004687309265,41.38949966430664,53.03950119018555,35.58300018310547,53.0359992980957,62.775001525878906,53.029998779296875,1770125265,184110140,X6-tool2,-0.14271995734362228,-0.26036978109380615,45.45130443400005,-0.15512043668060488,-0.04466459976736195,-0.05730445115656014,0.04323736950755119
2026-02-03 21:27:45.229855,1770125265,227906325,1,222825,-178,1770125265,211244779,2,241880,0,1770125265,214570901,3,200270,107,1770125265,217900372,4,227159,-5,1770125265,221216043,5,258030,291,1770125265,224579884,6,219161,0,0.0021123429760336876,-0.0005022086552344263,45.000465393066406,2.022063970565796,9.786099433898926,-0.06403273344039917,41.04650115966797,53.0364990234375,35.772499084472656,53.03900146484375,63.37099838256836,53.029998779296875,1770125265,184110140,X6-tool2,-0.14271995734362228,-0.26036978109380615,45.45130443400005,-0.15512043668060488,-0.04466459976736195,-0.05730445115656014,0.04323736950755119
2026-02-03 21:27:45.265676,1770125265,247930533,1,222451,-191,1770125265,251256044,2,241886,0,1770125265,254596665,3,200841,137,1770125265,257891226,4,227159,0,1770125265,261239197,5,259080,251,1770125265,264584099,6,219161,0,0.0027168893720954657,-0.001638494897633791,45.00052261352539,2.225741386413574,9.734691619873047,-0.08535537123680115,40.87350082397461,53.03950119018555,35.893001556396484,53.03900146484375,63.64550018310547,53.02750015258789,1770125265,184110140,X6-tool2,-0.14271995734362228,-0.26036978109380615,45.45130443400005,-0.15512043668060488,-0.04466459976736195,-0.05730445115656014,0.04323736950755119
2026-02-03 21:27:45.301437,1770125265,287929217,1,221754,-175,1770125265,291252718,2,241891,0,1770125265,294598139,3,201275,74,1770125265,297914170,4,227159,0,1770125265,281232404,5,259574,257,1770125265,284586366,6,219161,0,0.0027168893720954657,-0.001638494897633791,45.00052261352539,2.6581454277038574,9.608478546142578,-0.12630335986614227,40.50550079345703,53.03950119018555,36.162498474121094,53.03900146484375,64.17050170898438,53.02750015258789,1770125265,283727185,X6-tool2,-0.14081125168943068,-0.19372782100111052,45.35478551159844,-0.15398576326266888,-0.03311004492279999,-0.06348603037868149,0.04584820941090584
2026-02-03 21:27:45.337438,1770125265,327929601,1,221116,-166,1770125265,331259122,2,241891,0,1770125265,334597384,3,201742,106,1770125265,317921928,4,227159,0,1770125265,321263289,5,260502,206,1770125265,324587710,6,219161,0,0.0027168893720954657,-0.001638494897633791,45.00052261352539,3.0369043350219727,9.504595756530762,-0.14590327441692352,40.175498962402344,53.03950119018555,36.38750076293945,53.03900146484375,64.6729965209961,53.02750015258789,1770125265,283727185,X6-tool2,-0.14081125168943068,-0.19372782100111052,45.35478551159844,-0.15398576326266888,-0.03311004492279999,-0.06348603037868149,0.04584820941090584
2026-02-03 21:27:45.372940,1770125265,367931026,1,220446,-178,1770125265,371257327,2,241886,0,1770125265,354594851,3,201995,126,1770125265,357904792,4,227153,0,1770125265,361261683,5,261326,216,1770125265,364590404,6,219155,0,0.002743505872786045,-0.0031223685946315527,45.000118255615234,3.42020583152771,9.372511863708496,-0.1617872565984726,39.84600067138672,53.04199981689453,36.6349983215332,53.0359992980957,65.08499908447266,53.02450180053711,1770125265,283727185,X6-tool2,-0.14081125168943068,-0.19372782100111052,45.35478551159844,-0.15398576326266888,-0.03311004492279999,-0.06348603037868149,0.04584820941090584
2026-02-03 21:27:45.408079,1770125265,387931173,1,220150,-140,1770125265,391233914,2,241886,7,1770125265,394595245,3,202549,118,1770125265,397915616,4,227153,0,1770125265,401261147,5,261936,139,1770125265,404584599,6,219155,0,0.002731465036049485,-0.00244787335395813,44.99982833862305,3.8033928871154785,9.224893569946289,-0.1919255256652832,39.5359992980957,53.03950119018555,36.9119987487793,53.0359992980957,65.44200134277344,53.02450180053711,1770125265,382901641,X6-tool2,-0.14598776957328904,-0.2756225031366785,45.35784665418216,-0.15179073707366178,-0.019154046391611546,-0.06740517948026868,0.04564476013183594
2026-02-03 21:27:45.445516,1770125265,427928277,1,219518,-161,1770125265,431245018,2,241886,0,1770125265,434596879,3,203126,152,1770125265,437916360,4,227148,0,1770125265,441260882,5,262513,146,1770125265,444584613,6,219150,0,0.002731465036049485,-0.00244787335395813,44.99982833862305,3.995988368988037,9.145665168762207,-0.20027531683444977,39.37649917602539,53.03950119018555,37.0525016784668,53.0359992980957,65.59850311279297,53.02450180053711,1770125265,382901641,X6-tool2,-0.14598776957328904,-0.2756225031366785,45.35784665418216,-0.15179073707366178,-0.019154046391611546,-0.06740517948026868,0.04564476013183594
2026-02-03 21:27:45.481141,1770125265,467932831,1,218947,-148,1770125265,471273132,2,241886,0,1770125265,474593904,3,203736,182,1770125265,477899795,4,227148,0,1770125265,461240809,5,262634,64,1770125265,464567220,6,219150,-7,0.002743649762123823,-0.003122371155768633,44.99924850463867,4.375739574432373,8.982635498046875,-0.22403307259082794,39.074501037597656,53.03950119018555,37.34349822998047,53.03350067138672,65.88700103759766,53.02199935913086,1770125265,382901641,X6-tool2,-0.14598776957328904,-0.2756225031366785,45.35784665418216,-0.15179073707366178,-0.019154046391611546,-0.06740517948026868,0.04564476013183594
2026-02-03 21:27:45.518665,1770125265,507932586,1,218414,-126,1770125265,511272167,2,241886,0,1770125265,514596328,3,204357,140,1770125265,517916369,4,227148,0,1770125265,501263023,5,262870,53,1770125265,504585115,6,219155,0,0.002743649762123823,-0.003122371155768633,44.99924850463867,4.74616813659668,8.79304027557373,-0.2504976987838745,38.78850173950195,53.03950119018555,37.6619987487793,53.03350067138672,66.01850128173828,53.02199935913086,1770125265,482411056,X6-tool2,-0.18313053510468863,-0.2346452578341419,45.26282182318309,-0.14556903366343787,-0.0071801395709740826,-0.06873874467213863,0.047634441405534744
2026-02-03 21:27:45.554455,1770125265,547931710,1,217930,-133,1770125265,551271891,2,241886,0,1770125265,534595875,3,204664,136,1770125265,537918986,4,227148,0,1770125265,541263917,5,262848,-1,1770125265,544581979,6,219150,0,0.0021534461993724108,-0.0027954704128205776,44.99953842163086,5.074221134185791,8.608936309814453,-0.2815839648246765,38.547000885009766,53.03950119018555,37.96950149536133,53.03350067138672,66.05999755859375,53.02450180053711,1770125265,482411056,X6-tool2,-0.18313053510468863,-0.2346452578341419,45.26282182318309,-0.14556903366343787,-0.0071801395709740826,-0.06873874467213863,0.047634441405534744
2026-02-03 21:27:45.590135,1770125265,587942904,1,217365,-145,1770125265,571256348,2,241886,0,1770125265,574570829,3,205329,182,1770125265,577914511,4,227148,0,1770125265,581233842,5,262678,-84,1770125265,584579563,6,219150,0,0.002743649762123823,-0.003122371155768633,44.99924850463867,5.419951438903809,8.405878067016602,-0.3064686059951782,38.28900146484375,53.03950119018555,38.301998138427734,53.03350067138672,66.04049682617188,53.02199935913086,1770125265,582308542,X6-tool2,0.06475051318251002,-0.2601851641222968,45.40198443244642,-0.14014177762833785,0.003028348654142674,-0.06636091166788598,0.05019156262278557
2026-02-03 21:27:45.626031,1770125265,607934991,1,217090,-131,1770125265,611241142,2,241886,0,1770125265,614598174,3,206082,199,1770125265,617911635,4,227148,0,1770125265,621262976,5,262260,-74,1770125265,624578147,6,219155,0,0.002743649762123823,-0.003122371155768633,44.99924850463867,5.7889533042907715,8.16457748413086,-0.320646733045578,38.00600051879883,53.03950119018555,38.67850112915039,53.03350067138672,65.87850189208984,53.02199935913086,1770125265,582308542,X6-tool2,0.06475051318251002,-0.2601851641222968,45.40198443244642,-0.14014177762833785,0.003028348654142674,-0.06636091166788598,0.05019156262278557
2026-02-03 21:27:45.661156,1770125265,647903326,1,216606,-105,1770125265,651268187,2,241886,0,1770125265,654594978,3,206834,162,1770125265,657893839,4,227142,0,1770125265,641260593,5,261953,-158,1770125265,644579645,6,219150,0,0.0021534461993724108,-0.0027954704128205776,44.99953842163086,5.958113193511963,8.045665740966797,-0.3232986629009247,37.874000549316406,53.03950119018555,38.859500885009766,53.03350067138672,65.760498046875,53.02450180053711,1770125265,582308542,X6-tool2,0.06475051318251002,-0.2601851641222968,45.40198443244642,-0.14014177762833785,0.003028348654142674,-0.06636091166788598,0.05019156262278557
2026-02-03 21:27:45.696984,1770125265,687942820,1,216134,-122,1770125265,691270381,2,241875,0,1770125265,694598942,3,207576,194,1770125265,677911326,4,227142,0,1770125265,681233808,5,261359,-164,1770125265,684571969,6,219155,0,0.0020355479791760445,-0.002730105072259903,44.99855041503906,6.280875205993652,7.801222801208496,-0.3567364811897278,37.64899826049805,53.0364990234375,39.24399948120117,53.03049850463867,65.46649932861328,53.02199935913086,1770125265,681464298,X6-tool2,0.09138225695820275,-0.2816103725626639,45.3143646585697,-0.13290299851167325,0.014122577138167256,-0.06272053646366389,0.0397745780646801
2026-02-03 21:27:45.732858,1770125265,727935104,1,215733,-106,1770125265,731270885,2,241875,0,1770125265,714596890,3,207949,198,1770125265,717912071,4,227142,0,1770125265,721237732,5,260486,-206,1770125265,724577403,6,219155,0,0.0014453354524448514,-0.0024032231885939837,44.99884033203125,6.576709747314453,7.557377338409424,-0.36859190464019775,37.42900085449219,53.0364990234375,39.61199951171875,53.03049850463867,65.09850311279297,53.02450180053711,1770125265,681464298,X6-tool2,0.09138225695820275,-0.2816103725626639,45.3143646585697,-0.13290299851167325,0.014122577138167256,-0.06272053646366389,0.0397745780646801
2026-02-03 21:27:45.768038,1770125265,747932862,1,215530,-105,1770125265,751270983,2,241870,-5,1770125265,754598154,3,208834,224,1770125265,757899265,4,227142,5,1770125265,761262696,5,259552,-244,1770125265,764576627,6,219150,0,0.0014212187379598618,-0.0010542114032432437,44.998260498046875,6.889853477478027,7.277595520019531,-0.41488131880760193,37.22600173950195,53.03150177001953,40.054500579833984,53.03049850463867,64.6510009765625,53.02450180053711,1770125265,681464298,X6-tool2,0.09138225695820275,-0.2816103725626639,45.3143646585697,-0.13290299851167325,0.014122577138167256,-0.06272053646366389,0.0397745780646801
2026-02-03 21:27:45.804006,1770125265,787932596,1,215145,-96,1770125265,791272617,2,241870,-5,1770125265,794567778,3,209647,227,1770125265,797916369,4,227142,-5,1770125265,801260090,5,258541,-262,1770125265,784602364,6,219150,0,0.0020234801340848207,-0.002055593067780137,44.998260498046875,7.028604984283447,7.142478942871094,-0.4254014194011688,37.130001068115234,53.034000396728516,40.25749969482422,53.03049850463867,64.40650177001953,53.02199935913086,1770125265,781060523,X6-tool2,0.26916719113605997,-0.3882771468654276,45.37002994460725,-0.12345297686337929,0.0262472392365764,-0.06104981356390681,0.048755645751953125
2026-02-03 21:27:45.840477,1770125265,827934060,1,214711,-92,1770125265,831264891,2,241864,0,1770125265,834597533,3,210504,212,1770125265,837897654,4,227137,0,1770125265,821262208,5,257970,-288,1770125265,824578249,6,219155,0,0.0014212187379598618,-0.0010542114032432437,44.998260498046875,7.308857440948486,6.866715908050537,-0.43680208921432495,36.92399978637695,53.03150177001953,40.67250061035156,53.03049850463867,63.9010009765625,53.02450180053711,1770125265,781060523,X6-tool2,0.26916719113605997,-0.3882771468654276,45.37002994460725,-0.12345297686337929,0.0262472392365764,-0.06104981356390681,0.048755645751953125
2026-02-03 21:27:45.876200,1770125265,867908314,1,214327,-85,1770125265,871268695,2,241859,-7,1770125265,874595817,3,211437,253,1770125265,857921861,4,227137,0,1770125265,861241222,5,256800,-286,1770125265,864585613,6,219155,0,0.0008286646916531026,-0.0005924568395130336,44.997623443603516,7.5865068435668945,6.569335460662842,-0.44523611664772034,36.71799850463867,53.028499603271484,41.114498138427734,53.02799987792969,63.319000244140625,53.02450180053711,1770125265,781060523,X6-tool2,0.26916719113605997,-0.3882771468654276,45.37002994460725,-0.12345297686337929,0.0262472392365764,-0.06104981356390681,0.048755645751953125
2026-02-03 21:27:45.911282,1770125265,907934549,1,213997,-87,1770125265,891252953,2,241859,0,1770125265,894596774,3,211915,236,1770125265,897914215,4,227137,0,1770125265,901261896,5,255575,-303,1770125265,904554998,6,219155,0,0.0008165978942997754,8.207819337258115e-05,44.99733352661133,7.856515407562256,6.2589826583862305,-0.4762430489063263,36.53900146484375,53.0260009765625,41.595001220703125,53.02799987792969,62.73099899291992,53.02450180053711,1770125265,880811489,X6-tool2,0.34126593512490133,-0.39152218102767766,45.47077903602122,-0.11000975182968,0.0427646573218972,-0.061825687395142576,0.04246266558766365
2026-02-03 21:27:45.947096,1770125265,927933636,1,213838,-74,1770125265,931243847,2,241853,-3,1770125265,934598558,3,212833,220,1770125265,937908499,4,227137,0,1770125265,941263911,5,254279,-312,1770125265,944573982,6,219161,6,0.0008021173998713493,0.0008915421203710139,44.996986389160156,7.970958232879639,6.1089959144592285,-0.48733624815940857,36.45949935913086,53.02299880981445,41.820499420166016,53.02799987792969,62.417999267578125,53.02450180053711,1770125265,880811489,X6-tool2,0.34126593512490133,-0.39152218102767766,45.47077903602122,-0.11000975182968,0.0427646573218972,-0.061825687395142576,0.04246266558766365
2026-02-03 21:27:45.983525,1770125265,967933430,1,213547,-74,1770125265,971269231,2,241848,0,1770125265,974596503,3,213827,261,1770125265,977909484,4,227137,0,1770125265,981265015,5,252966,-321,1770125265,964575949,6,219161,0,8.186753984773532e-05,0.0019582496024668217,44.99704360961914,8.19922161102295,5.791501522064209,-0.5134563446044922,36.305999755859375,53.02050018310547,42.30099868774414,53.02799987792969,61.77000045776367,53.02750015258789,1770125265,981008805,X6-tool2,0.41522770623759603,-0.4755509972345244,45.452709215642564,-0.09399627620070371,0.056702485815107256,-0.06564816045251491,0.03872489929199219
2026-02-03 21:27:46.022483,1770125266,7932424,1,213228,-65,1770125266,11267666,2,241842,0,1770125266,14597387,3,214887,264,1770125266,17911038,4,227131,0,1770125266,21261359,5,251581,-356,1770125266,4576243,6,219166,0,-0.0005227243527770042,0.0030944906175136566,44.996986389160156,8.425841331481934,5.460606575012207,-0.5409268736839294,36.15449905395508,53.01750183105469,42.808998107910156,53.02799987792969,61.11349868774414,53.029998779296875,1770125265,981008805,X6-tool2,0.41522770623759603,-0.4755509972345244,45.452709215642564,-0.09399627620070371,0.056702485815107256,-0.06564816045251491,0.03872489929199219
2026-02-03 21:27:46.060120,1770125266,47933619,1,212943,-73,1770125266,51225010,2,241837,-2,1770125266,54599281,3,215953,264,1770125266,57886602,4,227131,5,1770125266,41234626,5,250878,-372,1770125266,44580308,6,219172,0,-0.0019367282511666417,0.0037438059225678444,44.99669647216797,8.645451545715332,5.112683296203613,-0.560659646987915,36.000999450683594,53.01499938964844,43.3390007019043,53.025001525878906,60.42100143432617,53.03300094604492,1770125265,981008805,X6-tool2,0.41522770623759603,-0.4755509972345244,45.452709215642564,-0.09399627620070371,0.056702485815107256,-0.06564816045251491,0.03872489929199219
2026-02-03 21:27:46.095634,1770125266,87908833,1,212657,-62,1770125266,91247614,2,241837,0,1770125266,94597166,3,217062,282,1770125266,77909440,4,227131,-2,1770125266,81234961,5,249461,-328,1770125266,84601942,6,219177,0,-0.0019367282511666417,0.0037438059225678444,44.99669647216797,8.853825569152832,4.750266075134277,-0.5796902775764465,35.855499267578125,53.01499938964844,43.89400100708008,53.025001525878906,59.704498291015625,53.03300094604492,1770125266,80984790,X6-tool2,0.4070014647718685,-0.5126614184906337,45.45103923781199,-0.07616941633511405,0.0695726167388296,-0.07149439684374173,0.041940052062273026
2026-02-03 21:27:46.131350,1770125266,127934847,1,212410,-66,1770125266,111240971,2,241837,0,1770125266,114597353,3,217612,258,1770125266,117908674,4,227131,0,1770125266,121235055,5,248071,-356,1770125266,124553836,6,219183,5,-0.0025268318131566048,0.0040705264545977116,44.996986389160156,9.036544799804688,4.396319389343262,-0.6035444140434265,35.731998443603516,53.01499938964844,44.44350051879883,53.025001525878906,59.02050018310547,53.035499572753906,1770125266,80984790,X6-tool2,0.4070014647718685,-0.5126614184906337,45.45103923781199,-0.07616941633511405,0.0695726167388296,-0.07149439684374173,0.041940052062273026
2026-02-03 21:27:46.167753,1770125266,147932685,1,212278,-63,1770125266,151243126,2,241842,0,1770125266,154595527,3,218732,307,1770125266,157895478,4,227131,0,1770125266,161261579,5,246682,-321,1770125266,164574420,6,219188,0,-0.003222913946956396,0.003788071684539318,44.997623443603516,9.213104248046875,4.033848762512207,-0.6112351417541504,35.599998474121094,53.01750183105469,45.003501892089844,53.025001525878906,58.323001861572266,53.03850173950195,1770125266,80984790,X6-tool2,0.4070014647718685,-0.5126614184906337,45.45103923781199,-0.07616941633511405,0.0695726167388296,-0.07149439684374173,0.041940052062273026
2026-02-03 21:27:46.204013,1770125266,187932769,1,212069,-51,1770125266,191246150,2,241848,0,1770125266,194596741,3,219869,258,1770125266,197912062,4,227126,0,1770125266,201264433,5,245286,-338,1770125266,184601648,6,219188,8,-0.004391257185488939,0.0037670095916837454,44.997623443603516,9.292978286743164,3.847238302230835,-0.6228475570678711,35.54499816894531,53.01750183105469,45.29499816894531,53.022499084472656,57.971500396728516,53.04100036621094,1770125266,181028616,X6-tool2,0.5535472732012767,-0.39220484112886406,45.495001889212396,-0.05639964664970964,0.0809261809918561,-0.07801773760137334,0.04318555071949959
2026-02-03 21:27:46.242001,1770125266,227930743,1,211816,-64,1770125266,231240794,2,241848,0,1770125266,234596405,3,221045,295,1770125266,237906527,4,227126,0,1770125266,241262438,5,243891,-351,1770125266,224577342,6,219194,0,-0.005084945820271969,0.003349726088345051,44.99831771850586,9.435683250427246,3.478686809539795,-0.6371485590934753,35.44049835205078,53.02050018310547,45.86899948120117,53.022499084472656,57.27349853515625,53.04399871826172,1770125266,181028616,X6-tool2,0.5535472732012767,-0.39220484112886406,45.495001889212396,-0.05639964664970964,0.0809261809918561,-0.07801773760137334,0.04318555071949959
2026-02-03 21:27:46.279641,1770125266,267935068,1,211652,-38,1770125266,271238009,2,241853,0,1770125266,274596470,3,222281,307,1770125266,277906301,4,227126,-10,1770125266,261237095,5,243215,-340,1770125266,264557486,6,219199,5,-0.005084741394966841,0.0033497782424092293,44.99918746948242,9.577583312988281,3.102454423904419,-0.6420098543167114,35.327999114990234,53.02299880981445,46.46500015258789,53.025001525878906,56.57600021362305,53.04650115966797,1770125266,181028616,X6-tool2,0.5535472732012767,-0.39220484112886406,45.495001889212396,-0.05639964664970964,0.0809261809918561,-0.07801773760137334,0.04318555071949959
2026-02-03 21:27:46.316194,1770125266,307933772,1,211514,-34,1770125266,311242503,2,241859,5,1770125266,314595784,3,223467,306,1770125266,297897928,4,227126,0,1770125266,301235839,5,241826,-350,1770125266,304577870,6,219205,0,-0.0063711111433804035,0.003394095925614238,44.999244689941406,9.689035415649414,2.722365379333496,-0.6656001806259155,35.24850082397461,53.02299880981445,47.071998596191406,53.022499084472656,55.88949966430664,53.04949951171875,1770125266,280984052,X6-tool2,0.4097098646815647,-0.4417604079613143,45.48179188244328,-0.036740393630926724,0.09197293843748866,-0.0832810219396878,0.043155670166015625
2026-02-03 21:27:46.352285,1770125266,347930766,1,211371,-31,1770125266,351243497,2,241864,4,1770125266,334593731,3,224105,321,1770125266,337886813,4,227126,0,1770125266,341237104,5,240480,-345,1770125266,344573215,6,219210,0,-0.00635672640055418,0.002584845060482621,44.999595642089844,9.781567573547363,2.3367960453033447,-0.6897813677787781,35.182498931884766,53.0260009765625,47.689998626708984,53.022499084472656,55.20249938964844,53.04949951171875,1770125266,280984052,X6-tool2,0.4097098646815647,-0.4417604079613143,45.48179188244328,-0.036740393630926724,0.09197293843748866,-0.0832810219396878,0.043155670166015625
2026-02-03 21:27:46.387613,1770125266,367934173,1,211306,-26,1770125266,371247624,2,241870,1,1770125266,374594495,3,225379,282,1770125266,377906517,4,227126,0,1770125266,381234688,5,239101,-332,1770125266,384600739,6,219199,-5,-0.006920444779098034,0.0014280417235568166,45.00052261352539,9.869645118713379,1.9460748434066772,-0.7063705325126648,35.11399841308594,53.03150177001953,48.32699966430664,53.022499084472656,54.527000427246094,53.051998138427734,1770125266,380760748,X6-tool2,0.4593517285329324,-0.32692415040715606,45.529665697552986,-0.019509350162163833,0.10011668113464993,-0.08864260797484434,0.03351052477955818
2026-02-03 21:27:46.423970,1770125266,407932587,1,211207,-29,1770125266,411245669,2,241875,0,1770125266,414595330,3,226670,323,1770125266,417909031,4,227126,0,1770125266,421262162,5,237783,-341,1770125266,404576566,6,219199,0,-0.005622230004519224,0.0007091567968018353,44.99988555908203,9.89834976196289,1.7494421005249023,-0.7201439738273621,35.09199905395508,53.03150177001953,48.643001556396484,53.022499084472656,54.180999755859375,53.04650115966797,1770125266,380760748,X6-tool2,0.4593517285329324,-0.32692415040715606,45.529665697552986,-0.019509350162163833,0.10011668113464993,-0.08864260797484434,0.03351052477955818
2026-02-03 21:27:46.461288,1770125266,447929722,1,211119,-13,1770125266,451240573,2,241880,10,1770125266,454595274,3,228016,311,1770125266,457907795,4,227126,0,1770125266,441262859,5,237123,-313,1770125266,444573851,6,219199,0,-0.00561023224145174,3.481858584564179e-05,45.00017547607422,9.966971397399902,1.3531016111373901,-0.7414589524269104,35.0369987487793,53.034000396728516,49.30500030517578,53.022499084472656,53.52199935913086,53.04650115966797,1770125266,380760748,X6-tool2,0.4593517285329324,-0.32692415040715606,45.529665697552986,-0.019509350162163833,0.10011668113464993,-0.08864260797484434,0.03351052477955818
2026-02-03 21:27:46.498577,1770125266,487916256,1,211036,-24,1770125266,491259247,2,241886,10,1770125266,494580718,3,229417,361,1770125266,497895330,4,227126,0,1770125266,481247014,5,235778,-329,1770125266,484586615,6,219199,0,-0.005583837628364563,-0.0014486670261248946,45.00081253051758,10.010144233703613,0.9436155557632446,-0.765939474105835,35.000999450683594,53.03950119018555,49.98849868774414,53.022499084472656,52.8489990234375,53.04650115966797,1770125266,480799004,X6-tool2,0.5035594779256228,-0.3653299916620549,45.469532536978164,0.0015412044422458595,0.10416668185646093,-0.09350091884448318,0.041884422302246094
2026-02-03 21:27:46.534483,1770125266,527911340,1,210959,-5,1770125266,531249291,2,241891,0,1770125266,514578386,3,230098,335,1770125266,517914497,4,227126,0,1770125266,521223118,5,234454,-346,1770125266,524584219,6,219199,-5,-0.005571840796619654,-0.00212295213714242,45.001102447509766,10.049522399902344,0.5307881236076355,-0.7730701565742493,34.951499938964844,53.04199981689453,50.686500549316406,53.022499084472656,52.17300033569336,53.04650115966797,1770125266,480799004,X6-tool2,0.5035594779256228,-0.3653299916620549,45.469532536978164,0.0015412044422458595,0.10416668185646093,-0.09350091884448318,0.041884422302246094
2026-02-03 21:27:46.571255,1770125266,567914965,1,210932,-13,1770125266,551242739,2,241891,0,1770125266,554586670,3,231449,333,1770125266,557893561,4,227126,0,1770125266,561248092,5,233201,-296,1770125266,564575374,6,219194,0,-0.005571840796619654,-0.00212295213714242,45.001102447509766,10.05861759185791,0.13573385775089264,-0.7949147820472717,34.932498931884766,53.04199981689453,51.36199951171875,53.022499084472656,51.544498443603516,53.04650115966797,1770125266,480799004,X6-tool2,0.5035594779256228,-0.3653299916620549,45.469532536978164,0.0015412044422458595,0.10416668185646093,-0.09350091884448318,0.041884422302246094
2026-02-03 21:27:46.607417,1770125266,587912732,1,210927,0,1770125266,591240403,2,241891,0,1770125266,594574344,3,232850,353,1770125266,597913555,4,227126,0,1770125266,601240527,5,231965,-311,1770125266,604573828,6,219188,0,-0.004981679376214743,-0.002449791179969907,45.00081253051758,10.056041717529297,-0.26593777537345886,-0.8223194479942322,34.92449951171875,53.04199981689453,52.0625,53.022499084472656,50.92649841308594,53.04399871826172,1770125266,580747749,X6-tool2,0.4953998030421734,-0.3640369654200223,45.495904620885696,0.02008941304956792,0.10919148025034234,-0.09794320151413331,0.03786468505859375
2026-02-03 21:27:46.642812,1770125266,627948726,1,210916,-5,1770125266,631244577,2,241891,0,1770125266,634630599,3,234218,351,1770125266,637919890,4,227126,0,1770125266,641260801,5,230773,-300,1770125266,624573185,6,219183,-5,-0.004273466765880585,-0.002842008601874113,45.000465393066406,10.043155670166016,-0.46174564957618713,-0.8273916840553284,34.92150115966797,53.04199981689453,52.394500732421875,53.022499084472656,50.612998962402344,53.04100036621094,1770125266,580747749,X6-tool2,0.4953998030421734,-0.3640369654200223,45.495904620885696,0.02008941304956792,0.10919148025034234,-0.09794320151413331,0.03786468505859375
2026-02-03 21:27:46.679999,1770125266,667916251,1,210921,-1,1770125266,671245652,2,241897,0,1770125266,674626963,3,235640,344,1770125266,677890624,4,227126,0,1770125266,661313718,5,230180,-306,1770125266,664594269,6,219177,0,-0.0036688405089080334,-0.003978040535002947,45.00052261352539,10.023120880126953,-0.8603617548942566,-0.8482969999313354,34.92150115966797,53.04499816894531,53.10350036621094,53.022499084472656,50.016998291015625,53.03850173950195,1770125266,580747749,X6-tool2,0.4953998030421734,-0.3640369654200223,45.495904620885696,0.02008941304956792,0.10919148025034234,-0.09794320151413331,0.03786468505859375
2026-02-03 21:27:46.716181,1770125266,707954465,1,210927,8,1770125266,711241396,2,241891,0,1770125266,714595637,3,237101,397,1770125266,697891151,4,227126,0,1770125266,701243952,5,228977,-314,1770125266,704575444,6,219172,-3,-0.00238479720428586,-0.0038879781495779753,44.99953842163086,9.988038063049316,-1.2536174058914185,-0.8606255650520325,34.92150115966797,53.04199981689453,53.80649948120117,53.022499084472656,49.42399978637695,53.03300094604492,1770125266,680792785,X6-tool2,0.448301145049758,-0.40234941560732784,45.39299540506827,0.04060756373627051,0.11091587580324086,-0.10273331365379128,0.037181854248046875
2026-02-03 21:27:46.753207,1770125266,747962269,1,210948,5,1770125266,751256900,2,241891,-6,1770125266,734627304,3,237854,360,1770125266,737911296,4,227131,0,1770125266,741291937,5,227802,-313,1770125266,744591918,6,219161,0,-0.0010983962565660477,-0.0039326162077486515,44.99947738647461,9.943375587463379,-1.6642471551895142,-0.8752569556236267,34.93000030517578,53.04199981689453,54.56449890136719,53.025001525878906,48.827999114990234,53.029998779296875,1770125266,680792785,X6-tool2,0.448301145049758,-0.40234941560732784,45.39299540506827,0.04060756373627051,0.11091587580324086,-0.10273331365379128,0.037181854248046875
2026-02-03 21:27:46.789935,1770125266,787961863,1,210987,11,1770125266,771255268,2,241891,0,1770125266,774625509,3,239321,371,1770125266,777949580,4,227131,0,1770125266,781292641,5,226681,-264,1770125266,784593732,6,219155,0,-0.0005081564304418862,-0.00425950950011611,44.99918746948242,9.883357048034668,-2.060730457305908,-0.8774769306182861,34.94049835205078,53.04199981689453,55.29800033569336,53.025001525878906,48.24850082397461,53.02750015258789,1770125266,780802421,X6-tool2,0.4704055775728375,-0.3075763730410578,45.40941052203688,0.061711653298963755,0.11180800987693894,-0.10708187949606346,0.030910810455679893
2026-02-03 21:27:46.827012,1770125266,807961990,1,211036,26,1770125266,811258512,2,241886,0,1770125266,814624323,3,240760,318,1770125266,817931524,4,227137,0,1770125266,821291545,5,225582,-263,1770125266,824590287,6,219150,0,0.00020015046175103635,-0.0046517918817698956,44.99884033203125,9.847095489501953,-2.2566142082214355,-0.8843307495117188,34.954498291015625,53.04199981689453,55.66600036621094,53.025001525878906,47.97100067138672,53.02450180053711,1770125266,780802421,X6-tool2,0.4704055775728375,-0.3075763730410578,45.40941052203688,0.061711653298963755,0.11180800987693894,-0.10708187949606346,0.030910810455679893
2026-02-03 21:27:46.863887,1770125266,847962235,1,211152,27,1770125266,851258506,2,241886,0,1770125266,854624967,3,242276,374,1770125266,857925788,4,227137,0,1770125266,861261050,5,224462,-282,1770125266,844592774,6,219144,0,0.0014719963073730469,-0.0038871122524142265,44.99861145019531,9.74443531036377,-2.6461009979248047,-0.904888927936554,35.006500244140625,53.03950119018555,56.39350128173828,53.02799987792969,47.42150115966797,53.02199935913086,1770125266,780802421,X6-tool2,0.4704055775728375,-0.3075763730410578,45.40941052203688,0.061711653298963755,0.11180800987693894,-0.10708187949606346,0.030910810455679893
2026-02-03 21:27:46.900386,1770125266,887956759,1,211289,37,1770125266,891259010,2,241880,0,1770125266,894626192,3,243748,324,1770125266,897907433,4,227137,0,1770125266,881291537,5,223912,-274,1770125266,884591038,6,219144,0,0.002165800891816616,-0.0034700059331953526,44.9979133605957,9.62122917175293,-3.0505120754241943,-0.9267004132270813,35.0724983215332,53.0364990234375,57.157501220703125,53.02799987792969,46.86149978637695,53.01900100708008,1770125266,880822497,X6-tool2,0.508171291538174,-0.28570525006510067,45.41136357116703,0.08188413776378843,0.11002376514155575,-0.11173995860618374,0.03305784985423088
2026-02-03 21:27:46.937118,1770125266,927970273,1,211426,32,1770125266,931257655,2,241875,0,1770125266,934626346,3,245204,360,1770125266,917924900,4,227137,0,1770125266,921292601,5,222929,-255,1770125266,924596712,6,219144,0,0.0021537139546126127,-0.002795492298901081,44.997623443603516,9.486934661865234,-3.427206039428711,-0.9411426186561584,35.14400100708008,53.034000396728516,57.874000549316406,53.02799987792969,46.34199905395508,53.01900100708008,1770125266,880822497,X6-tool2,0.508171291538174,-0.28570525006510067,45.41136357116703,0.08188413776378843,0.11002376514155575,-0.11173995860618374,0.03305784985423088
2026-02-03 21:27:46.972759,1770125266,967961668,1,211602,45,1770125266,971255339,2,241870,0,1770125266,954624673,3,245912,317,1770125266,957925304,4,227137,0,1770125266,961293565,5,221957,-238,1770125266,964589177,6,219150,0,0.001445430563762784,-0.0024032420478761196,44.99797058105469,9.353846549987793,-3.7924091815948486,-0.9479922652244568,35.212501525878906,53.034000396728516,58.59349822998047,53.02799987792969,45.847999572753906,53.02199935913086,1770125266,880822497,X6-tool2,0.508171291538174,-0.28570525006510067,45.41136357116703,0.08188413776378843,0.11002376514155575,-0.11173995860618374,0.03305784985423088
2026-02-03 21:27:47.009894,1770125267,7909152,1,211855,62,1770125266,991238006,2,241870,0,1770125266,994577887,3,247346,375,1770125266,997906778,4,227137,0,1770125267,1243400,5,220995,-237,1770125267,4573561,6,219150,0,0.001433354802429676,-0.001728729112073779,44.997684478759766,9.184545516967773,-4.160207748413086,-0.9745538830757141,35.31999969482422,53.03150177001953,59.31050109863281,53.02799987792969,45.364498138427734,53.02199935913086,1770125266,981020503,X6-tool2,0.25761380417775703,-0.343749599493041,45.273632237817715,0.10471609668107813,0.10977445216704414,-0.11604955293027251,0.031266529113054276
2026-02-03 21:27:47.046475,1770125267,27907659,1,211932,45,1770125267,31241090,2,241864,0,1770125267,34625542,3,248747,361,1770125267,37906973,4,227142,0,1770125267,41277384,5,220095,-236,1770125267,44569765,6,219155,0,0.001418863539583981,-0.0009192916331812739,44.99733352661133,9.08518123626709,-4.343130111694336,-0.9944325685501099,35.38850021362305,53.028499603271484,59.6619987487793,53.02799987792969,45.12799835205078,53.02199935913086,1770125266,981020503,X6-tool2,0.25761380417775703,-0.343749599493041,45.273632237817715,0.10471609668107813,0.10977445216704414,-0.11604955293027251,0.031266529113054276
2026-02-03 21:27:47.083074,1770125267,67920183,1,212250,49,1770125267,71223555,2,241859,0,1770125267,74571956,3,250137,334,1770125267,77881147,4,227142,0,1770125267,81241348,5,219188,-210,1770125267,64590602,6,219155,0,0.00140674808062613,-0.00024477255647070706,44.9979133605957,8.916141510009766,-4.6873602867126465,-1.0050642490386963,35.4900016784668,53.028499603271484,60.36000061035156,53.03049850463867,44.678001403808594,53.02450180053711,1770125267,80807748,X6-tool2,0.23313350274290487,-0.29394082301341645,45.22785715999184,0.12582107996573366,0.10541446887891075,-0.12153903886687462,0.03233273699879646
2026-02-03 21:27:47.118984,1770125267,107959518,1,212487,66,1770125267,111283609,2,241859,0,1770125267,114629030,3,251510,348,1770125267,117935131,4,227142,0,1770125267,101290826,5,218749,-236,1770125267,104603537,6,219161,0,0.0006865017348900437,0.0008219534065574408,44.99797439575195,8.69986629486084,-5.042191505432129,-1.0344079732894897,35.63850021362305,53.0260009765625,61.057498931884766,53.03049850463867,44.2244987487793,53.02750015258789,1770125267,80807748,X6-tool2,0.23313350274290487,-0.29394082301341645,45.22785715999184,0.12582107996573366,0.10541446887891075,-0.12153903886687462,0.03233273699879646
2026-02-03 21:27:47.154138,1770125267,147962142,1,212827,89,1770125267,151285733,2,241853,0,1770125267,134627707,3,252219,356,1770125267,137937139,4,227142,0,1770125267,141293670,5,217892,-208,1770125267,144601801,6,219166,0,9.636167669668794e-05,0.001148757291957736,44.998260498046875,8.474044799804688,-5.389590740203857,-1.0591766834259033,35.79499816894531,53.0260009765625,61.74700164794922,53.03049850463867,43.782501220703125,53.029998779296875,1770125267,80807748,X6-tool2,0.23313350274290487,-0.29394082301341645,45.22785715999184,0.12582107996573366,0.10541446887891075,-0.12153903886687462,0.03233273699879646
2026-02-03 21:27:47.190245,1770125267,187931866,1,213173,82,1770125267,171268540,2,241853,0,1770125267,174593982,3,253619,331,1770125267,177939453,4,227148,0,1770125267,181266094,5,217018,-229,1770125267,184593895,6,219177,0,6.755257345503196e-05,0.0027675912715494633,44.99861145019531,8.245294570922852,-5.727264404296875,-1.0891724824905396,35.95949935913086,53.02299880981445,62.446998596191406,53.03350067138672,43.36750030517578,53.03300094604492,1770125267,181022874,X6-tool2,0.37666597191072726,-0.17343137967107936,45.35819609377956,0.14383029671911396,0.10114771677143213,-0.12669125979849136,0.03242015838623047
2026-02-03 21:27:47.226344,1770125267,207932673,1,213349,93,1770125267,211255305,2,241853,-10,1770125267,214597816,3,254943,329,1770125267,217920337,4,227148,0,1770125267,221261428,5,216189,-206,1770125267,224585699,6,219183,0,-0.0005225233035162091,0.003094361862167716,44.9989013671875,7.9889726638793945,-6.063500881195068,-1.099880337715149,36.135501861572266,53.02299880981445,63.10900115966797,53.03350067138672,42.930999755859375,53.035499572753906,1770125267,181022874,X6-tool2,0.37666597191072726,-0.17343137967107936,45.35819609377956,0.14383029671911396,0.10114771677143213,-0.12669125979849136,0.03242015838623047
2026-02-03 21:27:47.262519,1770125267,247930888,1,213761,105,1770125267,251257759,2,241853,0,1770125267,254599840,3,256317,367,1770125267,257919931,4,227148,0,1770125267,261236443,5,215398,-185,1770125267,244583997,6,219188,0,-0.0012305951677262783,0.00348647590726614,44.99924850463867,7.859931468963623,-6.229732990264893,-1.1098320484161377,36.229000091552734,53.02299880981445,63.45249938964844,53.03350067138672,42.724998474121094,53.03850173950195,1770125267,181022874,X6-tool2,0.37666597191072726,-0.17343137967107936,45.35819609377956,0.14383029671911396,0.10114771677143213,-0.12669125979849136,0.03242015838623047
2026-02-03 21:27:47.299233,1770125267,287934062,1,214140,94,1770125267,291238053,2,241848,0,1770125267,294599735,3,257437,237,1770125267,297896896,4,227153,0,1770125267,281235760,5,215030,-181,1770125267,284586291,6,219194,0,-0.0012544357450678945,0.004835462663322687,44.99953842163086,7.5829548835754395,-6.546546936035156,-1.135764718055725,36.4375,53.02050018310547,64.07599639892578,53.0359992980957,42.329498291015625,53.04100036621094,1770125267,280991770,X6-tool2,0.347722970017496,-0.1389486238131991,45.31525798910921,0.16203160048250256,0.09500573669936033,-0.13165704428158245,0.04311529919505119
2026-02-03 21:27:47.335538,1770125267,327930916,1,214525,107,1770125267,331256478,2,241848,0,1770125267,334603819,3,258558,250,1770125267,317918843,4,227153,0,1770125267,321236144,5,214283,-211,1770125267,324586345,6,219199,3,-0.0019624370615929365,0.00522753968834877,44.99988555908203,7.32305383682251,-6.83942985534668,-1.1438013315200806,36.62699890136719,53.02050018310547,64.66100311279297,53.0359992980957,41.95600128173828,53.04399871826172,1770125267,280991770,X6-tool2,0.347722970017496,-0.1389486238131991,45.31525798910921,0.16203160048250256,0.09500573669936033,-0.13165704428158245,0.04311529919505119
2026-02-03 21:27:47.370954,1770125267,367933121,1,214958,126,1770125267,351259045,2,241848,0,1770125267,354597956,3,259047,251,1770125267,357901157,4,227153,0,1770125267,361235939,5,213574,-166,1770125267,364565180,6,219199,0,-0.0025524222292006016,0.005554261617362499,45.00017547607422,7.045875072479248,-7.114553451538086,-1.1451202630996704,36.830501556396484,53.02050018310547,65.16100311279297,53.0359992980957,41.59049987792969,53.04650115966797,1770125267,280991770,X6-tool2,0.347722970017496,-0.1389486238131991,45.31525798910921,0.16203160048250256,0.09500573669936033,-0.13165704428158245,0.04311529919505119
2026-02-03 21:27:47.407476,1770125267,387931528,1,215244,146,1770125267,391255919,2,241848,0,1770125267,394599950,3,260013,208,1770125267,397918532,4,227159,0,1770125267,401252173,5,212915,-158,1770125267,404588264,6,219205,0,-0.0025665052235126495,0.006363579072058201,45.00086975097656,6.7387285232543945,-7.390780925750732,-1.1745563745498657,37.08300018310547,53.02050018310547,65.64399719238281,53.03900146484375,41.247501373291016,53.04949951171875,1770125267,380744565,X6-tool2,0.3948142462546417,-0.1717146552076241,45.308739798216514,0.17894982897203437,0.08799157269708499,-0.13571062124132924,0.02456378936767578
2026-02-03 21:27:47.443932,1770125267,427929172,1,215733,124,1770125267,431253824,2,241848,0,1770125267,434599115,3,260903,206,1770125267,437920776,4,227159,0,1770125267,441263247,5,212223,-168,1770125267,424584101,6,219205,0,-0.0025665052235126495,0.006363579072058201,45.00086975097656,6.591330051422119,-7.519923686981201,-1.1886042356491089,37.20650100708008,53.02050018310547,65.86399841308594,53.03900146484375,41.0880012512207,53.04949951171875,1770125267,380744565,X6-tool2,0.3948142462546417,-0.1717146552076241,45.308739798216514,0.17894982897203437,0.08799157269708499,-0.13571062124132924,0.02456378936767578
2026-02-03 21:27:47.482519,1770125267,467932146,1,216293,133,1770125267,471240478,2,241848,0,1770125267,474559979,3,261584,163,1770125267,477895620,4,227159,0,1770125267,481235741,5,211575,-156,1770125267,464587175,6,219205,0,-0.0025665052235126495,0.006363579072058201,45.00086975097656,6.266479015350342,-7.7848358154296875,-1.20461106300354,37.472999572753906,53.02050018310547,66.26200103759766,53.03900146484375,40.742000579833984,53.04949951171875,1770125267,480786191,X6-tool2,0.40033278856726345,-0.04900516007697743,45.35925283515508,0.19189802047327129,0.0803337924565758,-0.14013172782430777,0.03394031524658203
2026-02-03 21:27:47.519414,1770125267,507933331,1,216870,119,1770125267,511229082,2,241848,0,1770125267,514599433,3,262134,113,1770125267,517896084,4,227159,0,1770125267,501237129,5,211234,-178,1770125267,504588390,6,219199,-7,-0.0025665052235126495,0.006363579072058201,45.00086975097656,5.942096710205078,-8.033517837524414,-1.2217895984649658,37.747501373291016,53.02050018310547,66.5999984741211,53.03900146484375,40.417999267578125,53.04949951171875,1770125267,480786191,X6-tool2,0.40033278856726345,-0.04900516007697743,45.35925283515508,0.19189802047327129,0.0803337924565758,-0.14013172782430777,0.03394031524658203
2026-02-03 21:27:47.554673,1770125267,547931885,1,217425,126,1770125267,551258036,2,241848,0,1770125267,534600041,3,262365,112,1770125267,537917012,4,227164,0,1770125267,541265103,5,210652,-137,1770125267,544586574,6,219199,0,-0.0012803698191419244,0.00631922809407115,45.00081253051758,5.604112148284912,-8.266439437866211,-1.2313597202301025,38.0359992980957,53.02050018310547,66.81999969482422,53.041500091552734,40.096500396728516,53.04650115966797,1770125267,480786191,X6-tool2,0.40033278856726345,-0.04900516007697743,45.35925283515508,0.19189802047327129,0.0803337924565758,-0.14013172782430777,0.03394031524658203
2026-02-03 21:27:47.590883,1770125267,587929620,1,218051,174,1770125267,571226994,2,241848,0,1770125267,574600285,3,262667,51,1770125267,577896406,4,227164,0,1770125267,581236017,5,210125,-131,1770125267,584562228,6,219194,0,-0.0006904226611368358,0.005992503836750984,45.00052261352539,5.282925605773926,-8.473785400390625,-1.2550028562545776,38.32749938964844,53.02050018310547,66.97100067138672,53.041500091552734,39.821998596191406,53.04399871826172,1770125267,580767567,X6-tool2,0.24801576682592297,-0.18070808625617207,45.220098618431784,0.20259924974478397,0.06906219178184454,-0.14237360168362406,0.03267129138112068
2026-02-03 21:27:47.626881,1770125267,607931827,1,218397,167,1770125267,611255058,2,241848,0,1770125267,614598109,3,262809,48,1770125267,617895970,4,227164,0,1770125267,621234451,5,209509,-141,1770125267,624588163,6,219194,0,-0.0006904226611368358,0.005992503836750984,45.00052261352539,4.931582450866699,-8.68001937866211,-1.2878379821777344,38.65950012207031,53.02050018310547,67.04199981689453,53.041500091552734,39.54999923706055,53.04399871826172,1770125267,580767567,X6-tool2,0.24801576682592297,-0.18070808625617207,45.220098618431784,0.20259924974478397,0.06906219178184454,-0.14237360168362406,0.03267129138112068
2026-02-03 21:27:47.662675,1770125267,647931311,1,219073,184,1770125267,651255852,2,241859,0,1770125267,654599533,3,262733,-13,1770125267,657923165,4,227164,0,1770125267,661262426,5,209004,-123,1770125267,644565800,6,219194,0,-0.000664130668155849,0.004508529789745808,45.00115966796875,4.7402729988098145,-8.786246299743652,-1.2815961837768555,38.83000183105469,53.0260009765625,67.02050018310547,53.041500091552734,39.3849983215332,53.04399871826172,1770125267,580767567,X6-tool2,0.24801576682592297,-0.18070808625617207,45.220098618431784,0.20259924974478397,0.06906219178184454,-0.14237360168362406,0.03267129138112068
2026-02-03 21:27:47.698783,1770125267,687933805,1,219727,183,1770125267,691228737,2,241859,0,1770125267,694596348,3,262485,-70,1770125267,697897579,4,227164,0,1770125267,681237263,5,208751,-124,1770125267,684586574,6,219194,0,-0.000664130668155849,0.004508529789745808,45.00115966796875,4.4009575843811035,-8.967592239379883,-1.303336262702942,39.15650177001953,53.0260009765625,66.9844970703125,53.041500091552734,39.13249969482422,53.04399871826172,1770125267,681015593,X6-tool2,0.15835771172731009,-0.22800229847303477,45.153298333214764,0.20842608659798684,0.05809844120734484,-0.14224272553385842,0.04209613800048828
2026-02-03 21:27:47.734227,1770125267,727931719,1,220490,178,1770125267,731234061,2,241859,0,1770125267,714599995,3,262271,-120,1770125267,717900636,4,227164,0,1770125267,721235527,5,208224,-113,1770125267,724583498,6,219194,0,-0.000664130668155849,0.004508529789745808,45.00115966796875,4.038441181182861,-9.12979507446289,-1.3215044736862183,39.51100158691406,53.0260009765625,66.77300262451172,53.041500091552734,38.88249969482422,53.04399871826172,1770125267,681015593,X6-tool2,0.15835771172731009,-0.22800229847303477,45.153298333214764,0.20842608659798684,0.05809844120734484,-0.14224272553385842,0.04209613800048828
2026-02-03 21:27:47.770091,1770125267,767929424,1,221320,198,1770125267,751254538,2,241864,3,1770125267,754598889,3,261656,-153,1770125267,757895960,4,227164,0,1770125267,761263871,5,207751,-100,1770125267,764584933,6,219194,0,-0.0006521802861243486,0.0038340226747095585,45.00144958496094,3.6368069648742676,-9.295591354370117,-1.3357723951339722,39.9119987487793,53.028499603271484,66.46549987792969,53.041500091552734,38.61349868774414,53.04399871826172,1770125267,681015593,X6-tool2,0.15835771172731009,-0.22800229847303477,45.153298333214764,0.20842608659798684,0.05809844120734484,-0.14224272553385842,0.04209613800048828
